(G-CODE GENERATED BY FLATCAM v8.991 - www.flatcam.org - Version Date: 2019/12/27)

(Name: contorno)
(Type: G-code from Geometry)
(Units: MM)

(Created on Monday, 10 April 2023 at 17:00)

(TOOL DIAMETER: 2.4 mm)
(Feedrate: 120.0 mm/min)
(Feedrate_Z: 60.0 mm/min)
(Feedrate rapids 1500.0 mm/min)

(Z_Cut: -2.0 mm)
(DepthPerCut: 0.4 mm <=>5 passes)
(Z_Move: 2.0 mm)
(Z Toolchange: 15.0 mm)
(X,Y Toolchange: 0.0000, 0.0000 mm)
(Z Start: None mm)
(Z End: 15.0 mm)
(Steps per circle: 64)
(Preprocessor Geometry: default)

(X range:    0.4983 ...  137.7017  mm)
(Y range:   -0.4017 ...   92.6017  mm)

(Spindle Speed: None RPM)
G21
G90
G94




G01 F120.00
G00 Z2.0000

M03
G00 X0.4983 Y44.9000
G01 F60.00
G01 Z-0.4000
G01 F120.00
G01 X0.4983 Y0.7983
G01 X0.5041 Y0.6807
G01 X0.5214 Y0.5642
G01 X0.5500 Y0.4500
G01 X0.5897 Y0.3391
G01 X0.6400 Y0.2327
G01 X0.7006 Y0.1317
G01 X0.7707 Y0.0371
G01 X0.8498 Y-0.0502
G01 X0.9371 Y-0.1293
G01 X1.0317 Y-0.1994
G01 X1.1327 Y-0.2600
G01 X1.2391 Y-0.3103
G01 X1.3500 Y-0.3500
G01 X1.4642 Y-0.3786
G01 X1.5807 Y-0.3959
G01 X1.6983 Y-0.4017
G01 X67.9000 Y-0.4017
G00 X67.9000 Y-0.4017
G01 F60.00
G01 Z-0.8000
G01 F120.00
G01 X1.6983 Y-0.4017
G01 X1.5807 Y-0.3959
G01 X1.4642 Y-0.3786
G01 X1.3500 Y-0.3500
G01 X1.2391 Y-0.3103
G01 X1.1327 Y-0.2600
G01 X1.0317 Y-0.1994
G01 X0.9371 Y-0.1293
G01 X0.8498 Y-0.0502
G01 X0.7707 Y0.0371
G01 X0.7006 Y0.1317
G01 X0.6400 Y0.2327
G01 X0.5897 Y0.3391
G01 X0.5500 Y0.4500
G01 X0.5214 Y0.5642
G01 X0.5041 Y0.6807
G01 X0.4983 Y0.7983
G01 X0.4983 Y44.9000
G00 X0.4983 Y44.9000
G01 F60.00
G01 Z-1.2000
G01 F120.00
G01 X0.4983 Y0.7983
G01 X0.5041 Y0.6807
G01 X0.5214 Y0.5642
G01 X0.5500 Y0.4500
G01 X0.5897 Y0.3391
G01 X0.6400 Y0.2327
G01 X0.7006 Y0.1317
G01 X0.7707 Y0.0371
G01 X0.8498 Y-0.0502
G01 X0.9371 Y-0.1293
G01 X1.0317 Y-0.1994
G01 X1.1327 Y-0.2600
G01 X1.2391 Y-0.3103
G01 X1.3500 Y-0.3500
G01 X1.4642 Y-0.3786
G01 X1.5807 Y-0.3959
G01 X1.6983 Y-0.4017
G01 X67.9000 Y-0.4017
G00 X67.9000 Y-0.4017
G01 F60.00
G01 Z-1.6000
G01 F120.00
G01 X1.6983 Y-0.4017
G01 X1.5807 Y-0.3959
G01 X1.4642 Y-0.3786
G01 X1.3500 Y-0.3500
G01 X1.2391 Y-0.3103
G01 X1.1327 Y-0.2600
G01 X1.0317 Y-0.1994
G01 X0.9371 Y-0.1293
G01 X0.8498 Y-0.0502
G01 X0.7707 Y0.0371
G01 X0.7006 Y0.1317
G01 X0.6400 Y0.2327
G01 X0.5897 Y0.3391
G01 X0.5500 Y0.4500
G01 X0.5214 Y0.5642
G01 X0.5041 Y0.6807
G01 X0.4983 Y0.7983
G01 X0.4983 Y44.9000
G00 X0.4983 Y44.9000
G01 F60.00
G01 Z-2.0000
G01 F120.00
G01 X0.4983 Y0.7983
G01 X0.5041 Y0.6807
G01 X0.5214 Y0.5642
G01 X0.5500 Y0.4500
G01 X0.5897 Y0.3391
G01 X0.6400 Y0.2327
G01 X0.7006 Y0.1317
G01 X0.7707 Y0.0371
G01 X0.8498 Y-0.0502
G01 X0.9371 Y-0.1293
G01 X1.0317 Y-0.1994
G01 X1.1327 Y-0.2600
G01 X1.2391 Y-0.3103
G01 X1.3500 Y-0.3500
G01 X1.4642 Y-0.3786
G01 X1.5807 Y-0.3959
G01 X1.6983 Y-0.4017
G01 X67.9000 Y-0.4017
G00 Z2.0000
G00 X70.3000 Y-0.4017
G01 F60.00
G01 Z-0.4000
G01 F120.00
G01 X136.5017 Y-0.4017
G00 X136.5017 Y-0.4017
G01 F60.00
G01 Z-0.8000
G01 F120.00
G01 X70.3000 Y-0.4017
G00 X70.3000 Y-0.4017
G01 F60.00
G01 Z-1.2000
G01 F120.00
G01 X136.5017 Y-0.4017
G00 X136.5017 Y-0.4017
G01 F60.00
G01 Z-1.6000
G01 F120.00
G01 X70.3000 Y-0.4017
G00 X70.3000 Y-0.4017
G01 F60.00
G01 Z-2.0000
G01 F120.00
G01 X136.5017 Y-0.4017
G00 Z2.0000
G00 X136.5017 Y-0.4017
G01 F60.00
G01 Z-0.4000
G01 F120.00
G01 X136.6193 Y-0.3959
G01 X136.7358 Y-0.3786
G01 X136.8500 Y-0.3500
G01 X136.9609 Y-0.3103
G01 X137.0673 Y-0.2600
G01 X137.1683 Y-0.1994
G01 X137.2629 Y-0.1293
G01 X137.3502 Y-0.0502
G01 X137.4293 Y0.0371
G01 X137.4994 Y0.1317
G01 X137.5600 Y0.2327
G01 X137.6103 Y0.3391
G01 X137.6500 Y0.4500
G01 X137.6786 Y0.5642
G01 X137.6959 Y0.6807
G01 X137.7017 Y0.7983
G01 X137.7017 Y44.9000
G00 X137.7017 Y44.9000
G01 F60.00
G01 Z-0.8000
G01 F120.00
G01 X137.7017 Y0.7983
G01 X137.6959 Y0.6807
G01 X137.6786 Y0.5642
G01 X137.6500 Y0.4500
G01 X137.6103 Y0.3391
G01 X137.5600 Y0.2327
G01 X137.4994 Y0.1317
G01 X137.4293 Y0.0371
G01 X137.3502 Y-0.0502
G01 X137.2629 Y-0.1293
G01 X137.1683 Y-0.1994
G01 X137.0673 Y-0.2600
G01 X136.9609 Y-0.3103
G01 X136.8500 Y-0.3500
G01 X136.7358 Y-0.3786
G01 X136.6193 Y-0.3959
G01 X136.5017 Y-0.4017
G00 X136.5017 Y-0.4017
G01 F60.00
G01 Z-1.2000
G01 F120.00
G01 X136.6193 Y-0.3959
G01 X136.7358 Y-0.3786
G01 X136.8500 Y-0.3500
G01 X136.9609 Y-0.3103
G01 X137.0673 Y-0.2600
G01 X137.1683 Y-0.1994
G01 X137.2629 Y-0.1293
G01 X137.3502 Y-0.0502
G01 X137.4293 Y0.0371
G01 X137.4994 Y0.1317
G01 X137.5600 Y0.2327
G01 X137.6103 Y0.3391
G01 X137.6500 Y0.4500
G01 X137.6786 Y0.5642
G01 X137.6959 Y0.6807
G01 X137.7017 Y0.7983
G01 X137.7017 Y44.9000
G00 X137.7017 Y44.9000
G01 F60.00
G01 Z-1.6000
G01 F120.00
G01 X137.7017 Y0.7983
G01 X137.6959 Y0.6807
G01 X137.6786 Y0.5642
G01 X137.6500 Y0.4500
G01 X137.6103 Y0.3391
G01 X137.5600 Y0.2327
G01 X137.4994 Y0.1317
G01 X137.4293 Y0.0371
G01 X137.3502 Y-0.0502
G01 X137.2629 Y-0.1293
G01 X137.1683 Y-0.1994
G01 X137.0673 Y-0.2600
G01 X136.9609 Y-0.3103
G01 X136.8500 Y-0.3500
G01 X136.7358 Y-0.3786
G01 X136.6193 Y-0.3959
G01 X136.5017 Y-0.4017
G00 X136.5017 Y-0.4017
G01 F60.00
G01 Z-2.0000
G01 F120.00
G01 X136.6193 Y-0.3959
G01 X136.7358 Y-0.3786
G01 X136.8500 Y-0.3500
G01 X136.9609 Y-0.3103
G01 X137.0673 Y-0.2600
G01 X137.1683 Y-0.1994
G01 X137.2629 Y-0.1293
G01 X137.3502 Y-0.0502
G01 X137.4293 Y0.0371
G01 X137.4994 Y0.1317
G01 X137.5600 Y0.2327
G01 X137.6103 Y0.3391
G01 X137.6500 Y0.4500
G01 X137.6786 Y0.5642
G01 X137.6959 Y0.6807
G01 X137.7017 Y0.7983
G01 X137.7017 Y44.9000
G00 Z2.0000
G00 X137.7017 Y47.3000
G01 F60.00
G01 Z-0.4000
G01 F120.00
G01 X137.7017 Y91.4017
G01 X137.6959 Y91.5193
G01 X137.6786 Y91.6358
G01 X137.6500 Y91.7500
G01 X137.6103 Y91.8609
G01 X137.5600 Y91.9673
G01 X137.4994 Y92.0683
G01 X137.4293 Y92.1629
G01 X137.3502 Y92.2502
G01 X137.2629 Y92.3293
G01 X137.1683 Y92.3994
G01 X137.0673 Y92.4600
G01 X136.9609 Y92.5103
G01 X136.8500 Y92.5500
G01 X136.7358 Y92.5786
G01 X136.6193 Y92.5959
G01 X136.5017 Y92.6017
G01 X70.3000 Y92.6017
G00 X70.3000 Y92.6017
G01 F60.00
G01 Z-0.8000
G01 F120.00
G01 X136.5017 Y92.6017
G01 X136.6193 Y92.5959
G01 X136.7358 Y92.5786
G01 X136.8500 Y92.5500
G01 X136.9609 Y92.5103
G01 X137.0673 Y92.4600
G01 X137.1683 Y92.3994
G01 X137.2629 Y92.3293
G01 X137.3502 Y92.2502
G01 X137.4293 Y92.1629
G01 X137.4994 Y92.0683
G01 X137.5600 Y91.9673
G01 X137.6103 Y91.8609
G01 X137.6500 Y91.7500
G01 X137.6786 Y91.6358
G01 X137.6959 Y91.5193
G01 X137.7017 Y91.4017
G01 X137.7017 Y47.3000
G00 X137.7017 Y47.3000
G01 F60.00
G01 Z-1.2000
G01 F120.00
G01 X137.7017 Y91.4017
G01 X137.6959 Y91.5193
G01 X137.6786 Y91.6358
G01 X137.6500 Y91.7500
G01 X137.6103 Y91.8609
G01 X137.5600 Y91.9673
G01 X137.4994 Y92.0683
G01 X137.4293 Y92.1629
G01 X137.3502 Y92.2502
G01 X137.2629 Y92.3293
G01 X137.1683 Y92.3994
G01 X137.0673 Y92.4600
G01 X136.9609 Y92.5103
G01 X136.8500 Y92.5500
G01 X136.7358 Y92.5786
G01 X136.6193 Y92.5959
G01 X136.5017 Y92.6017
G01 X70.3000 Y92.6017
G00 X70.3000 Y92.6017
G01 F60.00
G01 Z-1.6000
G01 F120.00
G01 X136.5017 Y92.6017
G01 X136.6193 Y92.5959
G01 X136.7358 Y92.5786
G01 X136.8500 Y92.5500
G01 X136.9609 Y92.5103
G01 X137.0673 Y92.4600
G01 X137.1683 Y92.3994
G01 X137.2629 Y92.3293
G01 X137.3502 Y92.2502
G01 X137.4293 Y92.1629
G01 X137.4994 Y92.0683
G01 X137.5600 Y91.9673
G01 X137.6103 Y91.8609
G01 X137.6500 Y91.7500
G01 X137.6786 Y91.6358
G01 X137.6959 Y91.5193
G01 X137.7017 Y91.4017
G01 X137.7017 Y47.3000
G00 X137.7017 Y47.3000
G01 F60.00
G01 Z-2.0000
G01 F120.00
G01 X137.7017 Y91.4017
G01 X137.6959 Y91.5193
G01 X137.6786 Y91.6358
G01 X137.6500 Y91.7500
G01 X137.6103 Y91.8609
G01 X137.5600 Y91.9673
G01 X137.4994 Y92.0683
G01 X137.4293 Y92.1629
G01 X137.3502 Y92.2502
G01 X137.2629 Y92.3293
G01 X137.1683 Y92.3994
G01 X137.0673 Y92.4600
G01 X136.9609 Y92.5103
G01 X136.8500 Y92.5500
G01 X136.7358 Y92.5786
G01 X136.6193 Y92.5959
G01 X136.5017 Y92.6017
G01 X70.3000 Y92.6017
G00 Z2.0000
G00 X67.9000 Y92.6017
G01 F60.00
G01 Z-0.4000
G01 F120.00
G01 X1.6983 Y92.6017
G01 X1.5807 Y92.5959
G01 X1.4642 Y92.5786
G01 X1.3500 Y92.5500
G01 X1.2391 Y92.5103
G01 X1.1327 Y92.4600
G01 X1.0317 Y92.3994
G01 X0.9371 Y92.3293
G01 X0.8498 Y92.2502
G01 X0.7707 Y92.1629
G01 X0.7006 Y92.0683
G01 X0.6400 Y91.9673
G01 X0.5897 Y91.8609
G01 X0.5500 Y91.7500
G01 X0.5214 Y91.6358
G01 X0.5041 Y91.5193
G01 X0.4983 Y91.4017
G01 X0.4983 Y47.3000
G00 X0.4983 Y47.3000
G01 F60.00
G01 Z-0.8000
G01 F120.00
G01 X0.4983 Y91.4017
G01 X0.5041 Y91.5193
G01 X0.5214 Y91.6358
G01 X0.5500 Y91.7500
G01 X0.5897 Y91.8609
G01 X0.6400 Y91.9673
G01 X0.7006 Y92.0683
G01 X0.7707 Y92.1629
G01 X0.8498 Y92.2502
G01 X0.9371 Y92.3293
G01 X1.0317 Y92.3994
G01 X1.1327 Y92.4600
G01 X1.2391 Y92.5103
G01 X1.3500 Y92.5500
G01 X1.4642 Y92.5786
G01 X1.5807 Y92.5959
G01 X1.6983 Y92.6017
G01 X67.9000 Y92.6017
G00 X67.9000 Y92.6017
G01 F60.00
G01 Z-1.2000
G01 F120.00
G01 X1.6983 Y92.6017
G01 X1.5807 Y92.5959
G01 X1.4642 Y92.5786
G01 X1.3500 Y92.5500
G01 X1.2391 Y92.5103
G01 X1.1327 Y92.4600
G01 X1.0317 Y92.3994
G01 X0.9371 Y92.3293
G01 X0.8498 Y92.2502
G01 X0.7707 Y92.1629
G01 X0.7006 Y92.0683
G01 X0.6400 Y91.9673
G01 X0.5897 Y91.8609
G01 X0.5500 Y91.7500
G01 X0.5214 Y91.6358
G01 X0.5041 Y91.5193
G01 X0.4983 Y91.4017
G01 X0.4983 Y47.3000
G00 X0.4983 Y47.3000
G01 F60.00
G01 Z-1.6000
G01 F120.00
G01 X0.4983 Y91.4017
G01 X0.5041 Y91.5193
G01 X0.5214 Y91.6358
G01 X0.5500 Y91.7500
G01 X0.5897 Y91.8609
G01 X0.6400 Y91.9673
G01 X0.7006 Y92.0683
G01 X0.7707 Y92.1629
G01 X0.8498 Y92.2502
G01 X0.9371 Y92.3293
G01 X1.0317 Y92.3994
G01 X1.1327 Y92.4600
G01 X1.2391 Y92.5103
G01 X1.3500 Y92.5500
G01 X1.4642 Y92.5786
G01 X1.5807 Y92.5959
G01 X1.6983 Y92.6017
G01 X67.9000 Y92.6017
G00 X67.9000 Y92.6017
G01 F60.00
G01 Z-2.0000
G01 F120.00
G01 X1.6983 Y92.6017
G01 X1.5807 Y92.5959
G01 X1.4642 Y92.5786
G01 X1.3500 Y92.5500
G01 X1.2391 Y92.5103
G01 X1.1327 Y92.4600
G01 X1.0317 Y92.3994
G01 X0.9371 Y92.3293
G01 X0.8498 Y92.2502
G01 X0.7707 Y92.1629
G01 X0.7006 Y92.0683
G01 X0.6400 Y91.9673
G01 X0.5897 Y91.8609
G01 X0.5500 Y91.7500
G01 X0.5214 Y91.6358
G01 X0.5041 Y91.5193
G01 X0.4983 Y91.4017
G01 X0.4983 Y47.3000
G00 Z2.0000
M05
G00 Z2.0000
G00 Z15.00
G00 X0.0 Y0.0

