(G-CODE GENERATED BY FLATCAM v8.991 - www.flatcam.org - Version Date: 2019/12/27)

(Name: cubo led 8x8x8 - CADCAM Bottom Copper.GBR_ncc_cnc)
(Type: G-code from Geometry)
(Units: MM)

(Created on Monday, 10 April 2023 at 14:34)

(TOOL DIAMETER: 0.11 mm)
(Feedrate: 45.0 mm/min)
(Feedrate_Z: 25.0 mm/min)
(Feedrate rapids 1500.0 mm/min)

(Z_Cut: -0.0187 mm)
(Z_Move: 3.0 mm)
(Z Toolchange: 15.0 mm)
(X,Y Toolchange: 0.0000, 0.0000 mm)
(Z Start: None mm)
(Z End: 15.0 mm)
(Steps per circle: 64)
(Preprocessor Geometry: default)

(X range:    1.9567 ...  136.2433  mm)
(Y range:    1.0567 ...   91.1433  mm)

(Spindle Speed: None RPM)
G21
G90
G94




G01 F45.00
G00 Z3.0000

M03
G00 X1.9567 Y1.0567
G01 F25.00
G01 Z-0.0187
G01 F45.00
G01 X136.2433 Y1.0567
G01 X136.2433 Y91.1433
G01 X1.9567 Y91.1433
G01 X1.9567 Y1.0567
G00 Z3.0000
G00 X4.9081 Y17.8599
G01 F25.00
G01 Z-0.0187
G01 F45.00
G01 X4.9246 Y17.7489
G01 X4.9256 Y17.7436
G01 X4.9529 Y17.6348
G01 X4.9544 Y17.6297
G01 X4.9922 Y17.5241
G01 X4.9943 Y17.5191
G01 X5.0422 Y17.4177
G01 X5.0448 Y17.4129
G01 X5.1025 Y17.3167
G01 X5.1055 Y17.3122
G01 X5.1723 Y17.2221
G01 X5.1757 Y17.2180
G01 X5.2510 Y17.1348
G01 X5.2548 Y17.1310
G01 X5.3380 Y17.0557
G01 X5.3421 Y17.0523
G01 X5.4322 Y16.9855
G01 X5.4367 Y16.9825
G01 X5.5329 Y16.9248
G01 X5.5377 Y16.9222
G01 X5.6391 Y16.8743
G01 X5.6441 Y16.8722
G01 X5.7497 Y16.8344
G01 X5.7548 Y16.8329
G01 X5.8636 Y16.8056
G01 X5.8689 Y16.8046
G01 X5.9799 Y16.7881
G01 X5.9853 Y16.7876
G01 X6.0973 Y16.7821
G01 X6.1027 Y16.7821
G01 X6.2147 Y16.7876
G01 X6.2201 Y16.7881
G01 X6.3311 Y16.8046
G01 X6.3364 Y16.8056
G01 X6.4452 Y16.8329
G01 X6.4503 Y16.8344
G01 X6.5559 Y16.8722
G01 X6.5609 Y16.8743
G01 X6.6623 Y16.9222
G01 X6.6671 Y16.9248
G01 X6.7633 Y16.9825
G01 X6.7678 Y16.9855
G01 X6.8579 Y17.0523
G01 X6.8620 Y17.0557
G01 X6.9452 Y17.1310
G01 X6.9742 Y17.1626
G01 X16.1800 Y17.1626
G01 X16.2574 Y17.1664
G01 X16.2628 Y17.1669
G01 X16.3368 Y17.1779
G01 X16.4147 Y17.1971
G01 X16.4903 Y17.2239
G01 X16.4953 Y17.2259
G01 X16.5677 Y17.2605
G01 X16.6363 Y17.3019
G01 X16.6964 Y17.3465
G01 X16.7006 Y17.3499
G01 X16.7580 Y17.4020
G01 X22.3578 Y23.0018
G01 X38.4192 Y23.0018
G01 X38.4966 Y23.0056
G01 X38.5760 Y23.0171
G01 X38.5813 Y23.0181
G01 X38.6590 Y23.0379
G01 X38.7345 Y23.0651
G01 X38.8021 Y23.0971
G01 X38.8710 Y23.1381
G01 X38.9356 Y23.1857
G01 X38.9398 Y23.1891
G01 X38.9972 Y23.2412
G01 X42.2780 Y26.5220
G01 X42.3301 Y26.5794
G01 X42.3335 Y26.5836
G01 X42.3811 Y26.6482
G01 X42.4221 Y26.7171
G01 X42.4541 Y26.7847
G01 X42.4813 Y26.8602
G01 X42.5011 Y26.9379
G01 X42.5021 Y26.9432
G01 X42.5136 Y27.0226
G01 X42.5174 Y27.1000
G01 X42.5174 Y28.2223
G01 X42.5490 Y28.2513
G01 X42.6243 Y28.3344
G01 X42.6277 Y28.3386
G01 X42.6945 Y28.4287
G01 X42.6975 Y28.4332
G01 X42.7552 Y28.5294
G01 X42.7578 Y28.5342
G01 X42.8057 Y28.6356
G01 X42.8078 Y28.6406
G01 X42.8456 Y28.7462
G01 X42.8471 Y28.7513
G01 X42.8744 Y28.8601
G01 X42.8754 Y28.8654
G01 X42.8919 Y28.9764
G01 X42.8924 Y28.9818
G01 X42.8979 Y29.0938
G01 X42.8979 Y29.0992
G01 X42.8924 Y29.2112
G01 X42.8919 Y29.2166
G01 X42.8754 Y29.3275
G01 X42.8744 Y29.3328
G01 X42.8471 Y29.4416
G01 X42.8456 Y29.4468
G01 X42.8078 Y29.5524
G01 X42.8057 Y29.5574
G01 X42.7578 Y29.6588
G01 X42.7552 Y29.6636
G01 X42.6975 Y29.7598
G01 X42.6945 Y29.7643
G01 X42.6277 Y29.8544
G01 X42.6243 Y29.8585
G01 X42.5490 Y29.9416
G01 X42.5452 Y29.9455
G01 X42.4620 Y30.0208
G01 X42.4579 Y30.0242
G01 X42.3678 Y30.0910
G01 X42.3633 Y30.0940
G01 X42.2671 Y30.1517
G01 X42.2623 Y30.1542
G01 X42.1609 Y30.2022
G01 X42.1559 Y30.2043
G01 X42.0503 Y30.2421
G01 X42.0452 Y30.2436
G01 X41.9364 Y30.2709
G01 X41.9311 Y30.2719
G01 X41.8201 Y30.2884
G01 X41.8147 Y30.2889
G01 X41.7027 Y30.2944
G01 X41.6973 Y30.2944
G01 X41.5853 Y30.2889
G01 X41.5799 Y30.2884
G01 X41.4689 Y30.2719
G01 X41.4636 Y30.2709
G01 X41.3548 Y30.2436
G01 X41.3497 Y30.2421
G01 X41.2441 Y30.2043
G01 X41.2391 Y30.2022
G01 X41.1377 Y30.1542
G01 X41.1329 Y30.1517
G01 X41.0367 Y30.0940
G01 X41.0322 Y30.0910
G01 X40.9421 Y30.0242
G01 X40.9380 Y30.0208
G01 X40.8548 Y29.9455
G01 X40.8510 Y29.9416
G01 X40.7757 Y29.8585
G01 X40.7723 Y29.8544
G01 X40.7055 Y29.7643
G01 X40.7025 Y29.7598
G01 X40.6448 Y29.6636
G01 X40.6422 Y29.6588
G01 X40.5943 Y29.5574
G01 X40.5922 Y29.5524
G01 X40.5544 Y29.4468
G01 X40.5529 Y29.4416
G01 X40.5256 Y29.3328
G01 X40.5246 Y29.3275
G01 X40.5081 Y29.2166
G01 X40.5076 Y29.2112
G01 X40.5021 Y29.0992
G01 X40.5021 Y29.0938
G01 X40.5076 Y28.9818
G01 X40.5081 Y28.9764
G01 X40.5246 Y28.8654
G01 X40.5256 Y28.8601
G01 X40.5529 Y28.7513
G01 X40.5544 Y28.7462
G01 X40.5922 Y28.6406
G01 X40.5943 Y28.6356
G01 X40.6422 Y28.5342
G01 X40.6448 Y28.5294
G01 X40.7025 Y28.4332
G01 X40.7055 Y28.4287
G01 X40.7723 Y28.3386
G01 X40.7757 Y28.3344
G01 X40.8510 Y28.2513
G01 X40.8826 Y28.2223
G01 X40.8826 Y27.4386
G01 X38.0806 Y24.6366
G01 X22.0192 Y24.6366
G01 X21.9418 Y24.6328
G01 X21.9364 Y24.6323
G01 X21.8571 Y24.6203
G01 X21.7794 Y24.6005
G01 X21.7089 Y24.5753
G01 X21.7039 Y24.5733
G01 X21.6315 Y24.5387
G01 X21.5629 Y24.4973
G01 X21.5028 Y24.4527
G01 X21.4986 Y24.4493
G01 X21.4412 Y24.3972
G01 X15.8414 Y18.7974
G01 X6.9742 Y18.7974
G01 X6.9452 Y18.8290
G01 X6.8620 Y18.9043
G01 X6.8579 Y18.9077
G01 X6.7678 Y18.9745
G01 X6.7633 Y18.9775
G01 X6.6671 Y19.0352
G01 X6.6623 Y19.0378
G01 X6.5609 Y19.0857
G01 X6.5559 Y19.0878
G01 X6.4503 Y19.1256
G01 X6.4452 Y19.1271
G01 X6.3364 Y19.1544
G01 X6.3311 Y19.1554
G01 X6.2201 Y19.1719
G01 X6.2147 Y19.1724
G01 X6.1027 Y19.1779
G01 X6.0973 Y19.1779
G01 X5.9853 Y19.1724
G01 X5.9799 Y19.1719
G01 X5.8689 Y19.1554
G01 X5.8636 Y19.1544
G01 X5.7548 Y19.1271
G01 X5.7497 Y19.1256
G01 X5.6441 Y19.0878
G01 X5.6391 Y19.0857
G01 X5.5377 Y19.0378
G01 X5.5329 Y19.0352
G01 X5.4367 Y18.9775
G01 X5.4322 Y18.9745
G01 X5.3421 Y18.9077
G01 X5.3380 Y18.9043
G01 X5.2548 Y18.8290
G01 X5.2510 Y18.8252
G01 X5.1757 Y18.7420
G01 X5.1723 Y18.7379
G01 X5.1055 Y18.6478
G01 X5.1025 Y18.6433
G01 X5.0448 Y18.5471
G01 X5.0422 Y18.5423
G01 X4.9943 Y18.4409
G01 X4.9922 Y18.4359
G01 X4.9544 Y18.3303
G01 X4.9529 Y18.3252
G01 X4.9256 Y18.2164
G01 X4.9246 Y18.2111
G01 X4.9081 Y18.1001
G01 X4.9076 Y18.0947
G01 X4.9021 Y17.9827
G01 X4.9021 Y17.9773
G01 X4.9076 Y17.8653
G01 X4.9081 Y17.8599
G00 Z3.0000
G00 X4.9081 Y20.4599
G01 F25.00
G01 Z-0.0187
G01 F45.00
G01 X4.9246 Y20.3489
G01 X4.9256 Y20.3436
G01 X4.9529 Y20.2348
G01 X4.9544 Y20.2297
G01 X4.9922 Y20.1241
G01 X4.9943 Y20.1191
G01 X5.0422 Y20.0177
G01 X5.0448 Y20.0129
G01 X5.1025 Y19.9167
G01 X5.1055 Y19.9122
G01 X5.1723 Y19.8221
G01 X5.1757 Y19.8180
G01 X5.2510 Y19.7348
G01 X5.2548 Y19.7310
G01 X5.3380 Y19.6557
G01 X5.3421 Y19.6523
G01 X5.4322 Y19.5855
G01 X5.4367 Y19.5825
G01 X5.5329 Y19.5248
G01 X5.5377 Y19.5222
G01 X5.6391 Y19.4743
G01 X5.6441 Y19.4722
G01 X5.7497 Y19.4344
G01 X5.7548 Y19.4329
G01 X5.8636 Y19.4056
G01 X5.8689 Y19.4046
G01 X5.9799 Y19.3881
G01 X5.9853 Y19.3876
G01 X6.0973 Y19.3821
G01 X6.1027 Y19.3821
G01 X6.2147 Y19.3876
G01 X6.2201 Y19.3881
G01 X6.3311 Y19.4046
G01 X6.3364 Y19.4056
G01 X6.4452 Y19.4329
G01 X6.4503 Y19.4344
G01 X6.5559 Y19.4722
G01 X6.5609 Y19.4743
G01 X6.6623 Y19.5222
G01 X6.6671 Y19.5248
G01 X6.7633 Y19.5825
G01 X6.7678 Y19.5855
G01 X6.8579 Y19.6523
G01 X6.8620 Y19.6557
G01 X6.9452 Y19.7310
G01 X6.9742 Y19.7626
G01 X16.0612 Y19.7626
G01 X16.1386 Y19.7664
G01 X16.2180 Y19.7779
G01 X16.2959 Y19.7971
G01 X16.3715 Y19.8239
G01 X16.4441 Y19.8579
G01 X16.5130 Y19.8989
G01 X16.5776 Y19.9465
G01 X16.5818 Y19.9499
G01 X16.6392 Y20.0020
G01 X28.7198 Y32.0826
G01 X35.8026 Y32.0826
G01 X35.8026 Y29.9706
G01 X35.7710 Y29.9416
G01 X35.6957 Y29.8585
G01 X35.6923 Y29.8544
G01 X35.6255 Y29.7643
G01 X35.6225 Y29.7598
G01 X35.5648 Y29.6636
G01 X35.5622 Y29.6588
G01 X35.5143 Y29.5574
G01 X35.5122 Y29.5524
G01 X35.4744 Y29.4468
G01 X35.4729 Y29.4416
G01 X35.4456 Y29.3328
G01 X35.4446 Y29.3275
G01 X35.4281 Y29.2166
G01 X35.4276 Y29.2112
G01 X35.4221 Y29.0992
G01 X35.4221 Y29.0938
G01 X35.4276 Y28.9818
G01 X35.4281 Y28.9764
G01 X35.4446 Y28.8654
G01 X35.4456 Y28.8601
G01 X35.4729 Y28.7513
G01 X35.4744 Y28.7462
G01 X35.5122 Y28.6406
G01 X35.5143 Y28.6356
G01 X35.5622 Y28.5342
G01 X35.5648 Y28.5294
G01 X35.6225 Y28.4332
G01 X35.6255 Y28.4287
G01 X35.6923 Y28.3386
G01 X35.6957 Y28.3344
G01 X35.7710 Y28.2513
G01 X35.7748 Y28.2475
G01 X35.8580 Y28.1722
G01 X35.8621 Y28.1688
G01 X35.9522 Y28.1019
G01 X35.9567 Y28.0989
G01 X36.0529 Y28.0413
G01 X36.0577 Y28.0387
G01 X36.1591 Y27.9908
G01 X36.1641 Y27.9887
G01 X36.2697 Y27.9509
G01 X36.2748 Y27.9494
G01 X36.3836 Y27.9221
G01 X36.3889 Y27.9210
G01 X36.4999 Y27.9046
G01 X36.5053 Y27.9041
G01 X36.6173 Y27.8986
G01 X36.6227 Y27.8986
G01 X36.7347 Y27.9041
G01 X36.7401 Y27.9046
G01 X36.8511 Y27.9210
G01 X36.8564 Y27.9221
G01 X36.9652 Y27.9494
G01 X36.9703 Y27.9509
G01 X37.0759 Y27.9887
G01 X37.0809 Y27.9908
G01 X37.1823 Y28.0387
G01 X37.1871 Y28.0413
G01 X37.2833 Y28.0989
G01 X37.2878 Y28.1019
G01 X37.3779 Y28.1688
G01 X37.3820 Y28.1722
G01 X37.4652 Y28.2475
G01 X37.4690 Y28.2513
G01 X37.5443 Y28.3344
G01 X37.5477 Y28.3386
G01 X37.6145 Y28.4287
G01 X37.6175 Y28.4332
G01 X37.6752 Y28.5294
G01 X37.6778 Y28.5342
G01 X37.7257 Y28.6356
G01 X37.7278 Y28.6406
G01 X37.7656 Y28.7462
G01 X37.7671 Y28.7513
G01 X37.7944 Y28.8601
G01 X37.7954 Y28.8654
G01 X37.8119 Y28.9764
G01 X37.8124 Y28.9818
G01 X37.8179 Y29.0938
G01 X37.8179 Y29.0992
G01 X37.8124 Y29.2112
G01 X37.8119 Y29.2166
G01 X37.7954 Y29.3275
G01 X37.7944 Y29.3328
G01 X37.7671 Y29.4416
G01 X37.7656 Y29.4468
G01 X37.7278 Y29.5524
G01 X37.7257 Y29.5574
G01 X37.6778 Y29.6588
G01 X37.6752 Y29.6636
G01 X37.6175 Y29.7598
G01 X37.6145 Y29.7643
G01 X37.5477 Y29.8544
G01 X37.5443 Y29.8585
G01 X37.4690 Y29.9416
G01 X37.4374 Y29.9706
G01 X37.4374 Y31.2595
G01 X40.7195 Y34.5416
G01 X51.3826 Y34.5416
G01 X51.3826 Y30.1944
G01 X51.2977 Y30.1542
G01 X51.2929 Y30.1517
G01 X51.1967 Y30.0940
G01 X51.1922 Y30.0910
G01 X51.1021 Y30.0242
G01 X51.0980 Y30.0208
G01 X51.0148 Y29.9455
G01 X51.0110 Y29.9416
G01 X50.9357 Y29.8585
G01 X50.9323 Y29.8544
G01 X50.8655 Y29.7643
G01 X50.8625 Y29.7598
G01 X50.8048 Y29.6636
G01 X50.8022 Y29.6588
G01 X50.7543 Y29.5574
G01 X50.7522 Y29.5524
G01 X50.7144 Y29.4468
G01 X50.7129 Y29.4416
G01 X50.6856 Y29.3328
G01 X50.6846 Y29.3275
G01 X50.6681 Y29.2166
G01 X50.6676 Y29.2112
G01 X50.6621 Y29.0992
G01 X50.6621 Y29.0938
G01 X50.6676 Y28.9818
G01 X50.6681 Y28.9764
G01 X50.6846 Y28.8654
G01 X50.6856 Y28.8601
G01 X50.7129 Y28.7513
G01 X50.7144 Y28.7462
G01 X50.7522 Y28.6406
G01 X50.7543 Y28.6356
G01 X50.8022 Y28.5342
G01 X50.8048 Y28.5294
G01 X50.8625 Y28.4332
G01 X50.8655 Y28.4287
G01 X50.9323 Y28.3386
G01 X50.9357 Y28.3344
G01 X51.0110 Y28.2513
G01 X51.0148 Y28.2475
G01 X51.0980 Y28.1722
G01 X51.1021 Y28.1688
G01 X51.1922 Y28.1019
G01 X51.1967 Y28.0989
G01 X51.2929 Y28.0413
G01 X51.2977 Y28.0387
G01 X51.3991 Y27.9908
G01 X51.4041 Y27.9887
G01 X51.5097 Y27.9509
G01 X51.5148 Y27.9494
G01 X51.6236 Y27.9221
G01 X51.6289 Y27.9210
G01 X51.7399 Y27.9046
G01 X51.7453 Y27.9041
G01 X51.8573 Y27.8986
G01 X51.8627 Y27.8986
G01 X51.9747 Y27.9041
G01 X51.9801 Y27.9046
G01 X52.0911 Y27.9210
G01 X52.0964 Y27.9221
G01 X52.2052 Y27.9494
G01 X52.2103 Y27.9509
G01 X52.3159 Y27.9887
G01 X52.3209 Y27.9908
G01 X52.4223 Y28.0387
G01 X52.4271 Y28.0413
G01 X52.5233 Y28.0989
G01 X52.5278 Y28.1019
G01 X52.6179 Y28.1688
G01 X52.6220 Y28.1722
G01 X52.7052 Y28.2475
G01 X52.7090 Y28.2513
G01 X52.7843 Y28.3344
G01 X52.7877 Y28.3386
G01 X52.8545 Y28.4287
G01 X52.8575 Y28.4332
G01 X52.9152 Y28.5294
G01 X52.9178 Y28.5342
G01 X52.9657 Y28.6356
G01 X52.9678 Y28.6406
G01 X53.0056 Y28.7462
G01 X53.0071 Y28.7513
G01 X53.0344 Y28.8601
G01 X53.0354 Y28.8654
G01 X53.0519 Y28.9764
G01 X53.0524 Y28.9818
G01 X53.0579 Y29.0938
G01 X53.0579 Y29.0992
G01 X53.0524 Y29.2112
G01 X53.0519 Y29.2166
G01 X53.0354 Y29.3275
G01 X53.0160 Y29.4064
G01 X53.0174 Y29.4365
G01 X53.0174 Y34.5416
G01 X61.2026 Y34.5416
G01 X61.2026 Y29.9706
G01 X61.1710 Y29.9416
G01 X61.0957 Y29.8585
G01 X61.0923 Y29.8544
G01 X61.0255 Y29.7643
G01 X61.0225 Y29.7598
G01 X60.9648 Y29.6636
G01 X60.9622 Y29.6588
G01 X60.9143 Y29.5574
G01 X60.9122 Y29.5524
G01 X60.8744 Y29.4468
G01 X60.8729 Y29.4416
G01 X60.8456 Y29.3328
G01 X60.8446 Y29.3275
G01 X60.8281 Y29.2166
G01 X60.8276 Y29.2112
G01 X60.8221 Y29.0992
G01 X60.8221 Y29.0938
G01 X60.8276 Y28.9818
G01 X60.8281 Y28.9764
G01 X60.8446 Y28.8654
G01 X60.8456 Y28.8601
G01 X60.8729 Y28.7513
G01 X60.8744 Y28.7462
G01 X60.9122 Y28.6406
G01 X60.9143 Y28.6356
G01 X60.9622 Y28.5342
G01 X60.9648 Y28.5294
G01 X61.0225 Y28.4332
G01 X61.0255 Y28.4287
G01 X61.0923 Y28.3386
G01 X61.0957 Y28.3344
G01 X61.1710 Y28.2513
G01 X61.1748 Y28.2475
G01 X61.2580 Y28.1722
G01 X61.2621 Y28.1688
G01 X61.3522 Y28.1019
G01 X61.3567 Y28.0989
G01 X61.4529 Y28.0413
G01 X61.4577 Y28.0387
G01 X61.5591 Y27.9908
G01 X61.5641 Y27.9887
G01 X61.6697 Y27.9509
G01 X61.6748 Y27.9494
G01 X61.7836 Y27.9221
G01 X61.7889 Y27.9210
G01 X61.8999 Y27.9046
G01 X61.9053 Y27.9041
G01 X62.0173 Y27.8986
G01 X62.0227 Y27.8986
G01 X62.1347 Y27.9041
G01 X62.1401 Y27.9046
G01 X62.2511 Y27.9210
G01 X62.2564 Y27.9221
G01 X62.3652 Y27.9494
G01 X62.3703 Y27.9509
G01 X62.4759 Y27.9887
G01 X62.4809 Y27.9908
G01 X62.5823 Y28.0387
G01 X62.5871 Y28.0413
G01 X62.6833 Y28.0989
G01 X62.6878 Y28.1019
G01 X62.7779 Y28.1688
G01 X62.7820 Y28.1722
G01 X62.8652 Y28.2475
G01 X62.8690 Y28.2513
G01 X62.9443 Y28.3344
G01 X62.9477 Y28.3386
G01 X63.0145 Y28.4287
G01 X63.0175 Y28.4332
G01 X63.0752 Y28.5294
G01 X63.0778 Y28.5342
G01 X63.1257 Y28.6356
G01 X63.1278 Y28.6406
G01 X63.1656 Y28.7462
G01 X63.1671 Y28.7513
G01 X63.1944 Y28.8601
G01 X63.1954 Y28.8654
G01 X63.2119 Y28.9764
G01 X63.2124 Y28.9818
G01 X63.2179 Y29.0938
G01 X63.2179 Y29.0992
G01 X63.2124 Y29.2112
G01 X63.2119 Y29.2166
G01 X63.1954 Y29.3275
G01 X63.1944 Y29.3328
G01 X63.1671 Y29.4416
G01 X63.1656 Y29.4468
G01 X63.1278 Y29.5524
G01 X63.1257 Y29.5574
G01 X63.0778 Y29.6588
G01 X63.0752 Y29.6636
G01 X63.0175 Y29.7598
G01 X63.0145 Y29.7643
G01 X62.9477 Y29.8544
G01 X62.9443 Y29.8585
G01 X62.8690 Y29.9416
G01 X62.8374 Y29.9706
G01 X62.8374 Y34.5416
G01 X76.4426 Y34.5416
G01 X76.4426 Y29.9706
G01 X76.4110 Y29.9416
G01 X76.3357 Y29.8585
G01 X76.3323 Y29.8544
G01 X76.2655 Y29.7643
G01 X76.2625 Y29.7598
G01 X76.2048 Y29.6636
G01 X76.2022 Y29.6588
G01 X76.1543 Y29.5574
G01 X76.1522 Y29.5524
G01 X76.1144 Y29.4468
G01 X76.1129 Y29.4416
G01 X76.0856 Y29.3328
G01 X76.0846 Y29.3275
G01 X76.0681 Y29.2166
G01 X76.0676 Y29.2112
G01 X76.0621 Y29.0992
G01 X76.0621 Y29.0938
G01 X76.0676 Y28.9818
G01 X76.0681 Y28.9764
G01 X76.0846 Y28.8654
G01 X76.0856 Y28.8601
G01 X76.1129 Y28.7513
G01 X76.1144 Y28.7462
G01 X76.1522 Y28.6406
G01 X76.1543 Y28.6356
G01 X76.2022 Y28.5342
G01 X76.2048 Y28.5294
G01 X76.2625 Y28.4332
G01 X76.2655 Y28.4287
G01 X76.3323 Y28.3386
G01 X76.3357 Y28.3344
G01 X76.4110 Y28.2513
G01 X76.4148 Y28.2475
G01 X76.4980 Y28.1722
G01 X76.5021 Y28.1688
G01 X76.5922 Y28.1019
G01 X76.5967 Y28.0989
G01 X76.6929 Y28.0413
G01 X76.6977 Y28.0387
G01 X76.7991 Y27.9908
G01 X76.8041 Y27.9887
G01 X76.9097 Y27.9509
G01 X76.9148 Y27.9494
G01 X77.0236 Y27.9221
G01 X77.0289 Y27.9210
G01 X77.1399 Y27.9046
G01 X77.1453 Y27.9041
G01 X77.2573 Y27.8986
G01 X77.2627 Y27.8986
G01 X77.3747 Y27.9041
G01 X77.3801 Y27.9046
G01 X77.4911 Y27.9210
G01 X77.4964 Y27.9221
G01 X77.6052 Y27.9494
G01 X77.6103 Y27.9509
G01 X77.7159 Y27.9887
G01 X77.7209 Y27.9908
G01 X77.8223 Y28.0387
G01 X77.8271 Y28.0413
G01 X77.9233 Y28.0989
G01 X77.9278 Y28.1019
G01 X78.0179 Y28.1688
G01 X78.0220 Y28.1722
G01 X78.1052 Y28.2475
G01 X78.1090 Y28.2513
G01 X78.1843 Y28.3344
G01 X78.1877 Y28.3386
G01 X78.2545 Y28.4287
G01 X78.2575 Y28.4332
G01 X78.3152 Y28.5294
G01 X78.3178 Y28.5342
G01 X78.3657 Y28.6356
G01 X78.3678 Y28.6406
G01 X78.4056 Y28.7462
G01 X78.4071 Y28.7513
G01 X78.4344 Y28.8601
G01 X78.4354 Y28.8654
G01 X78.4519 Y28.9764
G01 X78.4524 Y28.9818
G01 X78.4579 Y29.0938
G01 X78.4579 Y29.0992
G01 X78.4524 Y29.2112
G01 X78.4519 Y29.2166
G01 X78.4354 Y29.3275
G01 X78.4344 Y29.3328
G01 X78.4071 Y29.4416
G01 X78.4056 Y29.4468
G01 X78.3678 Y29.5524
G01 X78.3657 Y29.5574
G01 X78.3178 Y29.6588
G01 X78.3152 Y29.6636
G01 X78.2575 Y29.7598
G01 X78.2545 Y29.7643
G01 X78.1877 Y29.8544
G01 X78.1843 Y29.8585
G01 X78.1090 Y29.9416
G01 X78.0774 Y29.9706
G01 X78.0774 Y34.5416
G01 X86.1026 Y34.5416
G01 X86.1026 Y30.0706
G01 X86.0710 Y30.0416
G01 X85.9957 Y29.9585
G01 X85.9923 Y29.9544
G01 X85.9255 Y29.8643
G01 X85.9225 Y29.8598
G01 X85.8648 Y29.7636
G01 X85.8622 Y29.7588
G01 X85.8143 Y29.6574
G01 X85.8122 Y29.6524
G01 X85.7744 Y29.5468
G01 X85.7729 Y29.5416
G01 X85.7456 Y29.4328
G01 X85.7446 Y29.4275
G01 X85.7281 Y29.3166
G01 X85.7276 Y29.3112
G01 X85.7221 Y29.1992
G01 X85.7221 Y29.1938
G01 X85.7276 Y29.0818
G01 X85.7281 Y29.0764
G01 X85.7446 Y28.9654
G01 X85.7456 Y28.9601
G01 X85.7729 Y28.8513
G01 X85.7744 Y28.8462
G01 X85.8122 Y28.7406
G01 X85.8143 Y28.7356
G01 X85.8622 Y28.6342
G01 X85.8648 Y28.6294
G01 X85.9225 Y28.5332
G01 X85.9255 Y28.5287
G01 X85.9923 Y28.4386
G01 X85.9957 Y28.4344
G01 X86.0710 Y28.3513
G01 X86.0748 Y28.3475
G01 X86.1580 Y28.2722
G01 X86.1621 Y28.2688
G01 X86.2522 Y28.2019
G01 X86.2567 Y28.1989
G01 X86.3529 Y28.1413
G01 X86.3577 Y28.1387
G01 X86.4591 Y28.0908
G01 X86.4641 Y28.0887
G01 X86.5697 Y28.0509
G01 X86.5748 Y28.0494
G01 X86.6836 Y28.0221
G01 X86.6889 Y28.0210
G01 X86.7999 Y28.0046
G01 X86.8053 Y28.0041
G01 X86.9173 Y27.9986
G01 X86.9227 Y27.9986
G01 X87.0347 Y28.0041
G01 X87.0401 Y28.0046
G01 X87.1511 Y28.0210
G01 X87.1564 Y28.0221
G01 X87.2652 Y28.0494
G01 X87.2703 Y28.0509
G01 X87.3759 Y28.0887
G01 X87.3809 Y28.0908
G01 X87.4823 Y28.1387
G01 X87.4871 Y28.1413
G01 X87.5833 Y28.1989
G01 X87.5878 Y28.2019
G01 X87.6779 Y28.2688
G01 X87.6820 Y28.2722
G01 X87.7652 Y28.3475
G01 X87.7690 Y28.3513
G01 X87.8443 Y28.4344
G01 X87.8477 Y28.4386
G01 X87.9145 Y28.5287
G01 X87.9175 Y28.5332
G01 X87.9752 Y28.6294
G01 X87.9778 Y28.6342
G01 X88.0257 Y28.7356
G01 X88.0278 Y28.7406
G01 X88.0656 Y28.8462
G01 X88.0671 Y28.8513
G01 X88.0944 Y28.9601
G01 X88.0954 Y28.9654
G01 X88.1119 Y29.0764
G01 X88.1124 Y29.0818
G01 X88.1179 Y29.1938
G01 X88.1179 Y29.1992
G01 X88.1124 Y29.3112
G01 X88.1119 Y29.3166
G01 X88.0954 Y29.4275
G01 X88.0944 Y29.4328
G01 X88.0671 Y29.5416
G01 X88.0656 Y29.5468
G01 X88.0278 Y29.6524
G01 X88.0257 Y29.6574
G01 X87.9778 Y29.7588
G01 X87.9752 Y29.7636
G01 X87.9175 Y29.8598
G01 X87.9145 Y29.8643
G01 X87.8477 Y29.9544
G01 X87.8443 Y29.9585
G01 X87.7690 Y30.0416
G01 X87.7374 Y30.0706
G01 X87.7374 Y34.5416
G01 X101.6826 Y34.5416
G01 X101.6826 Y30.2944
G01 X101.5977 Y30.2542
G01 X101.5929 Y30.2517
G01 X101.4967 Y30.1940
G01 X101.4922 Y30.1910
G01 X101.4021 Y30.1242
G01 X101.3980 Y30.1208
G01 X101.3148 Y30.0455
G01 X101.3110 Y30.0416
G01 X101.2357 Y29.9585
G01 X101.2323 Y29.9544
G01 X101.1655 Y29.8643
G01 X101.1625 Y29.8598
G01 X101.1048 Y29.7636
G01 X101.1022 Y29.7588
G01 X101.0543 Y29.6574
G01 X101.0522 Y29.6524
G01 X101.0144 Y29.5468
G01 X101.0129 Y29.5416
G01 X100.9856 Y29.4328
G01 X100.9846 Y29.4275
G01 X100.9681 Y29.3166
G01 X100.9676 Y29.3112
G01 X100.9621 Y29.1992
G01 X100.9621 Y29.1938
G01 X100.9676 Y29.0818
G01 X100.9681 Y29.0764
G01 X100.9846 Y28.9654
G01 X100.9856 Y28.9601
G01 X101.0129 Y28.8513
G01 X101.0144 Y28.8462
G01 X101.0522 Y28.7406
G01 X101.0543 Y28.7356
G01 X101.1022 Y28.6342
G01 X101.1048 Y28.6294
G01 X101.1625 Y28.5332
G01 X101.1655 Y28.5287
G01 X101.2323 Y28.4386
G01 X101.2357 Y28.4344
G01 X101.3110 Y28.3513
G01 X101.3148 Y28.3475
G01 X101.3980 Y28.2722
G01 X101.4021 Y28.2688
G01 X101.4922 Y28.2019
G01 X101.4967 Y28.1989
G01 X101.5929 Y28.1413
G01 X101.5977 Y28.1387
G01 X101.6991 Y28.0908
G01 X101.7041 Y28.0887
G01 X101.8097 Y28.0509
G01 X101.8148 Y28.0494
G01 X101.9236 Y28.0221
G01 X101.9289 Y28.0210
G01 X102.0399 Y28.0046
G01 X102.0453 Y28.0041
G01 X102.1573 Y27.9986
G01 X102.1627 Y27.9986
G01 X102.2747 Y28.0041
G01 X102.2801 Y28.0046
G01 X102.3911 Y28.0210
G01 X102.3964 Y28.0221
G01 X102.5052 Y28.0494
G01 X102.5103 Y28.0509
G01 X102.6159 Y28.0887
G01 X102.6209 Y28.0908
G01 X102.7223 Y28.1387
G01 X102.7271 Y28.1413
G01 X102.8233 Y28.1989
G01 X102.8278 Y28.2019
G01 X102.9179 Y28.2688
G01 X102.9220 Y28.2722
G01 X103.0052 Y28.3475
G01 X103.0090 Y28.3513
G01 X103.0843 Y28.4344
G01 X103.0877 Y28.4386
G01 X103.1545 Y28.5287
G01 X103.1575 Y28.5332
G01 X103.2152 Y28.6294
G01 X103.2178 Y28.6342
G01 X103.2657 Y28.7356
G01 X103.2678 Y28.7406
G01 X103.3056 Y28.8462
G01 X103.3071 Y28.8513
G01 X103.3344 Y28.9601
G01 X103.3354 Y28.9654
G01 X103.3519 Y29.0764
G01 X103.3524 Y29.0818
G01 X103.3579 Y29.1938
G01 X103.3579 Y29.1992
G01 X103.3524 Y29.3112
G01 X103.3519 Y29.3166
G01 X103.3354 Y29.4275
G01 X103.3160 Y29.5064
G01 X103.3174 Y29.5365
G01 X103.3174 Y34.5416
G01 X111.1026 Y34.5416
G01 X111.1026 Y30.1542
G01 X111.0580 Y30.1208
G01 X110.9748 Y30.0455
G01 X110.9710 Y30.0416
G01 X110.8957 Y29.9585
G01 X110.8923 Y29.9544
G01 X110.8255 Y29.8643
G01 X110.8225 Y29.8598
G01 X110.7648 Y29.7636
G01 X110.7622 Y29.7588
G01 X110.7143 Y29.6574
G01 X110.7122 Y29.6524
G01 X110.6744 Y29.5468
G01 X110.6729 Y29.5416
G01 X110.6456 Y29.4328
G01 X110.6446 Y29.4275
G01 X110.6281 Y29.3166
G01 X110.6276 Y29.3112
G01 X110.6221 Y29.1992
G01 X110.6221 Y29.1938
G01 X110.6276 Y29.0818
G01 X110.6281 Y29.0764
G01 X110.6446 Y28.9654
G01 X110.6456 Y28.9601
G01 X110.6729 Y28.8513
G01 X110.6744 Y28.8462
G01 X110.7122 Y28.7406
G01 X110.7143 Y28.7356
G01 X110.7622 Y28.6342
G01 X110.7648 Y28.6294
G01 X110.8225 Y28.5332
G01 X110.8255 Y28.5287
G01 X110.8923 Y28.4386
G01 X110.8957 Y28.4344
G01 X110.9710 Y28.3513
G01 X110.9748 Y28.3475
G01 X111.0580 Y28.2722
G01 X111.0621 Y28.2688
G01 X111.1522 Y28.2019
G01 X111.1567 Y28.1989
G01 X111.2529 Y28.1413
G01 X111.2577 Y28.1387
G01 X111.3591 Y28.0908
G01 X111.3641 Y28.0887
G01 X111.4697 Y28.0509
G01 X111.4748 Y28.0494
G01 X111.5836 Y28.0221
G01 X111.5889 Y28.0210
G01 X111.6999 Y28.0046
G01 X111.7053 Y28.0041
G01 X111.8173 Y27.9986
G01 X111.8227 Y27.9986
G01 X111.9347 Y28.0041
G01 X111.9401 Y28.0046
G01 X112.0511 Y28.0210
G01 X112.0564 Y28.0221
G01 X112.1652 Y28.0494
G01 X112.1703 Y28.0509
G01 X112.2759 Y28.0887
G01 X112.2809 Y28.0908
G01 X112.3823 Y28.1387
G01 X112.3871 Y28.1413
G01 X112.4833 Y28.1989
G01 X112.4878 Y28.2019
G01 X112.5779 Y28.2688
G01 X112.5820 Y28.2722
G01 X112.6652 Y28.3475
G01 X112.6690 Y28.3513
G01 X112.7443 Y28.4344
G01 X112.7477 Y28.4386
G01 X112.8145 Y28.5287
G01 X112.8175 Y28.5332
G01 X112.8752 Y28.6294
G01 X112.8778 Y28.6342
G01 X112.9257 Y28.7356
G01 X112.9278 Y28.7406
G01 X112.9656 Y28.8462
G01 X112.9671 Y28.8513
G01 X112.9944 Y28.9601
G01 X112.9954 Y28.9654
G01 X113.0119 Y29.0764
G01 X113.0124 Y29.0818
G01 X113.0179 Y29.1938
G01 X113.0179 Y29.1992
G01 X113.0124 Y29.3112
G01 X113.0119 Y29.3166
G01 X112.9954 Y29.4275
G01 X112.9944 Y29.4328
G01 X112.9671 Y29.5416
G01 X112.9656 Y29.5468
G01 X112.9278 Y29.6524
G01 X112.9257 Y29.6574
G01 X112.8778 Y29.7588
G01 X112.8752 Y29.7636
G01 X112.8175 Y29.8598
G01 X112.8145 Y29.8643
G01 X112.7477 Y29.9544
G01 X112.7374 Y29.9662
G01 X112.7374 Y34.5416
G01 X126.2426 Y34.5416
G01 X126.2426 Y30.0706
G01 X126.2110 Y30.0416
G01 X126.1357 Y29.9585
G01 X126.1323 Y29.9544
G01 X126.0655 Y29.8643
G01 X126.0625 Y29.8598
G01 X126.0048 Y29.7636
G01 X126.0022 Y29.7588
G01 X125.9543 Y29.6574
G01 X125.9522 Y29.6524
G01 X125.9144 Y29.5468
G01 X125.9129 Y29.5416
G01 X125.8856 Y29.4328
G01 X125.8846 Y29.4275
G01 X125.8681 Y29.3166
G01 X125.8676 Y29.3112
G01 X125.8621 Y29.1992
G01 X125.8621 Y29.1938
G01 X125.8676 Y29.0818
G01 X125.8681 Y29.0764
G01 X125.8846 Y28.9654
G01 X125.8856 Y28.9601
G01 X125.9129 Y28.8513
G01 X125.9144 Y28.8462
G01 X125.9522 Y28.7406
G01 X125.9543 Y28.7356
G01 X126.0022 Y28.6342
G01 X126.0048 Y28.6294
G01 X126.0625 Y28.5332
G01 X126.0655 Y28.5287
G01 X126.1323 Y28.4386
G01 X126.1357 Y28.4344
G01 X126.2110 Y28.3513
G01 X126.2148 Y28.3475
G01 X126.2980 Y28.2722
G01 X126.3021 Y28.2688
G01 X126.3922 Y28.2019
G01 X126.3967 Y28.1989
G01 X126.4929 Y28.1413
G01 X126.4977 Y28.1387
G01 X126.5991 Y28.0908
G01 X126.6041 Y28.0887
G01 X126.7097 Y28.0509
G01 X126.7148 Y28.0494
G01 X126.8236 Y28.0221
G01 X126.8289 Y28.0210
G01 X126.9399 Y28.0046
G01 X126.9453 Y28.0041
G01 X127.0573 Y27.9986
G01 X127.0627 Y27.9986
G01 X127.1747 Y28.0041
G01 X127.1801 Y28.0046
G01 X127.2911 Y28.0210
G01 X127.2964 Y28.0221
G01 X127.4052 Y28.0494
G01 X127.4103 Y28.0509
G01 X127.5159 Y28.0887
G01 X127.5209 Y28.0908
G01 X127.6223 Y28.1387
G01 X127.6271 Y28.1413
G01 X127.7233 Y28.1989
G01 X127.7278 Y28.2019
G01 X127.8179 Y28.2688
G01 X127.8220 Y28.2722
G01 X127.9052 Y28.3475
G01 X127.9090 Y28.3513
G01 X127.9843 Y28.4344
G01 X127.9877 Y28.4386
G01 X128.0545 Y28.5287
G01 X128.0575 Y28.5332
G01 X128.1152 Y28.6294
G01 X128.1178 Y28.6342
G01 X128.1657 Y28.7356
G01 X128.1678 Y28.7406
G01 X128.2056 Y28.8462
G01 X128.2071 Y28.8513
G01 X128.2344 Y28.9601
G01 X128.2354 Y28.9654
G01 X128.2519 Y29.0764
G01 X128.2524 Y29.0818
G01 X128.2579 Y29.1938
G01 X128.2579 Y29.1992
G01 X128.2524 Y29.3112
G01 X128.2519 Y29.3166
G01 X128.2354 Y29.4275
G01 X128.2344 Y29.4328
G01 X128.2071 Y29.5416
G01 X128.2056 Y29.5468
G01 X128.1678 Y29.6524
G01 X128.1657 Y29.6574
G01 X128.1178 Y29.7588
G01 X128.1152 Y29.7636
G01 X128.0575 Y29.8598
G01 X128.0545 Y29.8643
G01 X127.9877 Y29.9544
G01 X127.9843 Y29.9585
G01 X127.9090 Y30.0416
G01 X127.8774 Y30.0706
G01 X127.8774 Y34.8859
G01 X129.3822 Y36.3907
G01 X129.4344 Y36.4481
G01 X129.4823 Y36.5124
G01 X129.4853 Y36.5169
G01 X129.5263 Y36.5858
G01 X129.5583 Y36.6534
G01 X129.5856 Y36.7289
G01 X129.6054 Y36.8066
G01 X129.6064 Y36.8119
G01 X129.6179 Y36.8913
G01 X129.6217 Y36.9687
G01 X129.6217 Y53.0555
G01 X129.6179 Y53.1329
G01 X129.6174 Y53.1383
G01 X129.6064 Y53.2123
G01 X129.5872 Y53.2902
G01 X129.5604 Y53.3658
G01 X129.5583 Y53.3707
G01 X129.5238 Y53.4431
G01 X129.4823 Y53.5118
G01 X129.4378 Y53.5719
G01 X129.4344 Y53.5761
G01 X129.3822 Y53.6335
G01 X125.9903 Y57.0254
G01 X125.9903 Y61.7022
G01 X126.0620 Y61.7557
G01 X126.1452 Y61.8310
G01 X126.1490 Y61.8348
G01 X126.2243 Y61.9180
G01 X126.2277 Y61.9221
G01 X126.2945 Y62.0122
G01 X126.2975 Y62.0167
G01 X126.3552 Y62.1129
G01 X126.3578 Y62.1177
G01 X126.4057 Y62.2191
G01 X126.4078 Y62.2241
G01 X126.4456 Y62.3297
G01 X126.4471 Y62.3348
G01 X126.4744 Y62.4436
G01 X126.4754 Y62.4489
G01 X126.4919 Y62.5599
G01 X126.4924 Y62.5653
G01 X126.4979 Y62.6773
G01 X126.4979 Y62.6827
G01 X126.4924 Y62.7947
G01 X126.4919 Y62.8001
G01 X126.4754 Y62.9111
G01 X126.4744 Y62.9164
G01 X126.4471 Y63.0252
G01 X126.4456 Y63.0303
G01 X126.4078 Y63.1359
G01 X126.4057 Y63.1409
G01 X126.3578 Y63.2423
G01 X126.3552 Y63.2471
G01 X126.2975 Y63.3433
G01 X126.2945 Y63.3478
G01 X126.2277 Y63.4379
G01 X126.2243 Y63.4420
G01 X126.1490 Y63.5252
G01 X126.1452 Y63.5290
G01 X126.0620 Y63.6043
G01 X126.0579 Y63.6077
G01 X125.9678 Y63.6745
G01 X125.9633 Y63.6775
G01 X125.8671 Y63.7352
G01 X125.8623 Y63.7378
G01 X125.7609 Y63.7857
G01 X125.7559 Y63.7878
G01 X125.6503 Y63.8256
G01 X125.6452 Y63.8271
G01 X125.5364 Y63.8544
G01 X125.5311 Y63.8554
G01 X125.4201 Y63.8719
G01 X125.4147 Y63.8724
G01 X125.3027 Y63.8779
G01 X125.2973 Y63.8779
G01 X125.1853 Y63.8724
G01 X125.1799 Y63.8719
G01 X125.0689 Y63.8554
G01 X125.0636 Y63.8544
G01 X124.9548 Y63.8271
G01 X124.9497 Y63.8256
G01 X124.8441 Y63.7878
G01 X124.8391 Y63.7857
G01 X124.7377 Y63.7378
G01 X124.7329 Y63.7352
G01 X124.6367 Y63.6775
G01 X124.6322 Y63.6745
G01 X124.5421 Y63.6077
G01 X124.5380 Y63.6043
G01 X124.4548 Y63.5290
G01 X124.4510 Y63.5252
G01 X124.3757 Y63.4420
G01 X124.3723 Y63.4379
G01 X124.3055 Y63.3478
G01 X124.3025 Y63.3433
G01 X124.2448 Y63.2471
G01 X124.2422 Y63.2423
G01 X124.1943 Y63.1409
G01 X124.1922 Y63.1359
G01 X124.1544 Y63.0303
G01 X124.1529 Y63.0252
G01 X124.1256 Y62.9164
G01 X124.1246 Y62.9111
G01 X124.1081 Y62.8001
G01 X124.1076 Y62.7947
G01 X124.1021 Y62.6827
G01 X124.1021 Y62.6773
G01 X124.1076 Y62.5653
G01 X124.1081 Y62.5599
G01 X124.1246 Y62.4489
G01 X124.1256 Y62.4436
G01 X124.1529 Y62.3348
G01 X124.1544 Y62.3297
G01 X124.1922 Y62.2241
G01 X124.1943 Y62.2191
G01 X124.2422 Y62.1177
G01 X124.2448 Y62.1129
G01 X124.3025 Y62.0167
G01 X124.3055 Y62.0122
G01 X124.3723 Y61.9221
G01 X124.3757 Y61.9180
G01 X124.4510 Y61.8348
G01 X124.4548 Y61.8310
G01 X124.5380 Y61.7557
G01 X124.6097 Y61.7022
G01 X124.6097 Y57.0807
G01 X110.7503 Y57.0807
G01 X110.7503 Y61.7022
G01 X110.8220 Y61.7557
G01 X110.9052 Y61.8310
G01 X110.9090 Y61.8348
G01 X110.9843 Y61.9180
G01 X110.9877 Y61.9221
G01 X111.0545 Y62.0122
G01 X111.0575 Y62.0167
G01 X111.1152 Y62.1129
G01 X111.1178 Y62.1177
G01 X111.1657 Y62.2191
G01 X111.1678 Y62.2241
G01 X111.2056 Y62.3297
G01 X111.2071 Y62.3348
G01 X111.2344 Y62.4436
G01 X111.2354 Y62.4489
G01 X111.2519 Y62.5599
G01 X111.2524 Y62.5653
G01 X111.2579 Y62.6773
G01 X111.2579 Y62.6827
G01 X111.2524 Y62.7947
G01 X111.2519 Y62.8001
G01 X111.2354 Y62.9111
G01 X111.2344 Y62.9164
G01 X111.2071 Y63.0252
G01 X111.2056 Y63.0303
G01 X111.1678 Y63.1359
G01 X111.1657 Y63.1409
G01 X111.1178 Y63.2423
G01 X111.1152 Y63.2471
G01 X111.0575 Y63.3433
G01 X111.0545 Y63.3478
G01 X110.9877 Y63.4379
G01 X110.9843 Y63.4420
G01 X110.9090 Y63.5252
G01 X110.9052 Y63.5290
G01 X110.8220 Y63.6043
G01 X110.8179 Y63.6077
G01 X110.7278 Y63.6745
G01 X110.7233 Y63.6775
G01 X110.6271 Y63.7352
G01 X110.6223 Y63.7378
G01 X110.5209 Y63.7857
G01 X110.5159 Y63.7878
G01 X110.4103 Y63.8256
G01 X110.4052 Y63.8271
G01 X110.2964 Y63.8544
G01 X110.2911 Y63.8554
G01 X110.1801 Y63.8719
G01 X110.1747 Y63.8724
G01 X110.0627 Y63.8779
G01 X110.0573 Y63.8779
G01 X109.9453 Y63.8724
G01 X109.9399 Y63.8719
G01 X109.8289 Y63.8554
G01 X109.8236 Y63.8544
G01 X109.7148 Y63.8271
G01 X109.7097 Y63.8256
G01 X109.6041 Y63.7878
G01 X109.5991 Y63.7857
G01 X109.4977 Y63.7378
G01 X109.4929 Y63.7352
G01 X109.3967 Y63.6775
G01 X109.3922 Y63.6745
G01 X109.3021 Y63.6077
G01 X109.2980 Y63.6043
G01 X109.2148 Y63.5290
G01 X109.2110 Y63.5252
G01 X109.1357 Y63.4420
G01 X109.1323 Y63.4379
G01 X109.0655 Y63.3478
G01 X109.0625 Y63.3433
G01 X109.0048 Y63.2471
G01 X109.0022 Y63.2423
G01 X108.9543 Y63.1409
G01 X108.9522 Y63.1359
G01 X108.9144 Y63.0303
G01 X108.9129 Y63.0252
G01 X108.8856 Y62.9164
G01 X108.8846 Y62.9111
G01 X108.8681 Y62.8001
G01 X108.8676 Y62.7947
G01 X108.8621 Y62.6827
G01 X108.8621 Y62.6773
G01 X108.8676 Y62.5653
G01 X108.8681 Y62.5599
G01 X108.8846 Y62.4489
G01 X108.8856 Y62.4436
G01 X108.9129 Y62.3348
G01 X108.9144 Y62.3297
G01 X108.9522 Y62.2241
G01 X108.9543 Y62.2191
G01 X109.0022 Y62.1177
G01 X109.0048 Y62.1129
G01 X109.0625 Y62.0167
G01 X109.0655 Y62.0122
G01 X109.1323 Y61.9221
G01 X109.1357 Y61.9180
G01 X109.2110 Y61.8348
G01 X109.2148 Y61.8310
G01 X109.2980 Y61.7557
G01 X109.3697 Y61.7022
G01 X109.3697 Y57.0807
G01 X101.1903 Y57.0807
G01 X101.1903 Y61.7022
G01 X101.2620 Y61.7557
G01 X101.3452 Y61.8310
G01 X101.3490 Y61.8348
G01 X101.4243 Y61.9180
G01 X101.4277 Y61.9221
G01 X101.4945 Y62.0122
G01 X101.4975 Y62.0167
G01 X101.5552 Y62.1129
G01 X101.5578 Y62.1177
G01 X101.6057 Y62.2191
G01 X101.6078 Y62.2241
G01 X101.6456 Y62.3297
G01 X101.6471 Y62.3348
G01 X101.6744 Y62.4436
G01 X101.6754 Y62.4489
G01 X101.6919 Y62.5599
G01 X101.6924 Y62.5653
G01 X101.6979 Y62.6773
G01 X101.6979 Y62.6827
G01 X101.6924 Y62.7947
G01 X101.6919 Y62.8001
G01 X101.6754 Y62.9111
G01 X101.6744 Y62.9164
G01 X101.6471 Y63.0252
G01 X101.6456 Y63.0303
G01 X101.6078 Y63.1359
G01 X101.6057 Y63.1409
G01 X101.5578 Y63.2423
G01 X101.5552 Y63.2471
G01 X101.4975 Y63.3433
G01 X101.4945 Y63.3478
G01 X101.4277 Y63.4379
G01 X101.4243 Y63.4420
G01 X101.3490 Y63.5252
G01 X101.3452 Y63.5290
G01 X101.2620 Y63.6043
G01 X101.2579 Y63.6077
G01 X101.1678 Y63.6745
G01 X101.1633 Y63.6775
G01 X101.0671 Y63.7352
G01 X101.0623 Y63.7378
G01 X100.9609 Y63.7857
G01 X100.9559 Y63.7878
G01 X100.8503 Y63.8256
G01 X100.8452 Y63.8271
G01 X100.7364 Y63.8544
G01 X100.7311 Y63.8554
G01 X100.6201 Y63.8719
G01 X100.6147 Y63.8724
G01 X100.5027 Y63.8779
G01 X100.4973 Y63.8779
G01 X100.3853 Y63.8724
G01 X100.3799 Y63.8719
G01 X100.2689 Y63.8554
G01 X100.2636 Y63.8544
G01 X100.1548 Y63.8271
G01 X100.1497 Y63.8256
G01 X100.0441 Y63.7878
G01 X100.0391 Y63.7857
G01 X99.9377 Y63.7378
G01 X99.9329 Y63.7352
G01 X99.8367 Y63.6775
G01 X99.8322 Y63.6745
G01 X99.7421 Y63.6077
G01 X99.7380 Y63.6043
G01 X99.6548 Y63.5290
G01 X99.6510 Y63.5252
G01 X99.5757 Y63.4420
G01 X99.5723 Y63.4379
G01 X99.5055 Y63.3478
G01 X99.5025 Y63.3433
G01 X99.4448 Y63.2471
G01 X99.4422 Y63.2423
G01 X99.3943 Y63.1409
G01 X99.3922 Y63.1359
G01 X99.3544 Y63.0303
G01 X99.3529 Y63.0252
G01 X99.3256 Y62.9164
G01 X99.3246 Y62.9111
G01 X99.3081 Y62.8001
G01 X99.3076 Y62.7947
G01 X99.3021 Y62.6827
G01 X99.3021 Y62.6773
G01 X99.3076 Y62.5653
G01 X99.3081 Y62.5599
G01 X99.3246 Y62.4489
G01 X99.3256 Y62.4436
G01 X99.3529 Y62.3348
G01 X99.3544 Y62.3297
G01 X99.3922 Y62.2241
G01 X99.3943 Y62.2191
G01 X99.4422 Y62.1177
G01 X99.4448 Y62.1129
G01 X99.5025 Y62.0167
G01 X99.5055 Y62.0122
G01 X99.5723 Y61.9221
G01 X99.5757 Y61.9180
G01 X99.6510 Y61.8348
G01 X99.6548 Y61.8310
G01 X99.7380 Y61.7557
G01 X99.8097 Y61.7022
G01 X99.8097 Y57.0807
G01 X85.8233 Y57.0807
G01 X85.8233 Y61.6227
G01 X85.9233 Y61.6825
G01 X85.9278 Y61.6855
G01 X86.0179 Y61.7523
G01 X86.0220 Y61.7557
G01 X86.1052 Y61.8310
G01 X86.1090 Y61.8348
G01 X86.1843 Y61.9180
G01 X86.1877 Y61.9221
G01 X86.2545 Y62.0122
G01 X86.2575 Y62.0167
G01 X86.3152 Y62.1129
G01 X86.3178 Y62.1177
G01 X86.3657 Y62.2191
G01 X86.3678 Y62.2241
G01 X86.4056 Y62.3297
G01 X86.4071 Y62.3348
G01 X86.4344 Y62.4436
G01 X86.4354 Y62.4489
G01 X86.4519 Y62.5599
G01 X86.4524 Y62.5653
G01 X86.4579 Y62.6773
G01 X86.4579 Y62.6827
G01 X86.4524 Y62.7947
G01 X86.4519 Y62.8001
G01 X86.4354 Y62.9111
G01 X86.4344 Y62.9164
G01 X86.4071 Y63.0252
G01 X86.4056 Y63.0303
G01 X86.3678 Y63.1359
G01 X86.3657 Y63.1409
G01 X86.3178 Y63.2423
G01 X86.3152 Y63.2471
G01 X86.2575 Y63.3433
G01 X86.2545 Y63.3478
G01 X86.1877 Y63.4379
G01 X86.1843 Y63.4420
G01 X86.1090 Y63.5252
G01 X86.1052 Y63.5290
G01 X86.0220 Y63.6043
G01 X86.0179 Y63.6077
G01 X85.9278 Y63.6745
G01 X85.9233 Y63.6775
G01 X85.8271 Y63.7352
G01 X85.8223 Y63.7378
G01 X85.7209 Y63.7857
G01 X85.7159 Y63.7878
G01 X85.6103 Y63.8256
G01 X85.6052 Y63.8271
G01 X85.4964 Y63.8544
G01 X85.4911 Y63.8554
G01 X85.3801 Y63.8719
G01 X85.3747 Y63.8724
G01 X85.2627 Y63.8779
G01 X85.2573 Y63.8779
G01 X85.1453 Y63.8724
G01 X85.1399 Y63.8719
G01 X85.0289 Y63.8554
G01 X85.0236 Y63.8544
G01 X84.9148 Y63.8271
G01 X84.9097 Y63.8256
G01 X84.8041 Y63.7878
G01 X84.7991 Y63.7857
G01 X84.6977 Y63.7378
G01 X84.6929 Y63.7352
G01 X84.5967 Y63.6775
G01 X84.5922 Y63.6745
G01 X84.5021 Y63.6077
G01 X84.4980 Y63.6043
G01 X84.4148 Y63.5290
G01 X84.4110 Y63.5252
G01 X84.3357 Y63.4420
G01 X84.3323 Y63.4379
G01 X84.2655 Y63.3478
G01 X84.2625 Y63.3433
G01 X84.2048 Y63.2471
G01 X84.2022 Y63.2423
G01 X84.1543 Y63.1409
G01 X84.1522 Y63.1359
G01 X84.1144 Y63.0303
G01 X84.1129 Y63.0252
G01 X84.0856 Y62.9164
G01 X84.0846 Y62.9111
G01 X84.0681 Y62.8001
G01 X84.0676 Y62.7947
G01 X84.0621 Y62.6827
G01 X84.0621 Y62.6773
G01 X84.0676 Y62.5653
G01 X84.0681 Y62.5599
G01 X84.0846 Y62.4489
G01 X84.0856 Y62.4436
G01 X84.1129 Y62.3348
G01 X84.1144 Y62.3297
G01 X84.1522 Y62.2241
G01 X84.1543 Y62.2191
G01 X84.2022 Y62.1177
G01 X84.2048 Y62.1129
G01 X84.2625 Y62.0167
G01 X84.2655 Y62.0122
G01 X84.3323 Y61.9221
G01 X84.3357 Y61.9180
G01 X84.4110 Y61.8348
G01 X84.4148 Y61.8310
G01 X84.4980 Y61.7557
G01 X84.5021 Y61.7523
G01 X84.5922 Y61.6855
G01 X84.5967 Y61.6825
G01 X84.6967 Y61.6227
G01 X84.6967 Y57.0807
G01 X76.0903 Y57.0807
G01 X76.0903 Y61.7022
G01 X76.1620 Y61.7557
G01 X76.2452 Y61.8310
G01 X76.2490 Y61.8348
G01 X76.3243 Y61.9180
G01 X76.3277 Y61.9221
G01 X76.3945 Y62.0122
G01 X76.3975 Y62.0167
G01 X76.4552 Y62.1129
G01 X76.4578 Y62.1177
G01 X76.5057 Y62.2191
G01 X76.5078 Y62.2241
G01 X76.5456 Y62.3297
G01 X76.5471 Y62.3348
G01 X76.5744 Y62.4436
G01 X76.5754 Y62.4489
G01 X76.5919 Y62.5599
G01 X76.5924 Y62.5653
G01 X76.5979 Y62.6773
G01 X76.5979 Y62.6827
G01 X76.5924 Y62.7947
G01 X76.5919 Y62.8001
G01 X76.5754 Y62.9111
G01 X76.5744 Y62.9164
G01 X76.5471 Y63.0252
G01 X76.5456 Y63.0303
G01 X76.5078 Y63.1359
G01 X76.5057 Y63.1409
G01 X76.4578 Y63.2423
G01 X76.4552 Y63.2471
G01 X76.3975 Y63.3433
G01 X76.3945 Y63.3478
G01 X76.3277 Y63.4379
G01 X76.3243 Y63.4420
G01 X76.2490 Y63.5252
G01 X76.2452 Y63.5290
G01 X76.1620 Y63.6043
G01 X76.1579 Y63.6077
G01 X76.0678 Y63.6745
G01 X76.0633 Y63.6775
G01 X75.9671 Y63.7352
G01 X75.9623 Y63.7378
G01 X75.8609 Y63.7857
G01 X75.8559 Y63.7878
G01 X75.7503 Y63.8256
G01 X75.7452 Y63.8271
G01 X75.6364 Y63.8544
G01 X75.6311 Y63.8554
G01 X75.5201 Y63.8719
G01 X75.5147 Y63.8724
G01 X75.4027 Y63.8779
G01 X75.3973 Y63.8779
G01 X75.2853 Y63.8724
G01 X75.2799 Y63.8719
G01 X75.1689 Y63.8554
G01 X75.1636 Y63.8544
G01 X75.0548 Y63.8271
G01 X75.0497 Y63.8256
G01 X74.9441 Y63.7878
G01 X74.9391 Y63.7857
G01 X74.8377 Y63.7378
G01 X74.8329 Y63.7352
G01 X74.7367 Y63.6775
G01 X74.7322 Y63.6745
G01 X74.6421 Y63.6077
G01 X74.6380 Y63.6043
G01 X74.5548 Y63.5290
G01 X74.5510 Y63.5252
G01 X74.4757 Y63.4420
G01 X74.4723 Y63.4379
G01 X74.4055 Y63.3478
G01 X74.4025 Y63.3433
G01 X74.3448 Y63.2471
G01 X74.3422 Y63.2423
G01 X74.2943 Y63.1409
G01 X74.2922 Y63.1359
G01 X74.2544 Y63.0303
G01 X74.2529 Y63.0252
G01 X74.2256 Y62.9164
G01 X74.2246 Y62.9111
G01 X74.2081 Y62.8001
G01 X74.2076 Y62.7947
G01 X74.2021 Y62.6827
G01 X74.2021 Y62.6773
G01 X74.2076 Y62.5653
G01 X74.2081 Y62.5599
G01 X74.2246 Y62.4489
G01 X74.2256 Y62.4436
G01 X74.2529 Y62.3348
G01 X74.2544 Y62.3297
G01 X74.2922 Y62.2241
G01 X74.2943 Y62.2191
G01 X74.3422 Y62.1177
G01 X74.3448 Y62.1129
G01 X74.4025 Y62.0167
G01 X74.4055 Y62.0122
G01 X74.4723 Y61.9221
G01 X74.4757 Y61.9180
G01 X74.5510 Y61.8348
G01 X74.5548 Y61.8310
G01 X74.6380 Y61.7557
G01 X74.7097 Y61.7022
G01 X74.7097 Y57.0807
G01 X60.8503 Y57.0807
G01 X60.8503 Y61.7022
G01 X60.9220 Y61.7557
G01 X61.0052 Y61.8310
G01 X61.0090 Y61.8348
G01 X61.0843 Y61.9180
G01 X61.0877 Y61.9221
G01 X61.1545 Y62.0122
G01 X61.1575 Y62.0167
G01 X61.2152 Y62.1129
G01 X61.2178 Y62.1177
G01 X61.2657 Y62.2191
G01 X61.2678 Y62.2241
G01 X61.3056 Y62.3297
G01 X61.3071 Y62.3348
G01 X61.3344 Y62.4436
G01 X61.3354 Y62.4489
G01 X61.3519 Y62.5599
G01 X61.3524 Y62.5653
G01 X61.3579 Y62.6773
G01 X61.3579 Y62.6827
G01 X61.3524 Y62.7947
G01 X61.3519 Y62.8001
G01 X61.3354 Y62.9111
G01 X61.3344 Y62.9164
G01 X61.3071 Y63.0252
G01 X61.3056 Y63.0303
G01 X61.2678 Y63.1359
G01 X61.2657 Y63.1409
G01 X61.2178 Y63.2423
G01 X61.2152 Y63.2471
G01 X61.1575 Y63.3433
G01 X61.1545 Y63.3478
G01 X61.0877 Y63.4379
G01 X61.0843 Y63.4420
G01 X61.0090 Y63.5252
G01 X61.0052 Y63.5290
G01 X60.9220 Y63.6043
G01 X60.9179 Y63.6077
G01 X60.8278 Y63.6745
G01 X60.8233 Y63.6775
G01 X60.7271 Y63.7352
G01 X60.7223 Y63.7378
G01 X60.6209 Y63.7857
G01 X60.6159 Y63.7878
G01 X60.5103 Y63.8256
G01 X60.5052 Y63.8271
G01 X60.3964 Y63.8544
G01 X60.3911 Y63.8554
G01 X60.2801 Y63.8719
G01 X60.2747 Y63.8724
G01 X60.1627 Y63.8779
G01 X60.1573 Y63.8779
G01 X60.0453 Y63.8724
G01 X60.0399 Y63.8719
G01 X59.9289 Y63.8554
G01 X59.9236 Y63.8544
G01 X59.8148 Y63.8271
G01 X59.8097 Y63.8256
G01 X59.7041 Y63.7878
G01 X59.6991 Y63.7857
G01 X59.5977 Y63.7378
G01 X59.5929 Y63.7352
G01 X59.4967 Y63.6775
G01 X59.4922 Y63.6745
G01 X59.4021 Y63.6077
G01 X59.3980 Y63.6043
G01 X59.3148 Y63.5290
G01 X59.3110 Y63.5252
G01 X59.2357 Y63.4420
G01 X59.2323 Y63.4379
G01 X59.1655 Y63.3478
G01 X59.1625 Y63.3433
G01 X59.1048 Y63.2471
G01 X59.1022 Y63.2423
G01 X59.0543 Y63.1409
G01 X59.0522 Y63.1359
G01 X59.0144 Y63.0303
G01 X59.0129 Y63.0252
G01 X58.9856 Y62.9164
G01 X58.9846 Y62.9111
G01 X58.9681 Y62.8001
G01 X58.9676 Y62.7947
G01 X58.9621 Y62.6827
G01 X58.9621 Y62.6773
G01 X58.9676 Y62.5653
G01 X58.9681 Y62.5599
G01 X58.9846 Y62.4489
G01 X58.9856 Y62.4436
G01 X59.0129 Y62.3348
G01 X59.0144 Y62.3297
G01 X59.0522 Y62.2241
G01 X59.0543 Y62.2191
G01 X59.1022 Y62.1177
G01 X59.1048 Y62.1129
G01 X59.1625 Y62.0167
G01 X59.1655 Y62.0122
G01 X59.2323 Y61.9221
G01 X59.2357 Y61.9180
G01 X59.3110 Y61.8348
G01 X59.3148 Y61.8310
G01 X59.3980 Y61.7557
G01 X59.4697 Y61.7022
G01 X59.4697 Y57.0807
G01 X51.1903 Y57.0807
G01 X51.1903 Y61.7022
G01 X51.2620 Y61.7557
G01 X51.3452 Y61.8310
G01 X51.3490 Y61.8348
G01 X51.4243 Y61.9180
G01 X51.4277 Y61.9221
G01 X51.4945 Y62.0122
G01 X51.4975 Y62.0167
G01 X51.5552 Y62.1129
G01 X51.5578 Y62.1177
G01 X51.6057 Y62.2191
G01 X51.6078 Y62.2241
G01 X51.6456 Y62.3297
G01 X51.6471 Y62.3348
G01 X51.6744 Y62.4436
G01 X51.6754 Y62.4489
G01 X51.6919 Y62.5599
G01 X51.6924 Y62.5653
G01 X51.6979 Y62.6773
G01 X51.6979 Y62.6827
G01 X51.6924 Y62.7947
G01 X51.6919 Y62.8001
G01 X51.6754 Y62.9111
G01 X51.6744 Y62.9164
G01 X51.6471 Y63.0252
G01 X51.6456 Y63.0303
G01 X51.6078 Y63.1359
G01 X51.6057 Y63.1409
G01 X51.5578 Y63.2423
G01 X51.5552 Y63.2471
G01 X51.4975 Y63.3433
G01 X51.4945 Y63.3478
G01 X51.4277 Y63.4379
G01 X51.4243 Y63.4420
G01 X51.3490 Y63.5252
G01 X51.3452 Y63.5290
G01 X51.2620 Y63.6043
G01 X51.2579 Y63.6077
G01 X51.1678 Y63.6745
G01 X51.1633 Y63.6775
G01 X51.0671 Y63.7352
G01 X51.0623 Y63.7378
G01 X50.9609 Y63.7857
G01 X50.9559 Y63.7878
G01 X50.8503 Y63.8256
G01 X50.8452 Y63.8271
G01 X50.7364 Y63.8544
G01 X50.7311 Y63.8554
G01 X50.6201 Y63.8719
G01 X50.6147 Y63.8724
G01 X50.5027 Y63.8779
G01 X50.4973 Y63.8779
G01 X50.3853 Y63.8724
G01 X50.3799 Y63.8719
G01 X50.2689 Y63.8554
G01 X50.2636 Y63.8544
G01 X50.1548 Y63.8271
G01 X50.1497 Y63.8256
G01 X50.0441 Y63.7878
G01 X50.0391 Y63.7857
G01 X49.9377 Y63.7378
G01 X49.9329 Y63.7352
G01 X49.8367 Y63.6775
G01 X49.8322 Y63.6745
G01 X49.7421 Y63.6077
G01 X49.7380 Y63.6043
G01 X49.6548 Y63.5290
G01 X49.6510 Y63.5252
G01 X49.5757 Y63.4420
G01 X49.5723 Y63.4379
G01 X49.5055 Y63.3478
G01 X49.5025 Y63.3433
G01 X49.4448 Y63.2471
G01 X49.4422 Y63.2423
G01 X49.3943 Y63.1409
G01 X49.3922 Y63.1359
G01 X49.3544 Y63.0303
G01 X49.3529 Y63.0252
G01 X49.3256 Y62.9164
G01 X49.3246 Y62.9111
G01 X49.3081 Y62.8001
G01 X49.3076 Y62.7947
G01 X49.3021 Y62.6827
G01 X49.3021 Y62.6773
G01 X49.3076 Y62.5653
G01 X49.3081 Y62.5599
G01 X49.3246 Y62.4489
G01 X49.3256 Y62.4436
G01 X49.3529 Y62.3348
G01 X49.3544 Y62.3297
G01 X49.3922 Y62.2241
G01 X49.3943 Y62.2191
G01 X49.4422 Y62.1177
G01 X49.4448 Y62.1129
G01 X49.5025 Y62.0167
G01 X49.5055 Y62.0122
G01 X49.5723 Y61.9221
G01 X49.5757 Y61.9180
G01 X49.6510 Y61.8348
G01 X49.6548 Y61.8310
G01 X49.7380 Y61.7557
G01 X49.8097 Y61.7022
G01 X49.8097 Y57.2078
G01 X37.2685 Y57.2078
G01 X35.9503 Y58.5259
G01 X35.9503 Y61.7022
G01 X36.0220 Y61.7557
G01 X36.1052 Y61.8310
G01 X36.1090 Y61.8348
G01 X36.1843 Y61.9180
G01 X36.1877 Y61.9221
G01 X36.2545 Y62.0122
G01 X36.2575 Y62.0167
G01 X36.3152 Y62.1129
G01 X36.3178 Y62.1177
G01 X36.3657 Y62.2191
G01 X36.3678 Y62.2241
G01 X36.4056 Y62.3297
G01 X36.4071 Y62.3348
G01 X36.4344 Y62.4436
G01 X36.4354 Y62.4489
G01 X36.4519 Y62.5599
G01 X36.4524 Y62.5653
G01 X36.4579 Y62.6773
G01 X36.4579 Y62.6827
G01 X36.4524 Y62.7947
G01 X36.4519 Y62.8001
G01 X36.4354 Y62.9111
G01 X36.4344 Y62.9164
G01 X36.4071 Y63.0252
G01 X36.4056 Y63.0303
G01 X36.3678 Y63.1359
G01 X36.3657 Y63.1409
G01 X36.3178 Y63.2423
G01 X36.3152 Y63.2471
G01 X36.2575 Y63.3433
G01 X36.2545 Y63.3478
G01 X36.1877 Y63.4379
G01 X36.1843 Y63.4420
G01 X36.1090 Y63.5252
G01 X36.0903 Y63.5424
G01 X36.0903 Y64.2000
G01 X36.0867 Y64.2703
G01 X36.0775 Y64.3320
G01 X36.0613 Y64.3978
G01 X36.0387 Y64.4616
G01 X36.0100 Y64.5230
G01 X36.0075 Y64.5278
G01 X35.9724 Y64.5857
G01 X35.9319 Y64.6400
G01 X35.8881 Y64.6881
G01 X34.9881 Y65.5881
G01 X34.9400 Y65.6319
G01 X34.8857 Y65.6724
G01 X34.8278 Y65.7075
G01 X34.8230 Y65.7100
G01 X34.7616 Y65.7387
G01 X34.7029 Y65.7597
G01 X34.6373 Y65.7765
G01 X34.5703 Y65.7867
G01 X34.5000 Y65.7903
G01 X31.3000 Y65.7903
G01 X31.2296 Y65.7867
G01 X31.1680 Y65.7775
G01 X31.1022 Y65.7613
G01 X31.0383 Y65.7387
G01 X30.9770 Y65.7100
G01 X30.9722 Y65.7075
G01 X30.9143 Y65.6724
G01 X30.8642 Y65.6353
G01 X30.8119 Y65.5881
G01 X29.3119 Y64.0881
G01 X29.2647 Y64.0358
G01 X29.2246 Y63.9812
G01 X29.1900 Y63.9230
G01 X29.1613 Y63.8617
G01 X29.1387 Y63.7978
G01 X29.1225 Y63.7320
G01 X29.1128 Y63.6650
G01 X29.1097 Y63.6000
G01 X29.1097 Y61.3778
G01 X29.0380 Y61.3243
G01 X28.9548 Y61.2490
G01 X28.9510 Y61.2452
G01 X28.8757 Y61.1620
G01 X28.8723 Y61.1579
G01 X28.8055 Y61.0678
G01 X28.8025 Y61.0633
G01 X28.7448 Y60.9671
G01 X28.7422 Y60.9623
G01 X28.6943 Y60.8609
G01 X28.6922 Y60.8559
G01 X28.6544 Y60.7503
G01 X28.6529 Y60.7452
G01 X28.6256 Y60.6364
G01 X28.6246 Y60.6311
G01 X28.6081 Y60.5201
G01 X28.6076 Y60.5147
G01 X28.6021 Y60.4027
G01 X28.6021 Y60.3973
G01 X28.6076 Y60.2853
G01 X28.6081 Y60.2799
G01 X28.6246 Y60.1689
G01 X28.6256 Y60.1636
G01 X28.6529 Y60.0548
G01 X28.6544 Y60.0497
G01 X28.6922 Y59.9441
G01 X28.6943 Y59.9391
G01 X28.7422 Y59.8377
G01 X28.7448 Y59.8329
G01 X28.8025 Y59.7367
G01 X28.8055 Y59.7322
G01 X28.8723 Y59.6421
G01 X28.8757 Y59.6380
G01 X28.9510 Y59.5548
G01 X28.9548 Y59.5510
G01 X29.0380 Y59.4757
G01 X29.0421 Y59.4723
G01 X29.1322 Y59.4055
G01 X29.1367 Y59.4025
G01 X29.2329 Y59.3448
G01 X29.2377 Y59.3422
G01 X29.3391 Y59.2943
G01 X29.3441 Y59.2922
G01 X29.4497 Y59.2544
G01 X29.4548 Y59.2529
G01 X29.5636 Y59.2256
G01 X29.5689 Y59.2246
G01 X29.6799 Y59.2081
G01 X29.6853 Y59.2076
G01 X29.7973 Y59.2021
G01 X29.8027 Y59.2021
G01 X29.9147 Y59.2076
G01 X29.9201 Y59.2081
G01 X30.0311 Y59.2246
G01 X30.0364 Y59.2256
G01 X30.1452 Y59.2529
G01 X30.1503 Y59.2544
G01 X30.2559 Y59.2922
G01 X30.2609 Y59.2943
G01 X30.3623 Y59.3422
G01 X30.3671 Y59.3448
G01 X30.4633 Y59.4025
G01 X30.4678 Y59.4055
G01 X30.5579 Y59.4723
G01 X30.5620 Y59.4757
G01 X30.6452 Y59.5510
G01 X30.6490 Y59.5548
G01 X30.7243 Y59.6380
G01 X30.7277 Y59.6421
G01 X30.7945 Y59.7322
G01 X30.7975 Y59.7367
G01 X30.8552 Y59.8329
G01 X30.8578 Y59.8377
G01 X30.9057 Y59.9391
G01 X30.9078 Y59.9441
G01 X30.9456 Y60.0497
G01 X30.9471 Y60.0548
G01 X30.9744 Y60.1636
G01 X30.9754 Y60.1689
G01 X30.9919 Y60.2799
G01 X30.9924 Y60.2853
G01 X30.9979 Y60.3973
G01 X30.9979 Y60.4027
G01 X30.9924 Y60.5147
G01 X30.9919 Y60.5201
G01 X30.9754 Y60.6311
G01 X30.9744 Y60.6364
G01 X30.9471 Y60.7452
G01 X30.9456 Y60.7503
G01 X30.9078 Y60.8559
G01 X30.9057 Y60.8609
G01 X30.8578 Y60.9623
G01 X30.8552 Y60.9671
G01 X30.7975 Y61.0633
G01 X30.7945 Y61.0678
G01 X30.7277 Y61.1579
G01 X30.7243 Y61.1620
G01 X30.6490 Y61.2452
G01 X30.6452 Y61.2490
G01 X30.5620 Y61.3243
G01 X30.4903 Y61.3778
G01 X30.4903 Y63.3141
G01 X31.5859 Y64.4097
G01 X34.2141 Y64.4097
G01 X34.7097 Y63.9141
G01 X34.7097 Y63.7434
G01 X34.6929 Y63.7352
G01 X34.5967 Y63.6775
G01 X34.5922 Y63.6745
G01 X34.5021 Y63.6077
G01 X34.4980 Y63.6043
G01 X34.4148 Y63.5290
G01 X34.4110 Y63.5252
G01 X34.3357 Y63.4420
G01 X34.3323 Y63.4379
G01 X34.2655 Y63.3478
G01 X34.2625 Y63.3433
G01 X34.2048 Y63.2471
G01 X34.2022 Y63.2423
G01 X34.1543 Y63.1409
G01 X34.1522 Y63.1359
G01 X34.1144 Y63.0303
G01 X34.1129 Y63.0252
G01 X34.0856 Y62.9164
G01 X34.0846 Y62.9111
G01 X34.0681 Y62.8001
G01 X34.0676 Y62.7947
G01 X34.0621 Y62.6827
G01 X34.0621 Y62.6773
G01 X34.0676 Y62.5653
G01 X34.0681 Y62.5599
G01 X34.0846 Y62.4489
G01 X34.0856 Y62.4436
G01 X34.1129 Y62.3348
G01 X34.1144 Y62.3297
G01 X34.1522 Y62.2241
G01 X34.1543 Y62.2191
G01 X34.2022 Y62.1177
G01 X34.2048 Y62.1129
G01 X34.2625 Y62.0167
G01 X34.2655 Y62.0122
G01 X34.3323 Y61.9221
G01 X34.3357 Y61.9180
G01 X34.4110 Y61.8348
G01 X34.4148 Y61.8310
G01 X34.4980 Y61.7557
G01 X34.5697 Y61.7022
G01 X34.5697 Y58.2400
G01 X34.5728 Y58.1750
G01 X34.5825 Y58.1080
G01 X34.5987 Y58.0422
G01 X34.6003 Y58.0370
G01 X34.6233 Y57.9734
G01 X34.6525 Y57.9122
G01 X34.6876 Y57.8543
G01 X34.7281 Y57.8000
G01 X34.7700 Y57.7538
G01 X36.4944 Y56.0294
G01 X36.5425 Y55.9856
G01 X36.5968 Y55.9451
G01 X36.6548 Y55.9100
G01 X36.6595 Y55.9075
G01 X36.7209 Y55.8787
G01 X36.7796 Y55.8577
G01 X36.8452 Y55.8410
G01 X36.9122 Y55.8308
G01 X36.9825 Y55.8272
G01 X50.5572 Y55.8272
G01 X50.6222 Y55.8303
G01 X50.6893 Y55.8400
G01 X50.7550 Y55.8562
G01 X50.7602 Y55.8577
G01 X50.8189 Y55.8787
G01 X50.8803 Y55.9075
G01 X50.9385 Y55.9421
G01 X50.9553 Y55.9542
G01 X59.7498 Y55.9542
G01 X59.7667 Y55.9421
G01 X59.8249 Y55.9075
G01 X59.8863 Y55.8787
G01 X59.9450 Y55.8577
G01 X59.9502 Y55.8562
G01 X60.0159 Y55.8400
G01 X60.0776 Y55.8308
G01 X60.1452 Y55.8272
G01 X60.2129 Y55.8303
G01 X60.2183 Y55.8308
G01 X60.2852 Y55.8410
G01 X60.3509 Y55.8577
G01 X60.4096 Y55.8787
G01 X60.4709 Y55.9075
G01 X60.5292 Y55.9421
G01 X60.5460 Y55.9542
G01 X75.0336 Y55.9542
G01 X75.0505 Y55.9421
G01 X75.1087 Y55.9075
G01 X75.1701 Y55.8787
G01 X75.2288 Y55.8577
G01 X75.2339 Y55.8562
G01 X75.2997 Y55.8400
G01 X75.3614 Y55.8308
G01 X75.4290 Y55.8272
G01 X75.4967 Y55.8303
G01 X75.5021 Y55.8308
G01 X75.5690 Y55.8410
G01 X75.6347 Y55.8577
G01 X75.6934 Y55.8787
G01 X75.7547 Y55.9075
G01 X75.8130 Y55.9421
G01 X75.8298 Y55.9542
G01 X100.1271 Y55.9542
G01 X100.1439 Y55.9421
G01 X100.2022 Y55.9075
G01 X100.2635 Y55.8787
G01 X100.3222 Y55.8577
G01 X100.3879 Y55.8410
G01 X100.4548 Y55.8308
G01 X100.4602 Y55.8303
G01 X100.5279 Y55.8272
G01 X100.5955 Y55.8308
G01 X100.6572 Y55.8400
G01 X100.7230 Y55.8562
G01 X100.7281 Y55.8577
G01 X100.7868 Y55.8787
G01 X100.8482 Y55.9075
G01 X100.9064 Y55.9421
G01 X100.9233 Y55.9542
G01 X109.6019 Y55.9542
G01 X109.6188 Y55.9421
G01 X109.6770 Y55.9075
G01 X109.7383 Y55.8787
G01 X109.7970 Y55.8577
G01 X109.8627 Y55.8410
G01 X109.9297 Y55.8308
G01 X109.9350 Y55.8303
G01 X110.0027 Y55.8272
G01 X110.0703 Y55.8308
G01 X110.1320 Y55.8400
G01 X110.1978 Y55.8562
G01 X110.2030 Y55.8577
G01 X110.2617 Y55.8787
G01 X110.3230 Y55.9075
G01 X110.3812 Y55.9421
G01 X110.3981 Y55.9542
G01 X124.7509 Y55.9542
G01 X124.7643 Y55.9395
G01 X127.9869 Y52.7169
G01 X127.9869 Y37.3073
G01 X126.8560 Y36.1764
G01 X40.3809 Y36.1764
G01 X40.3035 Y36.1727
G01 X40.2981 Y36.1721
G01 X40.2241 Y36.1611
G01 X40.1463 Y36.1419
G01 X40.0707 Y36.1151
G01 X39.9980 Y36.0811
G01 X39.9291 Y36.0401
G01 X39.9246 Y36.0371
G01 X39.8604 Y35.9891
G01 X39.8049 Y35.9388
G01 X37.2658 Y33.3998
G01 X37.2501 Y33.4206
G01 X37.1998 Y33.4760
G01 X37.1406 Y33.5301
G01 X37.0763 Y33.5781
G01 X37.0077 Y33.6195
G01 X37.0029 Y33.6221
G01 X36.9303 Y33.6561
G01 X36.8598 Y33.6813
G01 X36.7821 Y33.7011
G01 X36.7028 Y33.7131
G01 X36.6974 Y33.7136
G01 X36.6200 Y33.7174
G01 X28.3812 Y33.7174
G01 X28.3038 Y33.7136
G01 X28.2984 Y33.7131
G01 X28.2244 Y33.7021
G01 X28.1465 Y33.6829
G01 X28.0709 Y33.6561
G01 X28.0659 Y33.6541
G01 X27.9983 Y33.6221
G01 X27.9294 Y33.5811
G01 X27.8648 Y33.5335
G01 X27.8606 Y33.5301
G01 X27.8032 Y33.4780
G01 X15.7226 Y21.3974
G01 X6.9742 Y21.3974
G01 X6.9452 Y21.4290
G01 X6.8620 Y21.5043
G01 X6.8579 Y21.5077
G01 X6.7678 Y21.5745
G01 X6.7633 Y21.5775
G01 X6.6671 Y21.6352
G01 X6.6623 Y21.6378
G01 X6.5609 Y21.6857
G01 X6.5559 Y21.6878
G01 X6.4503 Y21.7256
G01 X6.4452 Y21.7271
G01 X6.3364 Y21.7544
G01 X6.3311 Y21.7554
G01 X6.2201 Y21.7719
G01 X6.2147 Y21.7724
G01 X6.1027 Y21.7779
G01 X6.0973 Y21.7779
G01 X5.9853 Y21.7724
G01 X5.9799 Y21.7719
G01 X5.8689 Y21.7554
G01 X5.8636 Y21.7544
G01 X5.7548 Y21.7271
G01 X5.7497 Y21.7256
G01 X5.6441 Y21.6878
G01 X5.6391 Y21.6857
G01 X5.5377 Y21.6378
G01 X5.5329 Y21.6352
G01 X5.4367 Y21.5775
G01 X5.4322 Y21.5745
G01 X5.3421 Y21.5077
G01 X5.3380 Y21.5043
G01 X5.2548 Y21.4290
G01 X5.2510 Y21.4252
G01 X5.1757 Y21.3420
G01 X5.1723 Y21.3379
G01 X5.1055 Y21.2478
G01 X5.1025 Y21.2433
G01 X5.0448 Y21.1471
G01 X5.0422 Y21.1423
G01 X4.9943 Y21.0409
G01 X4.9922 Y21.0359
G01 X4.9544 Y20.9303
G01 X4.9529 Y20.9252
G01 X4.9256 Y20.8164
G01 X4.9246 Y20.8111
G01 X4.9081 Y20.7001
G01 X4.9076 Y20.6947
G01 X4.9021 Y20.5827
G01 X4.9021 Y20.5773
G01 X4.9076 Y20.4653
G01 X4.9081 Y20.4599
G00 Z3.0000
G00 X4.9081 Y22.9999
G01 F25.00
G01 Z-0.0187
G01 F45.00
G01 X4.9246 Y22.8889
G01 X4.9256 Y22.8836
G01 X4.9529 Y22.7748
G01 X4.9544 Y22.7697
G01 X4.9922 Y22.6641
G01 X4.9943 Y22.6591
G01 X5.0422 Y22.5577
G01 X5.0448 Y22.5529
G01 X5.1025 Y22.4567
G01 X5.1055 Y22.4522
G01 X5.1723 Y22.3621
G01 X5.1757 Y22.3580
G01 X5.2510 Y22.2748
G01 X5.2548 Y22.2710
G01 X5.3380 Y22.1957
G01 X5.3421 Y22.1923
G01 X5.4322 Y22.1255
G01 X5.4367 Y22.1225
G01 X5.5329 Y22.0648
G01 X5.5377 Y22.0622
G01 X5.6391 Y22.0143
G01 X5.6441 Y22.0122
G01 X5.7497 Y21.9744
G01 X5.7548 Y21.9729
G01 X5.8636 Y21.9456
G01 X5.8689 Y21.9446
G01 X5.9799 Y21.9281
G01 X5.9853 Y21.9276
G01 X6.0973 Y21.9221
G01 X6.1027 Y21.9221
G01 X6.2147 Y21.9276
G01 X6.2201 Y21.9281
G01 X6.3311 Y21.9446
G01 X6.3364 Y21.9456
G01 X6.4452 Y21.9729
G01 X6.4503 Y21.9744
G01 X6.5559 Y22.0122
G01 X6.5609 Y22.0143
G01 X6.6623 Y22.0622
G01 X6.6671 Y22.0648
G01 X6.7633 Y22.1225
G01 X6.7678 Y22.1255
G01 X6.8579 Y22.1923
G01 X6.8620 Y22.1957
G01 X6.9452 Y22.2710
G01 X6.9742 Y22.3026
G01 X14.3312 Y22.3026
G01 X14.4086 Y22.3064
G01 X14.4140 Y22.3069
G01 X14.4880 Y22.3179
G01 X14.5659 Y22.3371
G01 X14.6415 Y22.3639
G01 X14.6464 Y22.3659
G01 X14.7141 Y22.3979
G01 X14.7830 Y22.4389
G01 X14.8476 Y22.4865
G01 X14.8518 Y22.4899
G01 X14.9092 Y22.5420
G01 X33.5498 Y41.1826
G01 X45.6310 Y41.1826
G01 X45.6911 Y41.1849
G01 X45.7026 Y41.1860
G01 X45.7026 Y40.6765
G01 X45.7064 Y40.5991
G01 X45.7179 Y40.5197
G01 X45.7189 Y40.5144
G01 X45.7387 Y40.4367
G01 X45.7659 Y40.3612
G01 X45.7979 Y40.2936
G01 X45.8389 Y40.2247
G01 X45.8865 Y40.1601
G01 X45.8899 Y40.1559
G01 X45.9420 Y40.0985
G01 X46.8185 Y39.2220
G01 X46.8759 Y39.1699
G01 X46.8801 Y39.1665
G01 X46.9402 Y39.1219
G01 X47.0088 Y39.0805
G01 X47.0136 Y39.0779
G01 X47.0862 Y39.0439
G01 X47.1618 Y39.0171
G01 X47.2397 Y38.9979
G01 X47.3191 Y38.9864
G01 X47.3938 Y38.9827
G01 X71.4251 Y38.9826
G01 X71.4780 Y38.9240
G01 X71.4818 Y38.9202
G01 X71.5414 Y38.8665
G01 X71.6060 Y38.8189
G01 X71.6749 Y38.7779
G01 X71.7475 Y38.7439
G01 X71.8180 Y38.7187
G01 X71.8957 Y38.6989
G01 X71.9750 Y38.6869
G01 X71.9804 Y38.6864
G01 X72.0578 Y38.6826
G01 X97.5741 Y38.6826
G01 X97.6515 Y38.6864
G01 X97.7309 Y38.6979
G01 X97.8088 Y38.7171
G01 X97.8291 Y38.7241
G01 X97.8886 Y38.6699
G01 X97.9529 Y38.6219
G01 X98.0215 Y38.5805
G01 X98.0939 Y38.5459
G01 X98.1693 Y38.5187
G01 X98.2471 Y38.4989
G01 X98.3264 Y38.4869
G01 X98.3317 Y38.4864
G01 X98.4092 Y38.4826
G01 X121.1512 Y38.4826
G01 X121.2286 Y38.4864
G01 X121.2340 Y38.4869
G01 X121.3080 Y38.4979
G01 X121.3859 Y38.5171
G01 X121.4615 Y38.5439
G01 X121.4665 Y38.5459
G01 X121.5341 Y38.5779
G01 X121.6030 Y38.6189
G01 X121.6676 Y38.6665
G01 X121.7272 Y38.7202
G01 X122.0204 Y39.0133
G01 X122.0724 Y38.9665
G01 X122.1370 Y38.9189
G01 X122.2059 Y38.8779
G01 X122.2735 Y38.8459
G01 X122.3490 Y38.8187
G01 X122.4267 Y38.7989
G01 X122.4320 Y38.7979
G01 X122.5114 Y38.7864
G01 X122.5888 Y38.7826
G01 X126.2000 Y38.7826
G01 X126.2774 Y38.7864
G01 X126.3568 Y38.7979
G01 X126.3621 Y38.7989
G01 X126.4398 Y38.8187
G01 X126.5153 Y38.8459
G01 X126.5877 Y38.8805
G01 X126.6563 Y38.9219
G01 X126.7206 Y38.9699
G01 X126.7780 Y39.0220
G01 X127.5780 Y39.8220
G01 X127.6301 Y39.8794
G01 X127.6781 Y39.9437
G01 X127.7195 Y40.0123
G01 X127.7221 Y40.0171
G01 X127.7561 Y40.0897
G01 X127.7813 Y40.1602
G01 X127.8011 Y40.2379
G01 X127.8021 Y40.2432
G01 X127.8136 Y40.3226
G01 X127.8174 Y40.4000
G01 X127.8174 Y48.4000
G01 X127.8136 Y48.4774
G01 X127.8131 Y48.4828
G01 X127.8011 Y48.5621
G01 X127.7813 Y48.6398
G01 X127.7561 Y48.7103
G01 X127.7221 Y48.7829
G01 X127.6811 Y48.8518
G01 X127.6781 Y48.8563
G01 X127.6301 Y48.9206
G01 X127.5780 Y48.9780
G01 X126.1380 Y50.4180
G01 X126.0806 Y50.4701
G01 X126.0163 Y50.5181
G01 X126.0118 Y50.5211
G01 X125.9429 Y50.5621
G01 X125.8703 Y50.5961
G01 X125.7998 Y50.6213
G01 X125.7221 Y50.6411
G01 X125.7168 Y50.6421
G01 X125.6374 Y50.6536
G01 X125.5600 Y50.6574
G01 X116.6189 Y50.6574
G01 X114.3022 Y52.9740
G01 X114.2541 Y53.0178
G01 X114.1998 Y53.0583
G01 X114.1419 Y53.0934
G01 X114.1371 Y53.0959
G01 X114.0757 Y53.1247
G01 X114.0170 Y53.1457
G01 X113.9514 Y53.1624
G01 X113.8844 Y53.1726
G01 X113.8168 Y53.1762
G01 X89.9753 Y53.1762
G01 X89.8677 Y53.1870
G01 X89.8000 Y53.1903
G01 X65.4667 Y53.1903
G01 X65.3963 Y53.1867
G01 X65.3294 Y53.1765
G01 X65.2637 Y53.1597
G01 X65.2050 Y53.1387
G01 X65.1437 Y53.1100
G01 X65.0854 Y53.0754
G01 X65.0809 Y53.0724
G01 X65.0267 Y53.0319
G01 X64.9767 Y52.9862
G01 X64.9314 Y52.9358
G01 X64.8912 Y52.8812
G01 X64.8567 Y52.8230
G01 X64.8279 Y52.7617
G01 X64.8069 Y52.7030
G01 X64.7902 Y52.6373
G01 X64.7800 Y52.5703
G01 X64.7764 Y52.5027
G01 X64.7764 Y52.3047
G01 X41.5987 Y52.3047
G01 X41.5833 Y52.3212
G01 X41.5279 Y52.3715
G01 X41.4636 Y52.4195
G01 X41.4592 Y52.4225
G01 X41.3902 Y52.4635
G01 X41.3226 Y52.4955
G01 X41.2472 Y52.5227
G01 X41.1694 Y52.5425
G01 X41.1641 Y52.5435
G01 X41.0901 Y52.5545
G01 X41.0100 Y52.5587
G01 X41.0046 Y52.5587
G01 X40.9245 Y52.5545
G01 X40.8452 Y52.5425
G01 X40.7675 Y52.5227
G01 X40.6970 Y52.4975
G01 X40.6244 Y52.4635
G01 X40.5555 Y52.4225
G01 X40.5510 Y52.4195
G01 X40.4867 Y52.3715
G01 X40.4293 Y52.3194
G01 X40.2220 Y52.1121
G01 X40.1699 Y52.0547
G01 X40.1219 Y51.9904
G01 X40.1189 Y51.9859
G01 X40.0779 Y51.9170
G01 X40.0459 Y51.8493
G01 X40.0187 Y51.7739
G01 X39.9989 Y51.6962
G01 X39.9869 Y51.6169
G01 X39.9827 Y51.5368
G01 X39.9826 Y50.5142
G01 X39.9510 Y50.4852
G01 X39.8757 Y50.4020
G01 X39.8723 Y50.3979
G01 X39.8055 Y50.3078
G01 X39.8025 Y50.3033
G01 X39.7448 Y50.2071
G01 X39.7422 Y50.2023
G01 X39.6943 Y50.1009
G01 X39.6922 Y50.0959
G01 X39.6544 Y49.9903
G01 X39.6529 Y49.9852
G01 X39.6256 Y49.8764
G01 X39.6246 Y49.8711
G01 X39.6081 Y49.7601
G01 X39.6076 Y49.7547
G01 X39.6021 Y49.6427
G01 X39.6021 Y49.6373
G01 X39.6076 Y49.5253
G01 X39.6081 Y49.5199
G01 X39.6246 Y49.4089
G01 X39.6256 Y49.4036
G01 X39.6529 Y49.2948
G01 X39.6544 Y49.2897
G01 X39.6922 Y49.1841
G01 X39.6943 Y49.1791
G01 X39.7422 Y49.0777
G01 X39.7448 Y49.0729
G01 X39.8025 Y48.9767
G01 X39.8055 Y48.9722
G01 X39.8723 Y48.8821
G01 X39.8757 Y48.8780
G01 X39.9510 Y48.7948
G01 X39.9548 Y48.7910
G01 X40.0380 Y48.7157
G01 X40.0421 Y48.7123
G01 X40.1322 Y48.6455
G01 X40.1367 Y48.6425
G01 X40.2329 Y48.5848
G01 X40.2377 Y48.5822
G01 X40.3391 Y48.5343
G01 X40.3441 Y48.5322
G01 X40.4497 Y48.4944
G01 X40.4548 Y48.4929
G01 X40.5636 Y48.4656
G01 X40.5689 Y48.4646
G01 X40.6799 Y48.4481
G01 X40.6853 Y48.4476
G01 X40.7973 Y48.4421
G01 X40.8027 Y48.4421
G01 X40.9147 Y48.4476
G01 X40.9201 Y48.4481
G01 X41.0311 Y48.4646
G01 X41.0364 Y48.4656
G01 X41.1452 Y48.4929
G01 X41.1503 Y48.4944
G01 X41.2559 Y48.5322
G01 X41.2609 Y48.5343
G01 X41.3623 Y48.5822
G01 X41.3671 Y48.5848
G01 X41.4633 Y48.6425
G01 X41.4678 Y48.6455
G01 X41.5579 Y48.7123
G01 X41.5620 Y48.7157
G01 X41.6452 Y48.7910
G01 X41.6490 Y48.7948
G01 X41.7243 Y48.8780
G01 X41.7277 Y48.8821
G01 X41.7945 Y48.9722
G01 X41.7975 Y48.9767
G01 X41.8552 Y49.0729
G01 X41.8578 Y49.0777
G01 X41.9057 Y49.1791
G01 X41.9078 Y49.1841
G01 X41.9456 Y49.2897
G01 X41.9471 Y49.2948
G01 X41.9744 Y49.4036
G01 X41.9754 Y49.4089
G01 X41.9919 Y49.5199
G01 X41.9924 Y49.5253
G01 X41.9979 Y49.6373
G01 X41.9979 Y49.6427
G01 X41.9924 Y49.7547
G01 X41.9919 Y49.7601
G01 X41.9754 Y49.8711
G01 X41.9744 Y49.8764
G01 X41.9471 Y49.9852
G01 X41.9456 Y49.9903
G01 X41.9078 Y50.0959
G01 X41.9057 Y50.1009
G01 X41.8578 Y50.2023
G01 X41.8552 Y50.2071
G01 X41.7975 Y50.3033
G01 X41.7945 Y50.3078
G01 X41.7277 Y50.3979
G01 X41.7243 Y50.4020
G01 X41.6490 Y50.4852
G01 X41.6174 Y50.5142
G01 X41.6174 Y51.1781
G01 X64.6493 Y51.1781
G01 X64.6493 Y50.7730
G01 X64.6380 Y50.7643
G01 X64.5548 Y50.6890
G01 X64.5510 Y50.6852
G01 X64.4757 Y50.6020
G01 X64.4723 Y50.5979
G01 X64.4055 Y50.5078
G01 X64.4025 Y50.5033
G01 X64.3448 Y50.4071
G01 X64.3422 Y50.4023
G01 X64.2943 Y50.3009
G01 X64.2922 Y50.2959
G01 X64.2544 Y50.1903
G01 X64.2529 Y50.1852
G01 X64.2256 Y50.0764
G01 X64.2246 Y50.0711
G01 X64.2081 Y49.9601
G01 X64.2076 Y49.9547
G01 X64.2021 Y49.8427
G01 X64.2021 Y49.8373
G01 X64.2076 Y49.7253
G01 X64.2081 Y49.7199
G01 X64.2246 Y49.6089
G01 X64.2256 Y49.6036
G01 X64.2529 Y49.4948
G01 X64.2544 Y49.4897
G01 X64.2922 Y49.3841
G01 X64.2943 Y49.3791
G01 X64.3422 Y49.2777
G01 X64.3448 Y49.2729
G01 X64.4025 Y49.1767
G01 X64.4055 Y49.1722
G01 X64.4723 Y49.0821
G01 X64.4757 Y49.0780
G01 X64.5510 Y48.9948
G01 X64.5548 Y48.9910
G01 X64.6380 Y48.9157
G01 X64.6421 Y48.9123
G01 X64.7322 Y48.8455
G01 X64.7367 Y48.8425
G01 X64.8329 Y48.7848
G01 X64.8377 Y48.7822
G01 X64.9391 Y48.7343
G01 X64.9441 Y48.7322
G01 X65.0497 Y48.6944
G01 X65.0548 Y48.6929
G01 X65.1636 Y48.6656
G01 X65.1689 Y48.6646
G01 X65.2799 Y48.6481
G01 X65.2853 Y48.6476
G01 X65.3973 Y48.6421
G01 X65.4027 Y48.6421
G01 X65.5147 Y48.6476
G01 X65.5201 Y48.6481
G01 X65.6311 Y48.6646
G01 X65.6364 Y48.6656
G01 X65.7452 Y48.6929
G01 X65.7503 Y48.6944
G01 X65.8559 Y48.7322
G01 X65.8609 Y48.7343
G01 X65.9623 Y48.7822
G01 X65.9671 Y48.7848
G01 X66.0633 Y48.8425
G01 X66.0678 Y48.8455
G01 X66.1579 Y48.9123
G01 X66.1620 Y48.9157
G01 X66.2452 Y48.9910
G01 X66.2490 Y48.9948
G01 X66.3243 Y49.0780
G01 X66.3277 Y49.0821
G01 X66.3945 Y49.1722
G01 X66.3975 Y49.1767
G01 X66.4552 Y49.2729
G01 X66.4578 Y49.2777
G01 X66.5057 Y49.3791
G01 X66.5078 Y49.3841
G01 X66.5456 Y49.4897
G01 X66.5471 Y49.4948
G01 X66.5744 Y49.6036
G01 X66.5754 Y49.6089
G01 X66.5919 Y49.7199
G01 X66.5924 Y49.7253
G01 X66.5979 Y49.8373
G01 X66.5979 Y49.8427
G01 X66.5924 Y49.9547
G01 X66.5919 Y49.9601
G01 X66.5754 Y50.0711
G01 X66.5744 Y50.0764
G01 X66.5471 Y50.1852
G01 X66.5456 Y50.1903
G01 X66.5078 Y50.2959
G01 X66.5057 Y50.3009
G01 X66.4578 Y50.4023
G01 X66.4552 Y50.4071
G01 X66.3975 Y50.5033
G01 X66.3945 Y50.5078
G01 X66.3277 Y50.5979
G01 X66.2841 Y50.6465
G01 X66.2841 Y51.7414
G01 X66.2808 Y51.8097
G01 X89.3019 Y51.8097
G01 X89.3019 Y50.8766
G01 X89.2322 Y50.8345
G01 X89.1421 Y50.7677
G01 X89.1380 Y50.7643
G01 X89.0548 Y50.6890
G01 X89.0510 Y50.6852
G01 X88.9757 Y50.6020
G01 X88.9723 Y50.5979
G01 X88.9055 Y50.5078
G01 X88.9025 Y50.5033
G01 X88.8448 Y50.4071
G01 X88.8422 Y50.4023
G01 X88.7943 Y50.3009
G01 X88.7922 Y50.2959
G01 X88.7544 Y50.1903
G01 X88.7529 Y50.1852
G01 X88.7256 Y50.0764
G01 X88.7246 Y50.0711
G01 X88.7081 Y49.9601
G01 X88.7076 Y49.9547
G01 X88.7021 Y49.8427
G01 X88.7021 Y49.8373
G01 X88.7076 Y49.7253
G01 X88.7081 Y49.7199
G01 X88.7246 Y49.6089
G01 X88.7256 Y49.6036
G01 X88.7529 Y49.4948
G01 X88.7544 Y49.4897
G01 X88.7922 Y49.3841
G01 X88.7943 Y49.3791
G01 X88.8422 Y49.2777
G01 X88.8448 Y49.2729
G01 X88.9025 Y49.1767
G01 X88.9055 Y49.1722
G01 X88.9723 Y49.0821
G01 X88.9757 Y49.0780
G01 X89.0510 Y48.9948
G01 X89.0548 Y48.9910
G01 X89.1380 Y48.9157
G01 X89.1421 Y48.9123
G01 X89.2322 Y48.8455
G01 X89.2367 Y48.8425
G01 X89.3329 Y48.7848
G01 X89.3377 Y48.7822
G01 X89.4391 Y48.7343
G01 X89.4441 Y48.7322
G01 X89.5497 Y48.6944
G01 X89.5548 Y48.6929
G01 X89.6636 Y48.6656
G01 X89.6689 Y48.6646
G01 X89.7799 Y48.6481
G01 X89.7853 Y48.6476
G01 X89.8973 Y48.6421
G01 X89.9027 Y48.6421
G01 X90.0147 Y48.6476
G01 X90.0201 Y48.6481
G01 X90.1311 Y48.6646
G01 X90.1364 Y48.6656
G01 X90.2452 Y48.6929
G01 X90.2503 Y48.6944
G01 X90.3559 Y48.7322
G01 X90.3609 Y48.7343
G01 X90.4623 Y48.7822
G01 X90.4671 Y48.7848
G01 X90.5633 Y48.8425
G01 X90.5678 Y48.8455
G01 X90.6579 Y48.9123
G01 X90.6620 Y48.9157
G01 X90.7452 Y48.9910
G01 X90.7490 Y48.9948
G01 X90.8243 Y49.0780
G01 X90.8277 Y49.0821
G01 X90.8945 Y49.1722
G01 X90.8975 Y49.1767
G01 X90.9552 Y49.2729
G01 X90.9578 Y49.2777
G01 X91.0057 Y49.3791
G01 X91.0078 Y49.3841
G01 X91.0456 Y49.4897
G01 X91.0471 Y49.4948
G01 X91.0744 Y49.6036
G01 X91.0754 Y49.6089
G01 X91.0919 Y49.7199
G01 X91.0924 Y49.7253
G01 X91.0979 Y49.8373
G01 X91.0979 Y49.8427
G01 X91.0924 Y49.9547
G01 X91.0919 Y49.9601
G01 X91.0754 Y50.0711
G01 X91.0744 Y50.0764
G01 X91.0471 Y50.1852
G01 X91.0456 Y50.1903
G01 X91.0078 Y50.2959
G01 X91.0057 Y50.3009
G01 X90.9578 Y50.4023
G01 X90.9552 Y50.4071
G01 X90.8975 Y50.5033
G01 X90.8945 Y50.5078
G01 X90.8277 Y50.5979
G01 X90.8243 Y50.6020
G01 X90.7490 Y50.6852
G01 X90.6825 Y50.7457
G01 X90.6825 Y51.7956
G01 X113.5282 Y51.7956
G01 X114.5968 Y50.7270
G01 X114.5510 Y50.6852
G01 X114.4757 Y50.6020
G01 X114.4723 Y50.5979
G01 X114.4055 Y50.5078
G01 X114.4025 Y50.5033
G01 X114.3448 Y50.4071
G01 X114.3422 Y50.4023
G01 X114.2943 Y50.3009
G01 X114.2922 Y50.2959
G01 X114.2544 Y50.1903
G01 X114.2529 Y50.1852
G01 X114.2256 Y50.0764
G01 X114.2246 Y50.0711
G01 X114.2081 Y49.9601
G01 X114.2076 Y49.9547
G01 X114.2021 Y49.8427
G01 X114.2021 Y49.8373
G01 X114.2076 Y49.7253
G01 X114.2081 Y49.7199
G01 X114.2246 Y49.6089
G01 X114.2256 Y49.6036
G01 X114.2529 Y49.4948
G01 X114.2544 Y49.4897
G01 X114.2922 Y49.3841
G01 X114.2943 Y49.3791
G01 X114.3422 Y49.2777
G01 X114.3448 Y49.2729
G01 X114.4025 Y49.1767
G01 X114.4055 Y49.1722
G01 X114.4723 Y49.0821
G01 X114.4757 Y49.0780
G01 X114.5510 Y48.9948
G01 X114.5548 Y48.9910
G01 X114.6380 Y48.9157
G01 X114.6421 Y48.9123
G01 X114.7322 Y48.8455
G01 X114.7367 Y48.8425
G01 X114.8329 Y48.7848
G01 X114.8377 Y48.7822
G01 X114.9391 Y48.7343
G01 X114.9441 Y48.7322
G01 X115.0497 Y48.6944
G01 X115.0548 Y48.6929
G01 X115.1636 Y48.6656
G01 X115.1689 Y48.6646
G01 X115.2799 Y48.6481
G01 X115.2853 Y48.6476
G01 X115.3973 Y48.6421
G01 X115.4027 Y48.6421
G01 X115.5147 Y48.6476
G01 X115.5201 Y48.6481
G01 X115.6311 Y48.6646
G01 X115.6364 Y48.6656
G01 X115.7452 Y48.6929
G01 X115.7503 Y48.6944
G01 X115.8559 Y48.7322
G01 X115.8609 Y48.7343
G01 X115.9623 Y48.7822
G01 X115.9671 Y48.7848
G01 X116.0633 Y48.8425
G01 X116.0678 Y48.8455
G01 X116.1579 Y48.9123
G01 X116.1620 Y48.9157
G01 X116.2452 Y48.9910
G01 X116.2742 Y49.0226
G01 X125.2214 Y49.0226
G01 X126.1826 Y48.0614
G01 X126.1826 Y40.7386
G01 X125.8614 Y40.4174
G01 X122.9274 Y40.4174
G01 X122.8374 Y40.5074
G01 X122.8374 Y41.1623
G01 X122.8690 Y41.1913
G01 X122.9443 Y41.2744
G01 X122.9477 Y41.2786
G01 X123.0145 Y41.3687
G01 X123.0175 Y41.3732
G01 X123.0752 Y41.4694
G01 X123.0778 Y41.4742
G01 X123.1257 Y41.5756
G01 X123.1278 Y41.5806
G01 X123.1656 Y41.6862
G01 X123.1671 Y41.6913
G01 X123.1944 Y41.8001
G01 X123.1954 Y41.8054
G01 X123.2119 Y41.9164
G01 X123.2124 Y41.9218
G01 X123.2179 Y42.0338
G01 X123.2179 Y42.0392
G01 X123.2124 Y42.1512
G01 X123.2119 Y42.1566
G01 X123.1954 Y42.2675
G01 X123.1944 Y42.2728
G01 X123.1671 Y42.3816
G01 X123.1656 Y42.3868
G01 X123.1278 Y42.4924
G01 X123.1257 Y42.4974
G01 X123.0778 Y42.5988
G01 X123.0752 Y42.6036
G01 X123.0175 Y42.6998
G01 X123.0145 Y42.7043
G01 X122.9477 Y42.7944
G01 X122.9443 Y42.7985
G01 X122.8690 Y42.8816
G01 X122.8652 Y42.8855
G01 X122.7820 Y42.9608
G01 X122.7779 Y42.9642
G01 X122.6878 Y43.0310
G01 X122.6833 Y43.0340
G01 X122.5871 Y43.0917
G01 X122.5823 Y43.0942
G01 X122.4809 Y43.1422
G01 X122.4759 Y43.1443
G01 X122.3703 Y43.1821
G01 X122.3652 Y43.1836
G01 X122.2564 Y43.2109
G01 X122.2511 Y43.2119
G01 X122.1401 Y43.2284
G01 X122.1347 Y43.2289
G01 X122.0227 Y43.2344
G01 X122.0173 Y43.2344
G01 X121.9053 Y43.2289
G01 X121.8999 Y43.2284
G01 X121.7889 Y43.2119
G01 X121.7836 Y43.2109
G01 X121.6748 Y43.1836
G01 X121.6697 Y43.1821
G01 X121.5641 Y43.1443
G01 X121.5591 Y43.1422
G01 X121.4577 Y43.0942
G01 X121.4529 Y43.0917
G01 X121.3567 Y43.0340
G01 X121.3522 Y43.0310
G01 X121.2621 Y42.9642
G01 X121.2580 Y42.9608
G01 X121.1748 Y42.8855
G01 X121.1710 Y42.8816
G01 X121.0957 Y42.7985
G01 X121.0923 Y42.7944
G01 X121.0255 Y42.7043
G01 X121.0225 Y42.6998
G01 X120.9648 Y42.6036
G01 X120.9622 Y42.5988
G01 X120.9143 Y42.4974
G01 X120.9122 Y42.4924
G01 X120.8744 Y42.3868
G01 X120.8729 Y42.3816
G01 X120.8456 Y42.2728
G01 X120.8446 Y42.2675
G01 X120.8281 Y42.1566
G01 X120.8276 Y42.1512
G01 X120.8221 Y42.0392
G01 X120.8221 Y42.0338
G01 X120.8276 Y41.9218
G01 X120.8281 Y41.9164
G01 X120.8446 Y41.8054
G01 X120.8456 Y41.8001
G01 X120.8729 Y41.6913
G01 X120.8744 Y41.6862
G01 X120.9122 Y41.5806
G01 X120.9143 Y41.5756
G01 X120.9622 Y41.4742
G01 X120.9648 Y41.4694
G01 X121.0225 Y41.3732
G01 X121.0255 Y41.3687
G01 X121.0923 Y41.2786
G01 X121.0957 Y41.2744
G01 X121.1710 Y41.1913
G01 X121.2026 Y41.1623
G01 X121.2026 Y40.5074
G01 X120.8126 Y40.1174
G01 X98.7477 Y40.1174
G01 X98.3374 Y40.5277
G01 X98.3374 Y41.1623
G01 X98.3690 Y41.1913
G01 X98.4443 Y41.2744
G01 X98.4477 Y41.2786
G01 X98.5145 Y41.3687
G01 X98.5175 Y41.3732
G01 X98.5752 Y41.4694
G01 X98.5778 Y41.4742
G01 X98.6257 Y41.5756
G01 X98.6278 Y41.5806
G01 X98.6656 Y41.6862
G01 X98.6671 Y41.6913
G01 X98.6944 Y41.8001
G01 X98.6954 Y41.8054
G01 X98.7119 Y41.9164
G01 X98.7124 Y41.9218
G01 X98.7179 Y42.0338
G01 X98.7179 Y42.0392
G01 X98.7124 Y42.1512
G01 X98.7119 Y42.1566
G01 X98.6954 Y42.2675
G01 X98.6944 Y42.2728
G01 X98.6671 Y42.3816
G01 X98.6656 Y42.3868
G01 X98.6278 Y42.4924
G01 X98.6257 Y42.4974
G01 X98.5778 Y42.5988
G01 X98.5752 Y42.6036
G01 X98.5175 Y42.6998
G01 X98.5145 Y42.7043
G01 X98.4477 Y42.7944
G01 X98.4443 Y42.7985
G01 X98.3690 Y42.8816
G01 X98.3652 Y42.8855
G01 X98.2820 Y42.9608
G01 X98.2779 Y42.9642
G01 X98.1878 Y43.0310
G01 X98.1833 Y43.0340
G01 X98.0871 Y43.0917
G01 X98.0823 Y43.0942
G01 X97.9809 Y43.1422
G01 X97.9759 Y43.1443
G01 X97.8703 Y43.1821
G01 X97.8652 Y43.1836
G01 X97.7564 Y43.2109
G01 X97.7511 Y43.2119
G01 X97.6401 Y43.2284
G01 X97.6347 Y43.2289
G01 X97.5227 Y43.2344
G01 X97.5173 Y43.2344
G01 X97.4053 Y43.2289
G01 X97.3999 Y43.2284
G01 X97.2889 Y43.2119
G01 X97.2836 Y43.2109
G01 X97.1748 Y43.1836
G01 X97.1697 Y43.1821
G01 X97.0641 Y43.1443
G01 X97.0591 Y43.1422
G01 X96.9577 Y43.0942
G01 X96.9529 Y43.0917
G01 X96.8567 Y43.0340
G01 X96.8522 Y43.0310
G01 X96.7621 Y42.9642
G01 X96.7580 Y42.9608
G01 X96.6748 Y42.8855
G01 X96.6710 Y42.8816
G01 X96.5957 Y42.7985
G01 X96.5923 Y42.7944
G01 X96.5255 Y42.7043
G01 X96.5225 Y42.6998
G01 X96.4648 Y42.6036
G01 X96.4622 Y42.5988
G01 X96.4143 Y42.4974
G01 X96.4122 Y42.4924
G01 X96.3744 Y42.3868
G01 X96.3729 Y42.3816
G01 X96.3456 Y42.2728
G01 X96.3446 Y42.2675
G01 X96.3281 Y42.1566
G01 X96.3276 Y42.1512
G01 X96.3221 Y42.0392
G01 X96.3221 Y42.0338
G01 X96.3276 Y41.9218
G01 X96.3281 Y41.9164
G01 X96.3446 Y41.8054
G01 X96.3456 Y41.8001
G01 X96.3729 Y41.6913
G01 X96.3744 Y41.6862
G01 X96.4122 Y41.5806
G01 X96.4143 Y41.5756
G01 X96.4622 Y41.4742
G01 X96.4648 Y41.4694
G01 X96.5225 Y41.3732
G01 X96.5255 Y41.3687
G01 X96.5923 Y41.2786
G01 X96.5957 Y41.2744
G01 X96.6710 Y41.1913
G01 X96.7026 Y41.1623
G01 X96.7026 Y40.3174
G01 X72.8538 Y40.3174
G01 X72.8407 Y40.3698
G01 X72.8374 Y40.3799
G01 X72.8374 Y41.1623
G01 X72.8690 Y41.1913
G01 X72.9443 Y41.2744
G01 X72.9477 Y41.2786
G01 X73.0145 Y41.3687
G01 X73.0175 Y41.3732
G01 X73.0752 Y41.4694
G01 X73.0778 Y41.4742
G01 X73.1257 Y41.5756
G01 X73.1278 Y41.5806
G01 X73.1656 Y41.6862
G01 X73.1671 Y41.6913
G01 X73.1944 Y41.8001
G01 X73.1954 Y41.8054
G01 X73.2119 Y41.9164
G01 X73.2124 Y41.9218
G01 X73.2179 Y42.0338
G01 X73.2179 Y42.0392
G01 X73.2124 Y42.1512
G01 X73.2119 Y42.1566
G01 X73.1954 Y42.2675
G01 X73.1944 Y42.2728
G01 X73.1671 Y42.3816
G01 X73.1656 Y42.3868
G01 X73.1278 Y42.4924
G01 X73.1257 Y42.4974
G01 X73.0778 Y42.5988
G01 X73.0752 Y42.6036
G01 X73.0175 Y42.6998
G01 X73.0145 Y42.7043
G01 X72.9477 Y42.7944
G01 X72.9443 Y42.7985
G01 X72.8690 Y42.8816
G01 X72.8652 Y42.8855
G01 X72.7820 Y42.9608
G01 X72.7779 Y42.9642
G01 X72.6878 Y43.0310
G01 X72.6833 Y43.0340
G01 X72.5871 Y43.0917
G01 X72.5823 Y43.0942
G01 X72.4809 Y43.1422
G01 X72.4759 Y43.1443
G01 X72.3703 Y43.1821
G01 X72.3652 Y43.1836
G01 X72.2564 Y43.2109
G01 X72.2511 Y43.2119
G01 X72.1401 Y43.2284
G01 X72.1347 Y43.2289
G01 X72.0227 Y43.2344
G01 X72.0173 Y43.2344
G01 X71.9053 Y43.2289
G01 X71.8999 Y43.2284
G01 X71.7889 Y43.2119
G01 X71.7836 Y43.2109
G01 X71.6748 Y43.1836
G01 X71.6697 Y43.1821
G01 X71.5641 Y43.1443
G01 X71.5591 Y43.1422
G01 X71.4577 Y43.0942
G01 X71.4529 Y43.0917
G01 X71.3567 Y43.0340
G01 X71.3522 Y43.0310
G01 X71.2621 Y42.9642
G01 X71.2580 Y42.9608
G01 X71.1748 Y42.8855
G01 X71.1710 Y42.8816
G01 X71.0957 Y42.7985
G01 X71.0923 Y42.7944
G01 X71.0255 Y42.7043
G01 X71.0225 Y42.6998
G01 X70.9648 Y42.6036
G01 X70.9622 Y42.5988
G01 X70.9143 Y42.4974
G01 X70.9122 Y42.4924
G01 X70.8744 Y42.3868
G01 X70.8729 Y42.3816
G01 X70.8456 Y42.2728
G01 X70.8446 Y42.2675
G01 X70.8281 Y42.1566
G01 X70.8276 Y42.1512
G01 X70.8221 Y42.0392
G01 X70.8221 Y42.0338
G01 X70.8276 Y41.9218
G01 X70.8281 Y41.9164
G01 X70.8446 Y41.8054
G01 X70.8456 Y41.8001
G01 X70.8729 Y41.6913
G01 X70.8744 Y41.6862
G01 X70.9122 Y41.5806
G01 X70.9143 Y41.5756
G01 X70.9622 Y41.4742
G01 X70.9648 Y41.4694
G01 X71.0225 Y41.3732
G01 X71.0255 Y41.3687
G01 X71.0923 Y41.2786
G01 X71.0957 Y41.2744
G01 X71.1710 Y41.1913
G01 X71.2026 Y41.1623
G01 X71.2026 Y40.6174
G01 X47.7351 Y40.6174
G01 X47.3374 Y41.0151
G01 X47.3374 Y41.2623
G01 X47.3690 Y41.2913
G01 X47.4443 Y41.3744
G01 X47.4477 Y41.3786
G01 X47.5145 Y41.4687
G01 X47.5175 Y41.4732
G01 X47.5752 Y41.5694
G01 X47.5778 Y41.5742
G01 X47.6257 Y41.6756
G01 X47.6278 Y41.6806
G01 X47.6656 Y41.7862
G01 X47.6671 Y41.7913
G01 X47.6944 Y41.9001
G01 X47.6954 Y41.9054
G01 X47.7119 Y42.0164
G01 X47.7124 Y42.0218
G01 X47.7179 Y42.1338
G01 X47.7179 Y42.1392
G01 X47.7124 Y42.2512
G01 X47.7119 Y42.2566
G01 X47.6954 Y42.3675
G01 X47.6944 Y42.3728
G01 X47.6671 Y42.4816
G01 X47.6656 Y42.4868
G01 X47.6278 Y42.5924
G01 X47.6257 Y42.5974
G01 X47.5778 Y42.6988
G01 X47.5752 Y42.7036
G01 X47.5175 Y42.7998
G01 X47.5145 Y42.8043
G01 X47.4477 Y42.8944
G01 X47.4443 Y42.8985
G01 X47.3690 Y42.9816
G01 X47.3652 Y42.9855
G01 X47.2820 Y43.0608
G01 X47.2779 Y43.0642
G01 X47.1878 Y43.1310
G01 X47.1833 Y43.1340
G01 X47.0871 Y43.1917
G01 X47.0823 Y43.1942
G01 X46.9809 Y43.2422
G01 X46.9759 Y43.2443
G01 X46.8703 Y43.2821
G01 X46.8652 Y43.2836
G01 X46.7564 Y43.3109
G01 X46.7511 Y43.3119
G01 X46.6401 Y43.3284
G01 X46.6347 Y43.3289
G01 X46.5227 Y43.3344
G01 X46.5173 Y43.3344
G01 X46.4053 Y43.3289
G01 X46.3999 Y43.3284
G01 X46.2889 Y43.3119
G01 X46.2836 Y43.3109
G01 X46.1748 Y43.2836
G01 X46.1697 Y43.2821
G01 X46.0641 Y43.2443
G01 X46.0591 Y43.2422
G01 X45.9577 Y43.1942
G01 X45.9529 Y43.1917
G01 X45.8567 Y43.1340
G01 X45.8522 Y43.1310
G01 X45.7621 Y43.0642
G01 X45.7580 Y43.0608
G01 X45.6748 Y42.9855
G01 X45.6710 Y42.9816
G01 X45.5957 Y42.8985
G01 X45.5923 Y42.8944
G01 X45.5352 Y42.8174
G01 X33.2112 Y42.8174
G01 X33.1338 Y42.8136
G01 X33.1284 Y42.8131
G01 X33.0491 Y42.8011
G01 X32.9713 Y42.7813
G01 X32.9009 Y42.7561
G01 X32.8283 Y42.7221
G01 X32.8235 Y42.7195
G01 X32.7549 Y42.6781
G01 X32.6906 Y42.6301
G01 X32.6332 Y42.5780
G01 X13.9926 Y23.9374
G01 X6.9742 Y23.9374
G01 X6.9452 Y23.9690
G01 X6.8620 Y24.0443
G01 X6.8579 Y24.0477
G01 X6.7678 Y24.1145
G01 X6.7633 Y24.1175
G01 X6.6671 Y24.1752
G01 X6.6623 Y24.1778
G01 X6.5609 Y24.2257
G01 X6.5559 Y24.2278
G01 X6.4503 Y24.2656
G01 X6.4452 Y24.2671
G01 X6.3364 Y24.2944
G01 X6.3311 Y24.2954
G01 X6.2201 Y24.3119
G01 X6.2147 Y24.3124
G01 X6.1027 Y24.3179
G01 X6.0973 Y24.3179
G01 X5.9853 Y24.3124
G01 X5.9799 Y24.3119
G01 X5.8689 Y24.2954
G01 X5.8636 Y24.2944
G01 X5.7548 Y24.2671
G01 X5.7497 Y24.2656
G01 X5.6441 Y24.2278
G01 X5.6391 Y24.2257
G01 X5.5377 Y24.1778
G01 X5.5329 Y24.1752
G01 X5.4367 Y24.1175
G01 X5.4322 Y24.1145
G01 X5.3421 Y24.0477
G01 X5.3380 Y24.0443
G01 X5.2548 Y23.9690
G01 X5.2510 Y23.9652
G01 X5.1757 Y23.8820
G01 X5.1723 Y23.8779
G01 X5.1055 Y23.7878
G01 X5.1025 Y23.7833
G01 X5.0448 Y23.6871
G01 X5.0422 Y23.6823
G01 X4.9943 Y23.5809
G01 X4.9922 Y23.5759
G01 X4.9544 Y23.4703
G01 X4.9529 Y23.4652
G01 X4.9256 Y23.3564
G01 X4.9246 Y23.3511
G01 X4.9081 Y23.2401
G01 X4.9076 Y23.2347
G01 X4.9021 Y23.1227
G01 X4.9021 Y23.1173
G01 X4.9076 Y23.0053
G01 X4.9081 Y22.9999
G00 Z3.0000
G00 X4.9081 Y25.5399
G01 F25.00
G01 Z-0.0187
G01 F45.00
G01 X4.9246 Y25.4289
G01 X4.9256 Y25.4236
G01 X4.9529 Y25.3148
G01 X4.9544 Y25.3097
G01 X4.9922 Y25.2041
G01 X4.9943 Y25.1991
G01 X5.0422 Y25.0977
G01 X5.0448 Y25.0929
G01 X5.1025 Y24.9967
G01 X5.1055 Y24.9922
G01 X5.1723 Y24.9021
G01 X5.1757 Y24.8980
G01 X5.2510 Y24.8148
G01 X5.2548 Y24.8110
G01 X5.3380 Y24.7357
G01 X5.3421 Y24.7323
G01 X5.4322 Y24.6655
G01 X5.4367 Y24.6625
G01 X5.5329 Y24.6048
G01 X5.5377 Y24.6022
G01 X5.6391 Y24.5543
G01 X5.6441 Y24.5522
G01 X5.7497 Y24.5144
G01 X5.7548 Y24.5129
G01 X5.8636 Y24.4856
G01 X5.8689 Y24.4846
G01 X5.9799 Y24.4681
G01 X5.9853 Y24.4676
G01 X6.0973 Y24.4621
G01 X6.1027 Y24.4621
G01 X6.2147 Y24.4676
G01 X6.2201 Y24.4681
G01 X6.3311 Y24.4846
G01 X6.3364 Y24.4856
G01 X6.4452 Y24.5129
G01 X6.4503 Y24.5144
G01 X6.5559 Y24.5522
G01 X6.5609 Y24.5543
G01 X6.6623 Y24.6022
G01 X6.6671 Y24.6048
G01 X6.7633 Y24.6625
G01 X6.7678 Y24.6655
G01 X6.8579 Y24.7323
G01 X6.8620 Y24.7357
G01 X6.9452 Y24.8110
G01 X6.9742 Y24.8426
G01 X13.7600 Y24.8426
G01 X13.8374 Y24.8464
G01 X13.9168 Y24.8579
G01 X13.9221 Y24.8589
G01 X13.9998 Y24.8787
G01 X14.0703 Y24.9039
G01 X14.1429 Y24.9379
G01 X14.2118 Y24.9789
G01 X14.2163 Y24.9819
G01 X14.2806 Y25.0299
G01 X14.3380 Y25.0820
G01 X16.9877 Y27.7318
G01 X17.0398 Y27.7891
G01 X17.0432 Y27.7933
G01 X17.0878 Y27.8534
G01 X17.1270 Y27.9182
G01 X28.9694 Y39.7607
G01 X29.0343 Y39.7999
G01 X29.0944 Y39.8444
G01 X29.0985 Y39.8479
G01 X29.1559 Y39.9000
G01 X35.7386 Y46.4826
G01 X37.6787 Y46.4826
G01 X37.7128 Y46.4744
G01 X37.7868 Y46.4634
G01 X37.7922 Y46.4628
G01 X37.8696 Y46.4591
G01 X49.0026 Y46.4591
G01 X49.0026 Y42.9506
G01 X48.9710 Y42.9216
G01 X48.8957 Y42.8385
G01 X48.8923 Y42.8344
G01 X48.8255 Y42.7443
G01 X48.8225 Y42.7398
G01 X48.7648 Y42.6436
G01 X48.7622 Y42.6388
G01 X48.7143 Y42.5374
G01 X48.7122 Y42.5324
G01 X48.6744 Y42.4268
G01 X48.6729 Y42.4216
G01 X48.6456 Y42.3128
G01 X48.6446 Y42.3075
G01 X48.6281 Y42.1966
G01 X48.6276 Y42.1912
G01 X48.6221 Y42.0792
G01 X48.6221 Y42.0738
G01 X48.6276 Y41.9618
G01 X48.6281 Y41.9564
G01 X48.6446 Y41.8454
G01 X48.6456 Y41.8401
G01 X48.6729 Y41.7313
G01 X48.6744 Y41.7262
G01 X48.7122 Y41.6206
G01 X48.7143 Y41.6156
G01 X48.7622 Y41.5142
G01 X48.7648 Y41.5094
G01 X48.8225 Y41.4132
G01 X48.8255 Y41.4087
G01 X48.8923 Y41.3186
G01 X48.8957 Y41.3144
G01 X48.9710 Y41.2313
G01 X48.9748 Y41.2275
G01 X49.0580 Y41.1522
G01 X49.0621 Y41.1488
G01 X49.1522 Y41.0819
G01 X49.1567 Y41.0789
G01 X49.2529 Y41.0213
G01 X49.2577 Y41.0187
G01 X49.3591 Y40.9708
G01 X49.3641 Y40.9687
G01 X49.4697 Y40.9309
G01 X49.4748 Y40.9294
G01 X49.5836 Y40.9021
G01 X49.5889 Y40.9010
G01 X49.6999 Y40.8846
G01 X49.7053 Y40.8841
G01 X49.8173 Y40.8786
G01 X49.8227 Y40.8786
G01 X49.9347 Y40.8841
G01 X49.9401 Y40.8846
G01 X50.0511 Y40.9010
G01 X50.0564 Y40.9021
G01 X50.1652 Y40.9294
G01 X50.1703 Y40.9309
G01 X50.2759 Y40.9687
G01 X50.2809 Y40.9708
G01 X50.3823 Y41.0187
G01 X50.3871 Y41.0213
G01 X50.4833 Y41.0789
G01 X50.4878 Y41.0819
G01 X50.5779 Y41.1488
G01 X50.5820 Y41.1522
G01 X50.6652 Y41.2275
G01 X50.6690 Y41.2313
G01 X50.7443 Y41.3144
G01 X50.7477 Y41.3186
G01 X50.8145 Y41.4087
G01 X50.8175 Y41.4132
G01 X50.8752 Y41.5094
G01 X50.8778 Y41.5142
G01 X50.9257 Y41.6156
G01 X50.9278 Y41.6206
G01 X50.9656 Y41.7262
G01 X50.9671 Y41.7313
G01 X50.9944 Y41.8401
G01 X50.9954 Y41.8454
G01 X51.0119 Y41.9564
G01 X51.0124 Y41.9618
G01 X51.0179 Y42.0738
G01 X51.0179 Y42.0792
G01 X51.0124 Y42.1912
G01 X51.0119 Y42.1966
G01 X50.9954 Y42.3075
G01 X50.9944 Y42.3128
G01 X50.9671 Y42.4216
G01 X50.9656 Y42.4268
G01 X50.9278 Y42.5324
G01 X50.9257 Y42.5374
G01 X50.8778 Y42.6388
G01 X50.8752 Y42.6436
G01 X50.8175 Y42.7398
G01 X50.8145 Y42.7443
G01 X50.7477 Y42.8344
G01 X50.7443 Y42.8385
G01 X50.6690 Y42.9216
G01 X50.6374 Y42.9506
G01 X50.6374 Y46.4591
G01 X74.0026 Y46.4591
G01 X74.0026 Y42.8506
G01 X73.9710 Y42.8216
G01 X73.8957 Y42.7385
G01 X73.8923 Y42.7344
G01 X73.8255 Y42.6443
G01 X73.8225 Y42.6398
G01 X73.7648 Y42.5436
G01 X73.7622 Y42.5388
G01 X73.7143 Y42.4374
G01 X73.7122 Y42.4324
G01 X73.6744 Y42.3268
G01 X73.6729 Y42.3216
G01 X73.6456 Y42.2128
G01 X73.6446 Y42.2075
G01 X73.6281 Y42.0966
G01 X73.6276 Y42.0912
G01 X73.6221 Y41.9792
G01 X73.6221 Y41.9738
G01 X73.6276 Y41.8618
G01 X73.6281 Y41.8564
G01 X73.6446 Y41.7454
G01 X73.6456 Y41.7401
G01 X73.6729 Y41.6313
G01 X73.6744 Y41.6262
G01 X73.7122 Y41.5206
G01 X73.7143 Y41.5156
G01 X73.7622 Y41.4142
G01 X73.7648 Y41.4094
G01 X73.8225 Y41.3132
G01 X73.8255 Y41.3087
G01 X73.8923 Y41.2186
G01 X73.8957 Y41.2144
G01 X73.9710 Y41.1313
G01 X73.9748 Y41.1275
G01 X74.0580 Y41.0522
G01 X74.0621 Y41.0488
G01 X74.1522 Y40.9819
G01 X74.1567 Y40.9789
G01 X74.2529 Y40.9213
G01 X74.2577 Y40.9187
G01 X74.3591 Y40.8708
G01 X74.3641 Y40.8687
G01 X74.4697 Y40.8309
G01 X74.4748 Y40.8294
G01 X74.5836 Y40.8021
G01 X74.5889 Y40.8010
G01 X74.6999 Y40.7846
G01 X74.7053 Y40.7841
G01 X74.8173 Y40.7786
G01 X74.8227 Y40.7786
G01 X74.9347 Y40.7841
G01 X74.9401 Y40.7846
G01 X75.0511 Y40.8010
G01 X75.0564 Y40.8021
G01 X75.1652 Y40.8294
G01 X75.1703 Y40.8309
G01 X75.2759 Y40.8687
G01 X75.2809 Y40.8708
G01 X75.3823 Y40.9187
G01 X75.3871 Y40.9213
G01 X75.4833 Y40.9789
G01 X75.4878 Y40.9819
G01 X75.5779 Y41.0488
G01 X75.5820 Y41.0522
G01 X75.6652 Y41.1275
G01 X75.6690 Y41.1313
G01 X75.7443 Y41.2144
G01 X75.7477 Y41.2186
G01 X75.8145 Y41.3087
G01 X75.8175 Y41.3132
G01 X75.8752 Y41.4094
G01 X75.8778 Y41.4142
G01 X75.9257 Y41.5156
G01 X75.9278 Y41.5206
G01 X75.9656 Y41.6262
G01 X75.9671 Y41.6313
G01 X75.9944 Y41.7401
G01 X75.9954 Y41.7454
G01 X76.0119 Y41.8564
G01 X76.0124 Y41.8618
G01 X76.0179 Y41.9738
G01 X76.0179 Y41.9792
G01 X76.0124 Y42.0912
G01 X76.0119 Y42.0966
G01 X75.9954 Y42.2075
G01 X75.9944 Y42.2128
G01 X75.9671 Y42.3216
G01 X75.9656 Y42.3268
G01 X75.9278 Y42.4324
G01 X75.9257 Y42.4374
G01 X75.8778 Y42.5388
G01 X75.8752 Y42.5436
G01 X75.8175 Y42.6398
G01 X75.8145 Y42.6443
G01 X75.7477 Y42.7344
G01 X75.7443 Y42.7385
G01 X75.6690 Y42.8216
G01 X75.6374 Y42.8506
G01 X75.6374 Y46.4591
G01 X99.3437 Y46.4591
G01 X99.3437 Y44.8129
G01 X99.3371 Y44.7936
G01 X99.3179 Y44.7157
G01 X99.3064 Y44.6363
G01 X99.3026 Y44.5589
G01 X99.3026 Y42.9506
G01 X99.2710 Y42.9216
G01 X99.1957 Y42.8385
G01 X99.1923 Y42.8344
G01 X99.1255 Y42.7443
G01 X99.1225 Y42.7398
G01 X99.0648 Y42.6436
G01 X99.0622 Y42.6388
G01 X99.0143 Y42.5374
G01 X99.0122 Y42.5324
G01 X98.9744 Y42.4268
G01 X98.9729 Y42.4216
G01 X98.9456 Y42.3128
G01 X98.9446 Y42.3075
G01 X98.9281 Y42.1966
G01 X98.9276 Y42.1912
G01 X98.9221 Y42.0792
G01 X98.9221 Y42.0738
G01 X98.9276 Y41.9618
G01 X98.9281 Y41.9564
G01 X98.9446 Y41.8454
G01 X98.9456 Y41.8401
G01 X98.9729 Y41.7313
G01 X98.9744 Y41.7262
G01 X99.0122 Y41.6206
G01 X99.0143 Y41.6156
G01 X99.0622 Y41.5142
G01 X99.0648 Y41.5094
G01 X99.1225 Y41.4132
G01 X99.1255 Y41.4087
G01 X99.1923 Y41.3186
G01 X99.1957 Y41.3144
G01 X99.2710 Y41.2313
G01 X99.2748 Y41.2275
G01 X99.3580 Y41.1522
G01 X99.3621 Y41.1488
G01 X99.4522 Y41.0819
G01 X99.4567 Y41.0789
G01 X99.5529 Y41.0213
G01 X99.5577 Y41.0187
G01 X99.6591 Y40.9708
G01 X99.6641 Y40.9687
G01 X99.7697 Y40.9309
G01 X99.7748 Y40.9294
G01 X99.8836 Y40.9021
G01 X99.8889 Y40.9010
G01 X99.9999 Y40.8846
G01 X100.0053 Y40.8841
G01 X100.1173 Y40.8786
G01 X100.1227 Y40.8786
G01 X100.2347 Y40.8841
G01 X100.2401 Y40.8846
G01 X100.3511 Y40.9010
G01 X100.3564 Y40.9021
G01 X100.4652 Y40.9294
G01 X100.4703 Y40.9309
G01 X100.5759 Y40.9687
G01 X100.5809 Y40.9708
G01 X100.6823 Y41.0187
G01 X100.6871 Y41.0213
G01 X100.7833 Y41.0789
G01 X100.7878 Y41.0819
G01 X100.8779 Y41.1488
G01 X100.8820 Y41.1522
G01 X100.9652 Y41.2275
G01 X100.9690 Y41.2313
G01 X101.0443 Y41.3144
G01 X101.0477 Y41.3186
G01 X101.1145 Y41.4087
G01 X101.1175 Y41.4132
G01 X101.1752 Y41.5094
G01 X101.1778 Y41.5142
G01 X101.2257 Y41.6156
G01 X101.2278 Y41.6206
G01 X101.2656 Y41.7262
G01 X101.2671 Y41.7313
G01 X101.2944 Y41.8401
G01 X101.2954 Y41.8454
G01 X101.3119 Y41.9564
G01 X101.3124 Y41.9618
G01 X101.3179 Y42.0738
G01 X101.3179 Y42.0792
G01 X101.3124 Y42.1912
G01 X101.3119 Y42.1966
G01 X101.2954 Y42.3075
G01 X101.2944 Y42.3128
G01 X101.2671 Y42.4216
G01 X101.2656 Y42.4268
G01 X101.2278 Y42.5324
G01 X101.2257 Y42.5374
G01 X101.1778 Y42.6388
G01 X101.1752 Y42.6436
G01 X101.1175 Y42.7398
G01 X101.1145 Y42.7443
G01 X101.0477 Y42.8344
G01 X101.0443 Y42.8385
G01 X100.9690 Y42.9216
G01 X100.9374 Y42.9506
G01 X100.9374 Y44.3460
G01 X100.9440 Y44.3653
G01 X100.9633 Y44.4432
G01 X100.9748 Y44.5226
G01 X100.9785 Y44.6000
G01 X100.9785 Y46.4591
G01 X121.6049 Y46.4591
G01 X123.8026 Y44.2614
G01 X123.8026 Y42.9506
G01 X123.7710 Y42.9216
G01 X123.6957 Y42.8385
G01 X123.6923 Y42.8344
G01 X123.6255 Y42.7443
G01 X123.6225 Y42.7398
G01 X123.5648 Y42.6436
G01 X123.5622 Y42.6388
G01 X123.5143 Y42.5374
G01 X123.5122 Y42.5324
G01 X123.4744 Y42.4268
G01 X123.4729 Y42.4216
G01 X123.4456 Y42.3128
G01 X123.4446 Y42.3075
G01 X123.4281 Y42.1966
G01 X123.4276 Y42.1912
G01 X123.4221 Y42.0792
G01 X123.4221 Y42.0738
G01 X123.4276 Y41.9618
G01 X123.4281 Y41.9564
G01 X123.4446 Y41.8454
G01 X123.4456 Y41.8401
G01 X123.4729 Y41.7313
G01 X123.4744 Y41.7262
G01 X123.5122 Y41.6206
G01 X123.5143 Y41.6156
G01 X123.5622 Y41.5142
G01 X123.5648 Y41.5094
G01 X123.6225 Y41.4132
G01 X123.6255 Y41.4087
G01 X123.6923 Y41.3186
G01 X123.6957 Y41.3144
G01 X123.7710 Y41.2313
G01 X123.7748 Y41.2275
G01 X123.8580 Y41.1522
G01 X123.8621 Y41.1488
G01 X123.9522 Y41.0819
G01 X123.9567 Y41.0789
G01 X124.0529 Y41.0213
G01 X124.0577 Y41.0187
G01 X124.1591 Y40.9708
G01 X124.1641 Y40.9687
G01 X124.2697 Y40.9309
G01 X124.2748 Y40.9294
G01 X124.3836 Y40.9021
G01 X124.3889 Y40.9010
G01 X124.4999 Y40.8846
G01 X124.5053 Y40.8841
G01 X124.6173 Y40.8786
G01 X124.6227 Y40.8786
G01 X124.7347 Y40.8841
G01 X124.7401 Y40.8846
G01 X124.8511 Y40.9010
G01 X124.8564 Y40.9021
G01 X124.9652 Y40.9294
G01 X124.9703 Y40.9309
G01 X125.0759 Y40.9687
G01 X125.0809 Y40.9708
G01 X125.1823 Y41.0187
G01 X125.1871 Y41.0213
G01 X125.2833 Y41.0789
G01 X125.2878 Y41.0819
G01 X125.3779 Y41.1488
G01 X125.3820 Y41.1522
G01 X125.4652 Y41.2275
G01 X125.4690 Y41.2313
G01 X125.5443 Y41.3144
G01 X125.5477 Y41.3186
G01 X125.6145 Y41.4087
G01 X125.6175 Y41.4132
G01 X125.6752 Y41.5094
G01 X125.6778 Y41.5142
G01 X125.7257 Y41.6156
G01 X125.7278 Y41.6206
G01 X125.7656 Y41.7262
G01 X125.7671 Y41.7313
G01 X125.7944 Y41.8401
G01 X125.7954 Y41.8454
G01 X125.8119 Y41.9564
G01 X125.8124 Y41.9618
G01 X125.8179 Y42.0738
G01 X125.8179 Y42.0792
G01 X125.8124 Y42.1912
G01 X125.8119 Y42.1966
G01 X125.7954 Y42.3075
G01 X125.7944 Y42.3128
G01 X125.7671 Y42.4216
G01 X125.7656 Y42.4268
G01 X125.7278 Y42.5324
G01 X125.7257 Y42.5374
G01 X125.6778 Y42.6388
G01 X125.6752 Y42.6436
G01 X125.6175 Y42.7398
G01 X125.6145 Y42.7443
G01 X125.5477 Y42.8344
G01 X125.5443 Y42.8385
G01 X125.4690 Y42.9216
G01 X125.4374 Y42.9506
G01 X125.4373 Y44.6027
G01 X125.4336 Y44.6774
G01 X125.4221 Y44.7568
G01 X125.4029 Y44.8347
G01 X125.3761 Y44.9103
G01 X125.3741 Y44.9153
G01 X125.3395 Y44.9877
G01 X125.2981 Y45.0563
G01 X125.2535 Y45.1164
G01 X125.2501 Y45.1206
G01 X125.1980 Y45.1780
G01 X122.5215 Y47.8545
G01 X122.4641 Y47.9066
G01 X122.4599 Y47.9100
G01 X122.3953 Y47.9576
G01 X122.3264 Y47.9986
G01 X122.2588 Y48.0306
G01 X122.2538 Y48.0326
G01 X122.1782 Y48.0594
G01 X122.1003 Y48.0786
G01 X122.0263 Y48.0896
G01 X122.0209 Y48.0901
G01 X121.9435 Y48.0939
G01 X113.1174 Y48.0939
G01 X113.1174 Y49.0258
G01 X113.1490 Y49.0548
G01 X113.2243 Y49.1380
G01 X113.2277 Y49.1421
G01 X113.2945 Y49.2322
G01 X113.2975 Y49.2367
G01 X113.3552 Y49.3329
G01 X113.3578 Y49.3377
G01 X113.4057 Y49.4391
G01 X113.4078 Y49.4441
G01 X113.4456 Y49.5497
G01 X113.4471 Y49.5548
G01 X113.4744 Y49.6636
G01 X113.4754 Y49.6689
G01 X113.4919 Y49.7799
G01 X113.4924 Y49.7853
G01 X113.4979 Y49.8973
G01 X113.4979 Y49.9027
G01 X113.4924 Y50.0147
G01 X113.4919 Y50.0201
G01 X113.4754 Y50.1311
G01 X113.4744 Y50.1364
G01 X113.4471 Y50.2452
G01 X113.4456 Y50.2503
G01 X113.4078 Y50.3559
G01 X113.4057 Y50.3609
G01 X113.3578 Y50.4623
G01 X113.3552 Y50.4671
G01 X113.2975 Y50.5633
G01 X113.2945 Y50.5678
G01 X113.2277 Y50.6579
G01 X113.2243 Y50.6620
G01 X113.1490 Y50.7452
G01 X113.1452 Y50.7490
G01 X113.0620 Y50.8243
G01 X113.0579 Y50.8277
G01 X112.9678 Y50.8945
G01 X112.9633 Y50.8975
G01 X112.8671 Y50.9552
G01 X112.8623 Y50.9578
G01 X112.7609 Y51.0057
G01 X112.7559 Y51.0078
G01 X112.6503 Y51.0456
G01 X112.6452 Y51.0471
G01 X112.5364 Y51.0744
G01 X112.5311 Y51.0754
G01 X112.4201 Y51.0919
G01 X112.4147 Y51.0924
G01 X112.3027 Y51.0979
G01 X112.2973 Y51.0979
G01 X112.1853 Y51.0924
G01 X112.1799 Y51.0919
G01 X112.0689 Y51.0754
G01 X112.0636 Y51.0744
G01 X111.9548 Y51.0471
G01 X111.9497 Y51.0456
G01 X111.8441 Y51.0078
G01 X111.8391 Y51.0057
G01 X111.7377 Y50.9578
G01 X111.7329 Y50.9552
G01 X111.6367 Y50.8975
G01 X111.6322 Y50.8945
G01 X111.5421 Y50.8277
G01 X111.5380 Y50.8243
G01 X111.4548 Y50.7490
G01 X111.4510 Y50.7452
G01 X111.3757 Y50.6620
G01 X111.3723 Y50.6579
G01 X111.3055 Y50.5678
G01 X111.3025 Y50.5633
G01 X111.2448 Y50.4671
G01 X111.2422 Y50.4623
G01 X111.1943 Y50.3609
G01 X111.1922 Y50.3559
G01 X111.1544 Y50.2503
G01 X111.1529 Y50.2452
G01 X111.1256 Y50.1364
G01 X111.1246 Y50.1311
G01 X111.1081 Y50.0201
G01 X111.1076 Y50.0147
G01 X111.1021 Y49.9027
G01 X111.1021 Y49.8973
G01 X111.1076 Y49.7853
G01 X111.1081 Y49.7799
G01 X111.1246 Y49.6689
G01 X111.1256 Y49.6636
G01 X111.1529 Y49.5548
G01 X111.1544 Y49.5497
G01 X111.1922 Y49.4441
G01 X111.1943 Y49.4391
G01 X111.2422 Y49.3377
G01 X111.2448 Y49.3329
G01 X111.3025 Y49.2367
G01 X111.3055 Y49.2322
G01 X111.3723 Y49.1421
G01 X111.3757 Y49.1380
G01 X111.4510 Y49.0548
G01 X111.4826 Y49.0258
G01 X111.4826 Y48.0939
G01 X88.0174 Y48.0939
G01 X88.0174 Y49.1258
G01 X88.0490 Y49.1548
G01 X88.1243 Y49.2380
G01 X88.1277 Y49.2421
G01 X88.1945 Y49.3322
G01 X88.1975 Y49.3367
G01 X88.2552 Y49.4329
G01 X88.2578 Y49.4377
G01 X88.3057 Y49.5391
G01 X88.3078 Y49.5441
G01 X88.3456 Y49.6497
G01 X88.3471 Y49.6548
G01 X88.3744 Y49.7636
G01 X88.3754 Y49.7689
G01 X88.3919 Y49.8799
G01 X88.3924 Y49.8853
G01 X88.3979 Y49.9973
G01 X88.3979 Y50.0027
G01 X88.3924 Y50.1147
G01 X88.3919 Y50.1201
G01 X88.3754 Y50.2311
G01 X88.3744 Y50.2364
G01 X88.3471 Y50.3452
G01 X88.3456 Y50.3503
G01 X88.3078 Y50.4559
G01 X88.3057 Y50.4609
G01 X88.2578 Y50.5623
G01 X88.2552 Y50.5671
G01 X88.1975 Y50.6633
G01 X88.1945 Y50.6678
G01 X88.1277 Y50.7579
G01 X88.1243 Y50.7620
G01 X88.0490 Y50.8452
G01 X88.0452 Y50.8490
G01 X87.9620 Y50.9243
G01 X87.9579 Y50.9277
G01 X87.8678 Y50.9945
G01 X87.8633 Y50.9975
G01 X87.7671 Y51.0552
G01 X87.7623 Y51.0578
G01 X87.6609 Y51.1057
G01 X87.6559 Y51.1078
G01 X87.5503 Y51.1456
G01 X87.5452 Y51.1471
G01 X87.4364 Y51.1744
G01 X87.4311 Y51.1754
G01 X87.3201 Y51.1919
G01 X87.3147 Y51.1924
G01 X87.2027 Y51.1979
G01 X87.1973 Y51.1979
G01 X87.0853 Y51.1924
G01 X87.0799 Y51.1919
G01 X86.9689 Y51.1754
G01 X86.9636 Y51.1744
G01 X86.8548 Y51.1471
G01 X86.8497 Y51.1456
G01 X86.7441 Y51.1078
G01 X86.7391 Y51.1057
G01 X86.6377 Y51.0578
G01 X86.6329 Y51.0552
G01 X86.5367 Y50.9975
G01 X86.5322 Y50.9945
G01 X86.4421 Y50.9277
G01 X86.4380 Y50.9243
G01 X86.3548 Y50.8490
G01 X86.3510 Y50.8452
G01 X86.2757 Y50.7620
G01 X86.2723 Y50.7579
G01 X86.2055 Y50.6678
G01 X86.2025 Y50.6633
G01 X86.1448 Y50.5671
G01 X86.1422 Y50.5623
G01 X86.0943 Y50.4609
G01 X86.0922 Y50.4559
G01 X86.0544 Y50.3503
G01 X86.0529 Y50.3452
G01 X86.0256 Y50.2364
G01 X86.0246 Y50.2311
G01 X86.0081 Y50.1201
G01 X86.0076 Y50.1147
G01 X86.0021 Y50.0027
G01 X86.0021 Y49.9973
G01 X86.0076 Y49.8853
G01 X86.0081 Y49.8799
G01 X86.0246 Y49.7689
G01 X86.0256 Y49.7636
G01 X86.0529 Y49.6548
G01 X86.0544 Y49.6497
G01 X86.0922 Y49.5441
G01 X86.0943 Y49.5391
G01 X86.1422 Y49.4377
G01 X86.1448 Y49.4329
G01 X86.2025 Y49.3367
G01 X86.2055 Y49.3322
G01 X86.2723 Y49.2421
G01 X86.2757 Y49.2380
G01 X86.3510 Y49.1548
G01 X86.3826 Y49.1258
G01 X86.3826 Y48.0939
G01 X63.5174 Y48.0939
G01 X63.5174 Y48.9258
G01 X63.5490 Y48.9548
G01 X63.6243 Y49.0380
G01 X63.6277 Y49.0421
G01 X63.6945 Y49.1322
G01 X63.6975 Y49.1367
G01 X63.7552 Y49.2329
G01 X63.7578 Y49.2377
G01 X63.8057 Y49.3391
G01 X63.8078 Y49.3441
G01 X63.8456 Y49.4497
G01 X63.8471 Y49.4548
G01 X63.8744 Y49.5636
G01 X63.8754 Y49.5689
G01 X63.8919 Y49.6799
G01 X63.8924 Y49.6853
G01 X63.8979 Y49.7973
G01 X63.8979 Y49.8027
G01 X63.8924 Y49.9147
G01 X63.8919 Y49.9201
G01 X63.8754 Y50.0311
G01 X63.8744 Y50.0364
G01 X63.8471 Y50.1452
G01 X63.8456 Y50.1503
G01 X63.8078 Y50.2559
G01 X63.8057 Y50.2609
G01 X63.7578 Y50.3623
G01 X63.7552 Y50.3671
G01 X63.6975 Y50.4633
G01 X63.6945 Y50.4678
G01 X63.6277 Y50.5579
G01 X63.6243 Y50.5620
G01 X63.5490 Y50.6452
G01 X63.5452 Y50.6490
G01 X63.4620 Y50.7243
G01 X63.4579 Y50.7277
G01 X63.3678 Y50.7945
G01 X63.3633 Y50.7975
G01 X63.2671 Y50.8552
G01 X63.2623 Y50.8578
G01 X63.1609 Y50.9057
G01 X63.1559 Y50.9078
G01 X63.0503 Y50.9456
G01 X63.0452 Y50.9471
G01 X62.9364 Y50.9744
G01 X62.9311 Y50.9754
G01 X62.8201 Y50.9919
G01 X62.8147 Y50.9924
G01 X62.7027 Y50.9979
G01 X62.6973 Y50.9979
G01 X62.5853 Y50.9924
G01 X62.5799 Y50.9919
G01 X62.4689 Y50.9754
G01 X62.4636 Y50.9744
G01 X62.3548 Y50.9471
G01 X62.3497 Y50.9456
G01 X62.2441 Y50.9078
G01 X62.2391 Y50.9057
G01 X62.1377 Y50.8578
G01 X62.1329 Y50.8552
G01 X62.0367 Y50.7975
G01 X62.0322 Y50.7945
G01 X61.9421 Y50.7277
G01 X61.9380 Y50.7243
G01 X61.8548 Y50.6490
G01 X61.8510 Y50.6452
G01 X61.7757 Y50.5620
G01 X61.7723 Y50.5579
G01 X61.7055 Y50.4678
G01 X61.7025 Y50.4633
G01 X61.6448 Y50.3671
G01 X61.6422 Y50.3623
G01 X61.5943 Y50.2609
G01 X61.5922 Y50.2559
G01 X61.5544 Y50.1503
G01 X61.5529 Y50.1452
G01 X61.5256 Y50.0364
G01 X61.5246 Y50.0311
G01 X61.5081 Y49.9201
G01 X61.5076 Y49.9147
G01 X61.5021 Y49.8027
G01 X61.5021 Y49.7973
G01 X61.5076 Y49.6853
G01 X61.5081 Y49.6799
G01 X61.5246 Y49.5689
G01 X61.5256 Y49.5636
G01 X61.5529 Y49.4548
G01 X61.5544 Y49.4497
G01 X61.5922 Y49.3441
G01 X61.5943 Y49.3391
G01 X61.6422 Y49.2377
G01 X61.6448 Y49.2329
G01 X61.7025 Y49.1367
G01 X61.7055 Y49.1322
G01 X61.7723 Y49.0421
G01 X61.7757 Y49.0380
G01 X61.8510 Y48.9548
G01 X61.8826 Y48.9258
G01 X61.8826 Y48.0939
G01 X39.1563 Y48.0939
G01 X39.1222 Y48.1021
G01 X39.0429 Y48.1136
G01 X38.9681 Y48.1173
G01 X38.9174 Y48.1174
G01 X38.9174 Y48.6658
G01 X38.9490 Y48.6948
G01 X39.0243 Y48.7780
G01 X39.0277 Y48.7821
G01 X39.0945 Y48.8722
G01 X39.0975 Y48.8767
G01 X39.1552 Y48.9729
G01 X39.1578 Y48.9777
G01 X39.2057 Y49.0791
G01 X39.2078 Y49.0841
G01 X39.2456 Y49.1897
G01 X39.2471 Y49.1948
G01 X39.2744 Y49.3036
G01 X39.2754 Y49.3089
G01 X39.2919 Y49.4199
G01 X39.2924 Y49.4253
G01 X39.2979 Y49.5373
G01 X39.2979 Y49.5427
G01 X39.2924 Y49.6547
G01 X39.2919 Y49.6601
G01 X39.2754 Y49.7711
G01 X39.2744 Y49.7764
G01 X39.2471 Y49.8852
G01 X39.2456 Y49.8903
G01 X39.2078 Y49.9959
G01 X39.2057 Y50.0009
G01 X39.1578 Y50.1023
G01 X39.1552 Y50.1071
G01 X39.0975 Y50.2033
G01 X39.0945 Y50.2078
G01 X39.0277 Y50.2979
G01 X39.0243 Y50.3020
G01 X38.9490 Y50.3852
G01 X38.9452 Y50.3890
G01 X38.8620 Y50.4643
G01 X38.8579 Y50.4677
G01 X38.7678 Y50.5345
G01 X38.7633 Y50.5375
G01 X38.6671 Y50.5952
G01 X38.6623 Y50.5978
G01 X38.5609 Y50.6457
G01 X38.5559 Y50.6478
G01 X38.4503 Y50.6856
G01 X38.4452 Y50.6871
G01 X38.3364 Y50.7144
G01 X38.3311 Y50.7154
G01 X38.2201 Y50.7319
G01 X38.2147 Y50.7324
G01 X38.1027 Y50.7379
G01 X38.0973 Y50.7379
G01 X37.9853 Y50.7324
G01 X37.9799 Y50.7319
G01 X37.8689 Y50.7154
G01 X37.8636 Y50.7144
G01 X37.7548 Y50.6871
G01 X37.7497 Y50.6856
G01 X37.6441 Y50.6478
G01 X37.6391 Y50.6457
G01 X37.5377 Y50.5978
G01 X37.5329 Y50.5952
G01 X37.4367 Y50.5375
G01 X37.4322 Y50.5345
G01 X37.3421 Y50.4677
G01 X37.3380 Y50.4643
G01 X37.2548 Y50.3890
G01 X37.2510 Y50.3852
G01 X37.1757 Y50.3020
G01 X37.1723 Y50.2979
G01 X37.1055 Y50.2078
G01 X37.1025 Y50.2033
G01 X37.0448 Y50.1071
G01 X37.0422 Y50.1023
G01 X36.9943 Y50.0009
G01 X36.9922 Y49.9959
G01 X36.9544 Y49.8903
G01 X36.9529 Y49.8852
G01 X36.9256 Y49.7764
G01 X36.9246 Y49.7711
G01 X36.9081 Y49.6601
G01 X36.9076 Y49.6547
G01 X36.9021 Y49.5427
G01 X36.9021 Y49.5373
G01 X36.9076 Y49.4253
G01 X36.9081 Y49.4199
G01 X36.9246 Y49.3089
G01 X36.9256 Y49.3036
G01 X36.9529 Y49.1948
G01 X36.9544 Y49.1897
G01 X36.9922 Y49.0841
G01 X36.9943 Y49.0791
G01 X37.0422 Y48.9777
G01 X37.0448 Y48.9729
G01 X37.1025 Y48.8767
G01 X37.1055 Y48.8722
G01 X37.1723 Y48.7821
G01 X37.1757 Y48.7780
G01 X37.2510 Y48.6948
G01 X37.2826 Y48.6658
G01 X37.2826 Y48.1174
G01 X35.4000 Y48.1174
G01 X35.3226 Y48.1136
G01 X35.2432 Y48.1021
G01 X35.2379 Y48.1011
G01 X35.1602 Y48.0813
G01 X35.0847 Y48.0541
G01 X35.0171 Y48.0221
G01 X34.9482 Y47.9811
G01 X34.8836 Y47.9335
G01 X34.8240 Y47.8798
G01 X28.1392 Y41.1952
G01 X28.0744 Y41.1560
G01 X28.0143 Y41.1114
G01 X28.0101 Y41.1080
G01 X27.9527 Y41.0559
G01 X15.8318 Y28.9349
G01 X15.7796 Y28.8775
G01 X15.7762 Y28.8734
G01 X15.7317 Y28.8133
G01 X15.6925 Y28.7484
G01 X13.4214 Y26.4774
G01 X6.9742 Y26.4774
G01 X6.9452 Y26.5090
G01 X6.8620 Y26.5843
G01 X6.8579 Y26.5877
G01 X6.7678 Y26.6545
G01 X6.7633 Y26.6575
G01 X6.6671 Y26.7152
G01 X6.6623 Y26.7178
