(G-CODE GENERATED BY FLATCAM v8.991 - www.flatcam.org - Version Date: 2019/12/27)

(Name: huecos)
(Type: G-code from Excellon)
(Units: MM)

(Created on Monday, 10 April 2023 at 16:49)

(Feedrate: 40.0 mm/min)
(Feedrate rapids 1500.0 mm/min)

(Z_Cut: -2.0 mm)
(Z_Move: 2.0 mm)
(Z Toolchange: 15.0 mm)
(X,Y Toolchange: 0.0000, 0.0000 mm)
(Z Start: None mm)
(Z End: 10.0 mm)
(Steps per circle: 64)
(Preprocessor Excellon: default)

(X range:    5.5920 ...  130.1080  mm)
(Y range:    3.8680 ...   88.0080  mm)

(Spindle Speed: None RPM)
G21
G90
G94




G01 F40.00
G00 Z2.0000

M03
G00 X6.1000 Y20.5800
G01 Z-2.0000
G01 Z0
G00 Z2.0000
G00 X6.1000 Y17.9800
G01 Z-2.0000
G01 Z0
G00 Z2.0000
G00 X33.0200 Y30.3360
G01 Z-2.0000
G01 Z0
G00 Z2.0000
G00 X36.6200 Y29.0960
G01 Z-2.0000
G01 Z0
G00 Z2.0000
G00 X39.1600 Y29.0960
G01 Z-2.0000
G01 Z0
G00 Z2.0000
G00 X41.7000 Y29.0960
G01 Z-2.0000
G01 Z0
G00 Z2.0000
G00 X44.2400 Y29.0960
G01 Z-2.0000
G01 Z0
G00 Z2.0000
G00 X46.5200 Y31.9760
G01 Z-2.0000
G01 Z0
G00 Z2.0000
G00 X46.7800 Y29.0960
G01 Z-2.0000
G01 Z0
G00 Z2.0000
G00 X49.3200 Y29.0960
G01 Z-2.0000
G01 Z0
G00 Z2.0000
G00 X49.8200 Y31.9160
G01 Z-2.0000
G01 Z0
G00 Z2.0000
G00 X51.8600 Y29.0960
G01 Z-2.0000
G01 Z0
G00 Z2.0000
G00 X54.4000 Y29.0960
G01 Z-2.0000
G01 Z0
G00 Z2.0000
G00 X58.2200 Y31.5360
G01 Z-2.0000
G01 Z0
G00 Z2.0000
G00 X62.0200 Y29.0960
G01 Z-2.0000
G01 Z0
G00 Z2.0000
G00 X64.5600 Y29.0960
G01 Z-2.0000
G01 Z0
G00 Z2.0000
G00 X67.1000 Y29.0960
G01 Z-2.0000
G01 Z0
G00 Z2.0000
G00 X69.6400 Y29.0960
G01 Z-2.0000
G01 Z0
G00 Z2.0000
G00 X72.1800 Y29.0960
G01 Z-2.0000
G01 Z0
G00 Z2.0000
G00 X72.0200 Y31.8760
G01 Z-2.0000
G01 Z0
G00 Z2.0000
G00 X74.8200 Y31.8160
G01 Z-2.0000
G01 Z0
G00 Z2.0000
G00 X74.7200 Y29.0960
G01 Z-2.0000
G01 Z0
G00 Z2.0000
G00 X77.2600 Y29.0960
G01 Z-2.0000
G01 Z0
G00 Z2.0000
G00 X79.8000 Y29.0960
G01 Z-2.0000
G01 Z0
G00 Z2.0000
G00 X83.5200 Y31.7360
G01 Z-2.0000
G01 Z0
G00 Z2.0000
G00 X86.9200 Y29.1960
G01 Z-2.0000
G01 Z0
G00 Z2.0000
G00 X89.4600 Y29.1960
G01 Z-2.0000
G01 Z0
G00 Z2.0000
G00 X92.0000 Y29.1960
G01 Z-2.0000
G01 Z0
G00 Z2.0000
G00 X94.5400 Y29.1960
G01 Z-2.0000
G01 Z0
G00 Z2.0000
G00 X97.0800 Y29.1960
G01 Z-2.0000
G01 Z0
G00 Z2.0000
G00 X97.5200 Y31.8760
G01 Z-2.0000
G01 Z0
G00 Z2.0000
G00 X100.1200 Y31.9160
G01 Z-2.0000
G01 Z0
G00 Z2.0000
G00 X99.6200 Y29.1960
G01 Z-2.0000
G01 Z0
G00 Z2.0000
G00 X102.1600 Y29.1960
G01 Z-2.0000
G01 Z0
G00 Z2.0000
G00 X104.7000 Y29.1960
G01 Z-2.0000
G01 Z0
G00 Z2.0000
G00 X108.4200 Y31.9360
G01 Z-2.0000
G01 Z0
G00 Z2.0000
G00 X111.8200 Y29.1960
G01 Z-2.0000
G01 Z0
G00 Z2.0000
G00 X108.4200 Y21.7760
G01 Z-2.0000
G01 Z0
G00 Z2.0000
G00 X104.7000 Y21.5760
G01 Z-2.0000
G01 Z0
G00 Z2.0000
G00 X102.1600 Y21.5760
G01 Z-2.0000
G01 Z0
G00 Z2.0000
G00 X99.6200 Y21.5760
G01 Z-2.0000
G01 Z0
G00 Z2.0000
G00 X97.0800 Y21.5760
G01 Z-2.0000
G01 Z0
G00 Z2.0000
G00 X94.5400 Y21.5760
G01 Z-2.0000
G01 Z0
G00 Z2.0000
G00 X92.0000 Y21.5760
G01 Z-2.0000
G01 Z0
G00 Z2.0000
G00 X89.4600 Y21.5760
G01 Z-2.0000
G01 Z0
G00 Z2.0000
G00 X86.9200 Y21.5760
G01 Z-2.0000
G01 Z0
G00 Z2.0000
G00 X83.5200 Y21.5760
G01 Z-2.0000
G01 Z0
G00 Z2.0000
G00 X79.8000 Y21.4760
G01 Z-2.0000
G01 Z0
G00 Z2.0000
G00 X77.2600 Y21.4760
G01 Z-2.0000
G01 Z0
G00 Z2.0000
G00 X74.7200 Y21.4760
G01 Z-2.0000
G01 Z0
G00 Z2.0000
G00 X72.1800 Y21.4760
G01 Z-2.0000
G01 Z0
G00 Z2.0000
G00 X69.6400 Y21.4760
G01 Z-2.0000
G01 Z0
G00 Z2.0000
G00 X67.1000 Y21.4760
G01 Z-2.0000
G01 Z0
G00 Z2.0000
G00 X64.5600 Y21.4760
G01 Z-2.0000
G01 Z0
G00 Z2.0000
G00 X62.0200 Y21.4760
G01 Z-2.0000
G01 Z0
G00 Z2.0000
G00 X58.2200 Y21.3760
G01 Z-2.0000
G01 Z0
G00 Z2.0000
G00 X54.4000 Y21.4760
G01 Z-2.0000
G01 Z0
G00 Z2.0000
G00 X52.6200 Y18.8360
G01 Z-2.0000
G01 Z0
G00 Z2.0000
G00 X51.8600 Y21.4760
G01 Z-2.0000
G01 Z0
G00 Z2.0000
G00 X49.3200 Y21.4760
G01 Z-2.0000
G01 Z0
G00 Z2.0000
G00 X49.9200 Y18.9360
G01 Z-2.0000
G01 Z0
G00 Z2.0000
G00 X47.3200 Y18.9360
G01 Z-2.0000
G01 Z0
G00 Z2.0000
G00 X46.7800 Y21.4760
G01 Z-2.0000
G01 Z0
G00 Z2.0000
G00 X44.2400 Y21.4760
G01 Z-2.0000
G01 Z0
G00 Z2.0000
G00 X44.5200 Y18.9360
G01 Z-2.0000
G01 Z0
G00 Z2.0000
G00 X41.8200 Y18.9360
G01 Z-2.0000
G01 Z0
G00 Z2.0000
G00 X41.7000 Y21.4760
G01 Z-2.0000
G01 Z0
G00 Z2.0000
G00 X39.1600 Y21.4760
G01 Z-2.0000
G01 Z0
G00 Z2.0000
G00 X39.2200 Y18.9360
G01 Z-2.0000
G01 Z0
G00 Z2.0000
G00 X36.6200 Y18.8360
G01 Z-2.0000
G01 Z0
G00 Z2.0000
G00 X36.6200 Y21.4760
G01 Z-2.0000
G01 Z0
G00 Z2.0000
G00 X33.0200 Y20.1760
G01 Z-2.0000
G01 Z0
G00 Z2.0000
G00 X39.2200 Y8.7760
G01 Z-2.0000
G01 Z0
G00 Z2.0000
G00 X36.6200 Y8.6760
G01 Z-2.0000
G01 Z0
G00 Z2.0000
G00 X31.8800 Y4.5760
G01 Z-2.0000
G01 Z0
G00 Z2.0000
G00 X34.4200 Y4.5760
G01 Z-2.0000
G01 Z0
G00 Z2.0000
G00 X36.9600 Y4.5760
G01 Z-2.0000
G01 Z0
G00 Z2.0000
G00 X39.5000 Y4.5760
G01 Z-2.0000
G01 Z0
G00 Z2.0000
G00 X42.0400 Y4.5760
G01 Z-2.0000
G01 Z0
G00 Z2.0000
G00 X44.5800 Y4.5760
G01 Z-2.0000
G01 Z0
G00 Z2.0000
G00 X41.8200 Y8.7760
G01 Z-2.0000
G01 Z0
G00 Z2.0000
G00 X44.5200 Y8.7760
G01 Z-2.0000
G01 Z0
G00 Z2.0000
G00 X47.3200 Y8.7760
G01 Z-2.0000
G01 Z0
G00 Z2.0000
G00 X49.9200 Y8.7760
G01 Z-2.0000
G01 Z0
G00 Z2.0000
G00 X52.6200 Y8.6760
G01 Z-2.0000
G01 Z0
G00 Z2.0000
G00 X58.4200 Y4.4760
G01 Z-2.0000
G01 Z0
G00 Z2.0000
G00 X60.9600 Y4.4760
G01 Z-2.0000
G01 Z0
G00 Z2.0000
G00 X63.5000 Y4.4760
G01 Z-2.0000
G01 Z0
G00 Z2.0000
G00 X66.0400 Y4.4760
G01 Z-2.0000
G01 Z0
G00 Z2.0000
G00 X68.5800 Y4.4760
G01 Z-2.0000
G01 Z0
G00 Z2.0000
G00 X71.1200 Y4.4760
G01 Z-2.0000
G01 Z0
G00 Z2.0000
G00 X73.6600 Y4.4760
G01 Z-2.0000
G01 Z0
G00 Z2.0000
G00 X76.2000 Y4.4760
G01 Z-2.0000
G01 Z0
G00 Z2.0000
G00 X78.0200 Y9.0160
G01 Z-2.0000
G01 Z0
G00 Z2.0000
G00 X75.4200 Y8.9160
G01 Z-2.0000
G01 Z0
G00 Z2.0000
G00 X72.7200 Y9.0160
G01 Z-2.0000
G01 Z0
G00 Z2.0000
G00 X69.9200 Y9.0160
G01 Z-2.0000
G01 Z0
G00 Z2.0000
G00 X67.3200 Y9.0160
G01 Z-2.0000
G01 Z0
G00 Z2.0000
G00 X64.6200 Y8.9160
G01 Z-2.0000
G01 Z0
G00 Z2.0000
G00 X62.0200 Y8.9160
G01 Z-2.0000
G01 Z0
G00 Z2.0000
G00 X62.0200 Y19.0760
G01 Z-2.0000
G01 Z0
G00 Z2.0000
G00 X64.6200 Y19.0760
G01 Z-2.0000
G01 Z0
G00 Z2.0000
G00 X67.3200 Y19.1760
G01 Z-2.0000
G01 Z0
G00 Z2.0000
G00 X69.9200 Y19.1760
G01 Z-2.0000
G01 Z0
G00 Z2.0000
G00 X72.7200 Y19.1760
G01 Z-2.0000
G01 Z0
G00 Z2.0000
G00 X75.4200 Y19.0760
G01 Z-2.0000
G01 Z0
G00 Z2.0000
G00 X78.0200 Y19.1760
G01 Z-2.0000
G01 Z0
G00 Z2.0000
G00 X89.3200 Y19.2360
G01 Z-2.0000
G01 Z0
G00 Z2.0000
G00 X91.9200 Y19.1360
G01 Z-2.0000
G01 Z0
G00 Z2.0000
G00 X94.5200 Y19.1360
G01 Z-2.0000
G01 Z0
G00 Z2.0000
G00 X97.2200 Y19.1360
G01 Z-2.0000
G01 Z0
G00 Z2.0000
G00 X99.9200 Y19.1360
G01 Z-2.0000
G01 Z0
G00 Z2.0000
G00 X102.6200 Y19.1360
G01 Z-2.0000
G01 Z0
G00 Z2.0000
G00 X102.6200 Y8.9760
G01 Z-2.0000
G01 Z0
G00 Z2.0000
G00 X99.9200 Y8.9760
G01 Z-2.0000
G01 Z0
G00 Z2.0000
G00 X97.2200 Y8.9760
G01 Z-2.0000
G01 Z0
G00 Z2.0000
G00 X94.5200 Y8.9760
G01 Z-2.0000
G01 Z0
G00 Z2.0000
G00 X91.9200 Y8.9760
G01 Z-2.0000
G01 Z0
G00 Z2.0000
G00 X89.3200 Y9.0760
G01 Z-2.0000
G01 Z0
G00 Z2.0000
G00 X83.7400 Y4.3760
G01 Z-2.0000
G01 Z0
G00 Z2.0000
G00 X86.2800 Y4.3760
G01 Z-2.0000
G01 Z0
G00 Z2.0000
G00 X88.8200 Y4.3760
G01 Z-2.0000
G01 Z0
G00 Z2.0000
G00 X91.3600 Y4.3760
G01 Z-2.0000
G01 Z0
G00 Z2.0000
G00 X93.9000 Y4.3760
G01 Z-2.0000
G01 Z0
G00 Z2.0000
G00 X96.4400 Y4.3760
G01 Z-2.0000
G01 Z0
G00 Z2.0000
G00 X98.9800 Y4.3760
G01 Z-2.0000
G01 Z0
G00 Z2.0000
G00 X101.5200 Y4.3760
G01 Z-2.0000
G01 Z0
G00 Z2.0000
G00 X108.2200 Y4.3760
G01 Z-2.0000
G01 Z0
G00 Z2.0000
G00 X110.7600 Y4.3760
G01 Z-2.0000
G01 Z0
G00 Z2.0000
G00 X113.3000 Y4.3760
G01 Z-2.0000
G01 Z0
G00 Z2.0000
G00 X115.8400 Y4.3760
G01 Z-2.0000
G01 Z0
G00 Z2.0000
G00 X118.3800 Y4.3760
G01 Z-2.0000
G01 Z0
G00 Z2.0000
G00 X120.9200 Y4.3760
G01 Z-2.0000
G01 Z0
G00 Z2.0000
G00 X123.4600 Y4.3760
G01 Z-2.0000
G01 Z0
G00 Z2.0000
G00 X126.0000 Y4.3760
G01 Z-2.0000
G01 Z0
G00 Z2.0000
G00 X127.7200 Y9.0760
G01 Z-2.0000
G01 Z0
G00 Z2.0000
G00 X125.1200 Y9.0760
G01 Z-2.0000
G01 Z0
G00 Z2.0000
G00 X122.5200 Y8.9760
G01 Z-2.0000
G01 Z0
G00 Z2.0000
G00 X119.8200 Y8.9760
G01 Z-2.0000
G01 Z0
G00 Z2.0000
G00 X117.1200 Y8.9760
G01 Z-2.0000
G01 Z0
G00 Z2.0000
G00 X114.4200 Y8.9760
G01 Z-2.0000
G01 Z0
G00 Z2.0000
G00 X111.8200 Y9.0760
G01 Z-2.0000
G01 Z0
G00 Z2.0000
G00 X117.1200 Y19.1360
G01 Z-2.0000
G01 Z0
G00 Z2.0000
G00 X114.4200 Y19.1360
G01 Z-2.0000
G01 Z0
G00 Z2.0000
G00 X111.8200 Y19.2360
G01 Z-2.0000
G01 Z0
G00 Z2.0000
G00 X111.8200 Y21.5760
G01 Z-2.0000
G01 Z0
G00 Z2.0000
G00 X114.3600 Y21.5760
G01 Z-2.0000
G01 Z0
G00 Z2.0000
G00 X116.9000 Y21.5760
G01 Z-2.0000
G01 Z0
G00 Z2.0000
G00 X119.4400 Y21.5760
G01 Z-2.0000
G01 Z0
G00 Z2.0000
G00 X119.8200 Y19.1360
G01 Z-2.0000
G01 Z0
G00 Z2.0000
G00 X122.5200 Y19.1360
G01 Z-2.0000
G01 Z0
G00 Z2.0000
G00 X121.9800 Y21.5760
G01 Z-2.0000
G01 Z0
G00 Z2.0000
G00 X124.5200 Y21.5760
G01 Z-2.0000
G01 Z0
G00 Z2.0000
G00 X125.1200 Y19.2360
G01 Z-2.0000
G01 Z0
G00 Z2.0000
G00 X127.7200 Y19.2360
G01 Z-2.0000
G01 Z0
G00 Z2.0000
G00 X127.0600 Y21.5760
G01 Z-2.0000
G01 Z0
G00 Z2.0000
G00 X129.6000 Y21.5760
G01 Z-2.0000
G01 Z0
G00 Z2.0000
G00 X129.6000 Y29.1960
G01 Z-2.0000
G01 Z0
G00 Z2.0000
G00 X127.0600 Y29.1960
G01 Z-2.0000
G01 Z0
G00 Z2.0000
G00 X124.5200 Y29.1960
G01 Z-2.0000
G01 Z0
G00 Z2.0000
G00 X124.6200 Y31.9160
G01 Z-2.0000
G01 Z0
G00 Z2.0000
G00 X122.0200 Y31.8760
G01 Z-2.0000
G01 Z0
G00 Z2.0000
G00 X121.9800 Y29.1960
G01 Z-2.0000
G01 Z0
G00 Z2.0000
G00 X119.4400 Y29.1960
G01 Z-2.0000
G01 Z0
G00 Z2.0000
G00 X116.9000 Y29.1960
G01 Z-2.0000
G01 Z0
G00 Z2.0000
G00 X114.3600 Y29.1960
G01 Z-2.0000
G01 Z0
G00 Z2.0000
G00 X124.6200 Y42.0760
G01 Z-2.0000
G01 Z0
G00 Z2.0000
G00 X122.0200 Y42.0360
G01 Z-2.0000
G01 Z0
G00 Z2.0000
G00 X115.4000 Y49.8400
G01 Z-2.0000
G01 Z0
G00 Z2.0000
G00 X112.3000 Y49.9000
G01 Z-2.0000
G01 Z0
G00 Z2.0000
G00 X100.1200 Y42.0760
G01 Z-2.0000
G01 Z0
G00 Z2.0000
G00 X97.5200 Y42.0360
G01 Z-2.0000
G01 Z0
G00 Z2.0000
G00 X89.9000 Y49.8400
G01 Z-2.0000
G01 Z0
G00 Z2.0000
G00 X87.2000 Y50.0000
G01 Z-2.0000
G01 Z0
G00 Z2.0000
G00 X74.8200 Y41.9760
G01 Z-2.0000
G01 Z0
G00 Z2.0000
G00 X72.0200 Y42.0360
G01 Z-2.0000
G01 Z0
G00 Z2.0000
G00 X65.4000 Y49.8400
G01 Z-2.0000
G01 Z0
G00 Z2.0000
G00 X62.7000 Y49.8000
G01 Z-2.0000
G01 Z0
G00 Z2.0000
G00 X49.8200 Y42.0760
G01 Z-2.0000
G01 Z0
G00 Z2.0000
G00 X46.5200 Y42.1360
G01 Z-2.0000
G01 Z0
G00 Z2.0000
G00 X40.8000 Y49.6400
G01 Z-2.0000
G01 Z0
G00 Z2.0000
G00 X38.1000 Y49.5400
G01 Z-2.0000
G01 Z0
G00 Z2.0000
G00 X40.8000 Y59.8000
G01 Z-2.0000
G01 Z0
G00 Z2.0000
G00 X38.1000 Y59.7000
G01 Z-2.0000
G01 Z0
G00 Z2.0000
G00 X37.8000 Y62.6800
G01 Z-2.0000
G01 Z0
G00 Z2.0000
G00 X40.3400 Y62.6800
G01 Z-2.0000
G01 Z0
G00 Z2.0000
G00 X42.8800 Y62.6800
G01 Z-2.0000
G01 Z0
G00 Z2.0000
G00 X45.4200 Y62.6800
G01 Z-2.0000
G01 Z0
G00 Z2.0000
G00 X47.9600 Y62.6800
G01 Z-2.0000
G01 Z0
G00 Z2.0000
G00 X50.5000 Y62.6800
G01 Z-2.0000
G01 Z0
G00 Z2.0000
G00 X54.0000 Y60.0400
G01 Z-2.0000
G01 Z0
G00 Z2.0000
G00 X57.6200 Y62.6800
G01 Z-2.0000
G01 Z0
G00 Z2.0000
G00 X60.1600 Y62.6800
G01 Z-2.0000
G01 Z0
G00 Z2.0000
G00 X62.7000 Y62.6800
G01 Z-2.0000
G01 Z0
G00 Z2.0000
G00 X62.7000 Y59.9600
G01 Z-2.0000
G01 Z0
G00 Z2.0000
G00 X65.4000 Y60.0000
G01 Z-2.0000
G01 Z0
G00 Z2.0000
G00 X65.2400 Y62.6800
G01 Z-2.0000
G01 Z0
G00 Z2.0000
G00 X67.7800 Y62.6800
G01 Z-2.0000
G01 Z0
G00 Z2.0000
G00 X70.3200 Y62.6800
G01 Z-2.0000
G01 Z0
G00 Z2.0000
G00 X72.8600 Y62.6800
G01 Z-2.0000
G01 Z0
G00 Z2.0000
G00 X75.4000 Y62.6800
G01 Z-2.0000
G01 Z0
G00 Z2.0000
G00 X78.8000 Y60.1400
G01 Z-2.0000
G01 Z0
G00 Z2.0000
G00 X82.7200 Y62.6800
G01 Z-2.0000
G01 Z0
G00 Z2.0000
G00 X85.2600 Y62.6800
G01 Z-2.0000
G01 Z0
G00 Z2.0000
G00 X87.8000 Y62.6800
G01 Z-2.0000
G01 Z0
G00 Z2.0000
G00 X87.2000 Y60.1600
G01 Z-2.0000
G01 Z0
G00 Z2.0000
G00 X89.9000 Y60.0000
G01 Z-2.0000
G01 Z0
G00 Z2.0000
G00 X90.3400 Y62.6800
G01 Z-2.0000
G01 Z0
G00 Z2.0000
G00 X92.8800 Y62.6800
G01 Z-2.0000
G01 Z0
G00 Z2.0000
G00 X95.4200 Y62.6800
G01 Z-2.0000
G01 Z0
G00 Z2.0000
G00 X97.9600 Y62.6800
G01 Z-2.0000
G01 Z0
G00 Z2.0000
G00 X100.5000 Y62.6800
G01 Z-2.0000
G01 Z0
G00 Z2.0000
G00 X104.0000 Y60.0400
G01 Z-2.0000
G01 Z0
G00 Z2.0000
G00 X107.5200 Y62.6800
G01 Z-2.0000
G01 Z0
G00 Z2.0000
G00 X110.0600 Y62.6800
G01 Z-2.0000
G01 Z0
G00 Z2.0000
G00 X112.6000 Y62.6800
G01 Z-2.0000
G01 Z0
G00 Z2.0000
G00 X112.3000 Y60.0600
G01 Z-2.0000
G01 Z0
G00 Z2.0000
G00 X115.4000 Y60.0000
G01 Z-2.0000
G01 Z0
G00 Z2.0000
G00 X115.1400 Y62.6800
G01 Z-2.0000
G01 Z0
G00 Z2.0000
G00 X117.6800 Y62.6800
G01 Z-2.0000
G01 Z0
G00 Z2.0000
G00 X120.2200 Y62.6800
G01 Z-2.0000
G01 Z0
G00 Z2.0000
G00 X122.7600 Y62.6800
G01 Z-2.0000
G01 Z0
G00 Z2.0000
G00 X125.3000 Y62.6800
G01 Z-2.0000
G01 Z0
G00 Z2.0000
G00 X128.9000 Y60.1400
G01 Z-2.0000
G01 Z0
G00 Z2.0000
G00 X128.9000 Y70.3000
G01 Z-2.0000
G01 Z0
G00 Z2.0000
G00 X128.9000 Y87.5000
G01 Z-2.0000
G01 Z0
G00 Z2.0000
G00 X126.3600 Y87.5000
G01 Z-2.0000
G01 Z0
G00 Z2.0000
G00 X123.8200 Y87.5000
G01 Z-2.0000
G01 Z0
G00 Z2.0000
G00 X121.2800 Y87.5000
G01 Z-2.0000
G01 Z0
G00 Z2.0000
G00 X118.7400 Y87.5000
G01 Z-2.0000
G01 Z0
G00 Z2.0000
G00 X116.2000 Y87.5000
G01 Z-2.0000
G01 Z0
G00 Z2.0000
G00 X113.6600 Y87.5000
G01 Z-2.0000
G01 Z0
G00 Z2.0000
G00 X111.1200 Y87.5000
G01 Z-2.0000
G01 Z0
G00 Z2.0000
G00 X103.9000 Y87.4000
G01 Z-2.0000
G01 Z0
G00 Z2.0000
G00 X101.3600 Y87.4000
G01 Z-2.0000
G01 Z0
G00 Z2.0000
G00 X98.8200 Y87.4000
G01 Z-2.0000
G01 Z0
G00 Z2.0000
G00 X96.2800 Y87.4000
G01 Z-2.0000
G01 Z0
G00 Z2.0000
G00 X93.7400 Y87.4000
G01 Z-2.0000
G01 Z0
G00 Z2.0000
G00 X91.2000 Y87.4000
G01 Z-2.0000
G01 Z0
G00 Z2.0000
G00 X88.6600 Y87.4000
G01 Z-2.0000
G01 Z0
G00 Z2.0000
G00 X86.1200 Y87.4000
G01 Z-2.0000
G01 Z0
G00 Z2.0000
G00 X78.8000 Y87.5000
G01 Z-2.0000
G01 Z0
G00 Z2.0000
G00 X76.2600 Y87.5000
G01 Z-2.0000
G01 Z0
G00 Z2.0000
G00 X73.7200 Y87.5000
G01 Z-2.0000
G01 Z0
G00 Z2.0000
G00 X71.1800 Y87.5000
G01 Z-2.0000
G01 Z0
G00 Z2.0000
G00 X68.6400 Y87.5000
G01 Z-2.0000
G01 Z0
G00 Z2.0000
G00 X66.1000 Y87.5000
G01 Z-2.0000
G01 Z0
G00 Z2.0000
G00 X63.5600 Y87.5000
G01 Z-2.0000
G01 Z0
G00 Z2.0000
G00 X61.0200 Y87.5000
G01 Z-2.0000
G01 Z0
G00 Z2.0000
G00 X54.0000 Y87.4000
G01 Z-2.0000
G01 Z0
G00 Z2.0000
G00 X51.4600 Y87.4000
G01 Z-2.0000
G01 Z0
G00 Z2.0000
G00 X48.9200 Y87.4000
G01 Z-2.0000
G01 Z0
G00 Z2.0000
G00 X46.3800 Y87.4000
G01 Z-2.0000
G01 Z0
G00 Z2.0000
G00 X51.3000 Y83.1000
G01 Z-2.0000
G01 Z0
G00 Z2.0000
G00 X48.4000 Y83.0000
G01 Z-2.0000
G01 Z0
G00 Z2.0000
G00 X45.7000 Y82.9000
G01 Z-2.0000
G01 Z0
G00 Z2.0000
G00 X43.1000 Y82.9000
G01 Z-2.0000
G01 Z0
G00 Z2.0000
G00 X40.4000 Y82.9000
G01 Z-2.0000
G01 Z0
G00 Z2.0000
G00 X43.8400 Y87.4000
G01 Z-2.0000
G01 Z0
G00 Z2.0000
G00 X41.3000 Y87.4000
G01 Z-2.0000
G01 Z0
G00 Z2.0000
G00 X38.7600 Y87.4000
G01 Z-2.0000
G01 Z0
G00 Z2.0000
G00 X36.2200 Y87.4000
G01 Z-2.0000
G01 Z0
G00 Z2.0000
G00 X37.8000 Y82.8000
G01 Z-2.0000
G01 Z0
G00 Z2.0000
G00 X35.2000 Y82.8000
G01 Z-2.0000
G01 Z0
G00 Z2.0000
G00 X23.9800 Y87.4000
G01 Z-2.0000
G01 Z0
G00 Z2.0000
G00 X21.4400 Y87.4000
G01 Z-2.0000
G01 Z0
G00 Z2.0000
G00 X18.9000 Y87.4000
G01 Z-2.0000
G01 Z0
G00 Z2.0000
G00 X16.3600 Y87.4000
G01 Z-2.0000
G01 Z0
G00 Z2.0000
G00 X13.8200 Y87.4000
G01 Z-2.0000
G01 Z0
G00 Z2.0000
G00 X11.2800 Y87.4000
G01 Z-2.0000
G01 Z0
G00 Z2.0000
G00 X8.7400 Y87.4000
G01 Z-2.0000
G01 Z0
G00 Z2.0000
G00 X6.2000 Y87.4000
G01 Z-2.0000
G01 Z0
G00 Z2.0000
G00 X6.2000 Y70.3200
G01 Z-2.0000
G01 Z0
G00 Z2.0000
G00 X8.7400 Y70.3200
G01 Z-2.0000
G01 Z0
G00 Z2.0000
G00 X11.2800 Y70.3200
G01 Z-2.0000
G01 Z0
G00 Z2.0000
G00 X13.8200 Y70.3200
G01 Z-2.0000
G01 Z0
G00 Z2.0000
G00 X16.3600 Y70.3200
G01 Z-2.0000
G01 Z0
G00 Z2.0000
G00 X18.9000 Y70.3200
G01 Z-2.0000
G01 Z0
G00 Z2.0000
G00 X21.4400 Y70.3200
G01 Z-2.0000
G01 Z0
G00 Z2.0000
G00 X23.9800 Y70.3200
G01 Z-2.0000
G01 Z0
G00 Z2.0000
G00 X26.5200 Y70.3200
G01 Z-2.0000
G01 Z0
G00 Z2.0000
G00 X29.8000 Y70.5600
G01 Z-2.0000
G01 Z0
G00 Z2.0000
G00 X32.7200 Y70.3000
G01 Z-2.0000
G01 Z0
G00 Z2.0000
G00 X35.2600 Y70.3000
G01 Z-2.0000
G01 Z0
G00 Z2.0000
G00 X35.2000 Y72.6400
G01 Z-2.0000
G01 Z0
G00 Z2.0000
G00 X37.8000 Y72.6400
G01 Z-2.0000
G01 Z0
G00 Z2.0000
G00 X40.4000 Y72.7400
G01 Z-2.0000
G01 Z0
G00 Z2.0000
G00 X43.1000 Y72.7400
G01 Z-2.0000
G01 Z0
G00 Z2.0000
G00 X45.7000 Y72.7400
G01 Z-2.0000
G01 Z0
G00 Z2.0000
G00 X48.4000 Y72.8400
G01 Z-2.0000
G01 Z0
G00 Z2.0000
G00 X51.3000 Y72.9400
G01 Z-2.0000
G01 Z0
G00 Z2.0000
G00 X60.1000 Y72.7400
G01 Z-2.0000
G01 Z0
G00 Z2.0000
G00 X62.7000 Y72.7400
G01 Z-2.0000
G01 Z0
G00 Z2.0000
G00 X65.3000 Y72.7400
G01 Z-2.0000
G01 Z0
G00 Z2.0000
G00 X68.0000 Y72.7400
G01 Z-2.0000
G01 Z0
G00 Z2.0000
G00 X70.6000 Y72.7400
G01 Z-2.0000
G01 Z0
G00 Z2.0000
G00 X73.5000 Y72.7400
G01 Z-2.0000
G01 Z0
G00 Z2.0000
G00 X76.1000 Y72.7400
G01 Z-2.0000
G01 Z0
G00 Z2.0000
G00 X84.5000 Y72.7400
G01 Z-2.0000
G01 Z0
G00 Z2.0000
G00 X87.5000 Y72.7400
G01 Z-2.0000
G01 Z0
G00 Z2.0000
G00 X90.3000 Y72.7400
G01 Z-2.0000
G01 Z0
G00 Z2.0000
G00 X92.9000 Y72.7400
G01 Z-2.0000
G01 Z0
G00 Z2.0000
G00 X95.5000 Y72.6400
G01 Z-2.0000
G01 Z0
G00 Z2.0000
G00 X98.2000 Y72.6400
G01 Z-2.0000
G01 Z0
G00 Z2.0000
G00 X100.8000 Y72.7400
G01 Z-2.0000
G01 Z0
G00 Z2.0000
G00 X112.7000 Y72.6400
G01 Z-2.0000
G01 Z0
G00 Z2.0000
G00 X115.4000 Y72.6400
G01 Z-2.0000
G01 Z0
G00 Z2.0000
G00 X118.1000 Y72.7400
G01 Z-2.0000
G01 Z0
G00 Z2.0000
G00 X120.7000 Y72.7400
G01 Z-2.0000
G01 Z0
G00 Z2.0000
G00 X123.3000 Y72.7400
G01 Z-2.0000
G01 Z0
G00 Z2.0000
G00 X126.2000 Y72.7400
G01 Z-2.0000
G01 Z0
G00 Z2.0000
G00 X125.3000 Y70.3000
G01 Z-2.0000
G01 Z0
G00 Z2.0000
G00 X122.7600 Y70.3000
G01 Z-2.0000
G01 Z0
G00 Z2.0000
G00 X120.2200 Y70.3000
G01 Z-2.0000
G01 Z0
G00 Z2.0000
G00 X117.6800 Y70.3000
G01 Z-2.0000
G01 Z0
G00 Z2.0000
G00 X115.1400 Y70.3000
G01 Z-2.0000
G01 Z0
G00 Z2.0000
G00 X112.6000 Y70.3000
G01 Z-2.0000
G01 Z0
G00 Z2.0000
G00 X110.0600 Y70.3000
G01 Z-2.0000
G01 Z0
G00 Z2.0000
G00 X107.5200 Y70.3000
G01 Z-2.0000
G01 Z0
G00 Z2.0000
G00 X104.0000 Y70.2000
G01 Z-2.0000
G01 Z0
G00 Z2.0000
G00 X100.5000 Y70.3000
G01 Z-2.0000
G01 Z0
G00 Z2.0000
G00 X97.9600 Y70.3000
G01 Z-2.0000
G01 Z0
G00 Z2.0000
G00 X95.4200 Y70.3000
G01 Z-2.0000
G01 Z0
G00 Z2.0000
G00 X92.8800 Y70.3000
G01 Z-2.0000
G01 Z0
G00 Z2.0000
G00 X90.3400 Y70.3000
G01 Z-2.0000
G01 Z0
G00 Z2.0000
G00 X87.8000 Y70.3000
G01 Z-2.0000
G01 Z0
G00 Z2.0000
G00 X85.2600 Y70.3000
G01 Z-2.0000
G01 Z0
G00 Z2.0000
G00 X82.7200 Y70.3000
G01 Z-2.0000
G01 Z0
G00 Z2.0000
G00 X78.8000 Y70.3000
G01 Z-2.0000
G01 Z0
G00 Z2.0000
G00 X75.4000 Y70.3000
G01 Z-2.0000
G01 Z0
G00 Z2.0000
G00 X72.8600 Y70.3000
G01 Z-2.0000
G01 Z0
G00 Z2.0000
G00 X70.3200 Y70.3000
G01 Z-2.0000
G01 Z0
G00 Z2.0000
G00 X67.7800 Y70.3000
G01 Z-2.0000
G01 Z0
G00 Z2.0000
G00 X65.2400 Y70.3000
G01 Z-2.0000
G01 Z0
G00 Z2.0000
G00 X62.7000 Y70.3000
G01 Z-2.0000
G01 Z0
G00 Z2.0000
G00 X60.1600 Y70.3000
G01 Z-2.0000
G01 Z0
G00 Z2.0000
G00 X57.6200 Y70.3000
G01 Z-2.0000
G01 Z0
G00 Z2.0000
G00 X54.0000 Y70.2000
G01 Z-2.0000
G01 Z0
G00 Z2.0000
G00 X50.5000 Y70.3000
G01 Z-2.0000
G01 Z0
G00 Z2.0000
G00 X47.9600 Y70.3000
G01 Z-2.0000
G01 Z0
G00 Z2.0000
G00 X45.4200 Y70.3000
G01 Z-2.0000
G01 Z0
G00 Z2.0000
G00 X42.8800 Y70.3000
G01 Z-2.0000
G01 Z0
G00 Z2.0000
G00 X40.3400 Y70.3000
G01 Z-2.0000
G01 Z0
G00 Z2.0000
G00 X37.8000 Y70.3000
G01 Z-2.0000
G01 Z0
G00 Z2.0000
G00 X35.2600 Y62.6800
G01 Z-2.0000
G01 Z0
G00 Z2.0000
G00 X32.7200 Y62.6800
G01 Z-2.0000
G01 Z0
G00 Z2.0000
G00 X29.8000 Y60.4000
G01 Z-2.0000
G01 Z0
G00 Z2.0000
G00 X26.5200 Y62.7000
G01 Z-2.0000
G01 Z0
G00 Z2.0000
G00 X23.9800 Y62.7000
G01 Z-2.0000
G01 Z0
G00 Z2.0000
G00 X21.4400 Y62.7000
G01 Z-2.0000
G01 Z0
G00 Z2.0000
G00 X18.9000 Y62.7000
G01 Z-2.0000
G01 Z0
G00 Z2.0000
G00 X16.3600 Y62.7000
G01 Z-2.0000
G01 Z0
G00 Z2.0000
G00 X13.8200 Y62.7000
G01 Z-2.0000
G01 Z0
G00 Z2.0000
G00 X11.2800 Y62.7000
G01 Z-2.0000
G01 Z0
G00 Z2.0000
G00 X8.7400 Y62.7000
G01 Z-2.0000
G01 Z0
G00 Z2.0000
G00 X6.2000 Y62.7000
G01 Z-2.0000
G01 Z0
G00 Z2.0000
G00 X6.1000 Y48.5200
G01 Z-2.0000
G01 Z0
G00 Z2.0000
G00 X6.1000 Y45.9800
G01 Z-2.0000
G01 Z0
G00 Z2.0000
G00 X6.1000 Y43.4400
G01 Z-2.0000
G01 Z0
G00 Z2.0000
G00 X6.1000 Y40.9000
G01 Z-2.0000
G01 Z0
G00 Z2.0000
G00 X6.1000 Y38.3600
G01 Z-2.0000
G01 Z0
G00 Z2.0000
G00 X6.1000 Y35.8200
G01 Z-2.0000
G01 Z0
G00 Z2.0000
G00 X6.1000 Y33.2800
G01 Z-2.0000
G01 Z0
G00 Z2.0000
G00 X6.1000 Y30.7400
G01 Z-2.0000
G01 Z0
G00 Z2.0000
G00 X6.1000 Y28.2000
G01 Z-2.0000
G01 Z0
G00 Z2.0000
G00 X6.1000 Y25.6600
G01 Z-2.0000
G01 Z0
G00 Z2.0000
G00 X6.1000 Y23.1200
G01 Z-2.0000
G01 Z0
G00 Z2.0000
M05
G00 Z10.00
G00 X0.0 Y0.0

